(G-CODE GENERATED BY FLATCAM v8.994 - www.flatcam.org - Version Date: 2020/11/7)

(Name: PowerAndCommModule-F_Cu.gbr_ncc_cnc)
(Type: G-code from Geometry)
(Units: MM)

(Created on Sunday, 30 April 2023 at 10:58)

(This preprocessor is used with a motion controller loaded with GRBL firmware.)
(It is configured to be compatible with almost any version of GRBL firmware.)

(TOOL DIAMETER: 0.1353 mm)
(Feedrate_XY: 40.0 mm/min)
(Feedrate_Z: 40.0 mm/min)
(Feedrate rapids 1500.0 mm/min)

(Z_Cut: -0.1001 mm)
(Z_Move: 1.0 mm)
(Z Start: None mm)
(Z End: 5.0 mm)
(X,Y End: None mm)
(Steps per circle: 64)
(Steps per circle: 64)
(Preprocessor Geometry: GRBL_11_no_M6)

(X range:    5.2277 ...   44.9554  mm)
(Y range:  -26.1318 ...   23.5029  mm)

(Spindle Speed: 1000.0 RPM)
G21
G90
G17
G94


G01 F40.00

M5             
G00 Z5.0000
G00 X0.0000 Y0.0000                
T1
(MSG, Change to Tool Dia = 0.1353)
M0
G00 Z5.0000
        
M03 S1000.0
G01 F40.00
G00 X5.9678 Y-3.5200
G01 F40.00
G01 Z-0.1001
G01 F40.00
G01 X5.9853 Y-3.3420 F40.00
G01 X6.0372 Y-3.1709 F40.00
G01 X6.1215 Y-3.0132 F40.00
G01 X6.2349 Y-2.8749 F40.00
G01 X6.3732 Y-2.7615 F40.00
G01 X6.5309 Y-2.6772 F40.00
G01 X6.7020 Y-2.6253 F40.00
G01 X6.8800 Y-2.6078 F40.00
G01 X7.0580 Y-2.6253 F40.00
G01 X7.2291 Y-2.6772 F40.00
G01 X7.3868 Y-2.7615 F40.00
G01 X7.5251 Y-2.8749 F40.00
G01 X7.6385 Y-3.0132 F40.00
G01 X7.7228 Y-3.1709 F40.00
G01 X7.7747 Y-3.3420 F40.00
G01 X7.7922 Y-3.5200 F40.00
G01 X7.7747 Y-3.6980 F40.00
G01 X7.7228 Y-3.8691 F40.00
G01 X7.6385 Y-4.0268 F40.00
G01 X7.5251 Y-4.1651 F40.00
G01 X7.3868 Y-4.2785 F40.00
G01 X7.2291 Y-4.3628 F40.00
G01 X7.0580 Y-4.4147 F40.00
G01 X6.8800 Y-4.4322 F40.00
G01 X6.7020 Y-4.4147 F40.00
G01 X6.5309 Y-4.3628 F40.00
G01 X6.3732 Y-4.2785 F40.00
G01 X6.2349 Y-4.1651 F40.00
G01 X6.1215 Y-4.0268 F40.00
G01 X6.0372 Y-3.8691 F40.00
G01 X5.9853 Y-3.6980 F40.00
G01 X5.9678 Y-3.5200 F40.00
G00 Z1.0000
G00 X6.8105 Y-2.7807
G01 F40.00
G01 Z-0.1001
G01 F40.00
G01 X6.8039 Y-2.7813 F40.00
G01 X6.7351 Y-2.7916 F40.00
G01 X6.6644 Y-2.8093 F40.00
G01 X6.5958 Y-2.8339 F40.00
G01 X6.5299 Y-2.8650 F40.00
G01 X6.4674 Y-2.9025 F40.00
G01 X6.4089 Y-2.9459 F40.00
G01 X6.3549 Y-2.9949 F40.00
G01 X6.3059 Y-3.0489 F40.00
G01 X6.2625 Y-3.1074 F40.00
G01 X6.2250 Y-3.1699 F40.00
G01 X6.1939 Y-3.2358 F40.00
G01 X6.1693 Y-3.3044 F40.00
G01 X6.1516 Y-3.3751 F40.00
G01 X6.1409 Y-3.4472 F40.00
G01 X6.1374 Y-3.5200 F40.00
G01 X6.1409 Y-3.5928 F40.00
G01 X6.1516 Y-3.6649 F40.00
G01 X6.1693 Y-3.7356 F40.00
G01 X6.1939 Y-3.8042 F40.00
G01 X6.2250 Y-3.8701 F40.00
G01 X6.2625 Y-3.9326 F40.00
G01 X6.3059 Y-3.9911 F40.00
G01 X6.3549 Y-4.0451 F40.00
G01 X6.4089 Y-4.0941 F40.00
G01 X6.4674 Y-4.1375 F40.00
G01 X6.5299 Y-4.1750 F40.00
G01 X6.5958 Y-4.2061 F40.00
G01 X6.6644 Y-4.2307 F40.00
G01 X6.7351 Y-4.2484 F40.00
G01 X6.8072 Y-4.2591 F40.00
G01 X6.8800 Y-4.2626 F40.00
G01 X6.9528 Y-4.2591 F40.00
G01 X7.0249 Y-4.2484 F40.00
G01 X7.0956 Y-4.2307 F40.00
G01 X7.1642 Y-4.2061 F40.00
G01 X7.2301 Y-4.1750 F40.00
G01 X7.2926 Y-4.1375 F40.00
G01 X7.3511 Y-4.0941 F40.00
G01 X7.4051 Y-4.0451 F40.00
G01 X7.4541 Y-3.9911 F40.00
G01 X7.4975 Y-3.9326 F40.00
G01 X7.5350 Y-3.8701 F40.00
G01 X7.5661 Y-3.8042 F40.00
G01 X7.5907 Y-3.7356 F40.00
G01 X7.6084 Y-3.6649 F40.00
G01 X7.6191 Y-3.5928 F40.00
G01 X7.6226 Y-3.5200 F40.00
G01 X7.6191 Y-3.4472 F40.00
G01 X7.6084 Y-3.3751 F40.00
G01 X7.5907 Y-3.3044 F40.00
G01 X7.5661 Y-3.2358 F40.00
G01 X7.5350 Y-3.1699 F40.00
G01 X7.4975 Y-3.1074 F40.00
G01 X7.4541 Y-3.0489 F40.00
G01 X7.4051 Y-2.9949 F40.00
G01 X7.3511 Y-2.9459 F40.00
G01 X7.2926 Y-2.9025 F40.00
G01 X7.2301 Y-2.8650 F40.00
G01 X7.1642 Y-2.8339 F40.00
G01 X7.0956 Y-2.8093 F40.00
G01 X7.0249 Y-2.7916 F40.00
G01 X6.9528 Y-2.7809 F40.00
G01 X6.8800 Y-2.7774 F40.00
G01 X6.8105 Y-2.7807 F40.00
G00 Z1.0000
G00 X7.6375 Y-5.1575
G01 F40.00
G01 Z-0.1001
G01 F40.00
G01 X7.6340 Y-5.1575 F40.00
G01 X7.6324 Y-5.1543 F40.00
G01 X7.6343 Y-5.1556 F40.00
G01 X7.6375 Y-5.1575 F40.00
G00 Z1.0000
G00 X7.5721 Y-5.7878
G01 F40.00
G01 Z-0.1001
G01 F40.00
G01 X9.3691 Y-5.7877 F40.00
G01 X10.7119 Y-7.1305 F40.00
G01 X10.7301 Y-7.1470 F40.00
G01 X10.7485 Y-7.1607 F40.00
G01 X10.7541 Y-7.1644 F40.00
G01 X10.7738 Y-7.1761 F40.00
G01 X10.7975 Y-7.1874 F40.00
G01 X10.8191 Y-7.1952 F40.00
G01 X10.8255 Y-7.1971 F40.00
G01 X10.8494 Y-7.2029 F40.00
G01 X10.8738 Y-7.2065 F40.00
G01 X10.9000 Y-7.2077 F40.00
G01 X15.5700 Y-7.2077 F40.00
G01 X15.5962 Y-7.2065 F40.00
G01 X15.6222 Y-7.2026 F40.00
G01 X15.6445 Y-7.1971 F40.00
G01 X15.6694 Y-7.1886 F40.00
G01 X15.6755 Y-7.1860 F40.00
G01 X15.6962 Y-7.1761 F40.00
G01 X15.7188 Y-7.1626 F40.00
G01 X15.7399 Y-7.1470 F40.00
G01 X15.7581 Y-7.1305 F40.00
G01 X19.0909 Y-3.7978 F40.00
G01 X29.8269 Y-3.7977 F40.00
G01 X29.8485 Y-3.8267 F40.00
G01 X29.8770 Y-3.8583 F40.00
G01 X29.8817 Y-3.8630 F40.00
G01 X29.9108 Y-3.8893 F40.00
G01 X29.9159 Y-3.8935 F40.00
G01 X29.9502 Y-3.9188 F40.00
G01 X29.9896 Y-3.9424 F40.00
G01 X30.0280 Y-3.9607 F40.00
G01 X30.0341 Y-3.9632 F40.00
G01 X30.0742 Y-3.9775 F40.00
G01 X30.1155 Y-3.9879 F40.00
G01 X30.1220 Y-3.9892 F40.00
G01 X30.1642 Y-3.9954 F40.00
G01 X30.2117 Y-3.9976 F40.00
G01 X30.2558 Y-3.9954 F40.00
G01 X30.3012 Y-3.9887 F40.00
G01 X30.3458 Y-3.9775 F40.00
G01 X30.3859 Y-3.9632 F40.00
G01 X30.3920 Y-3.9607 F40.00
G01 X30.4275 Y-3.9439 F40.00
G01 X30.4333 Y-3.9408 F40.00
G01 X30.4698 Y-3.9188 F40.00
G01 X30.5041 Y-3.8935 F40.00
G01 X30.5092 Y-3.8893 F40.00
G01 X30.5407 Y-3.8607 F40.00
G01 X30.5693 Y-3.8292 F40.00
G01 X30.5735 Y-3.8241 F40.00
G01 X30.5988 Y-3.7898 F40.00
G01 X30.6224 Y-3.7504 F40.00
G01 X30.6421 Y-3.7090 F40.00
G01 X30.6575 Y-3.6658 F40.00
G01 X30.6687 Y-3.6212 F40.00
G01 X30.6754 Y-3.5758 F40.00
G01 X30.6776 Y-3.5300 F40.00
G01 X30.6754 Y-3.4842 F40.00
G01 X30.6687 Y-3.4388 F40.00
G01 X30.6575 Y-3.3942 F40.00
G01 X30.6421 Y-3.3510 F40.00
G01 X30.6239 Y-3.3125 F40.00
G01 X30.6208 Y-3.3067 F40.00
G01 X30.5988 Y-3.2702 F40.00
G01 X30.5735 Y-3.2359 F40.00
G01 X30.5693 Y-3.2308 F40.00
G01 X30.5430 Y-3.2017 F40.00
G01 X30.5383 Y-3.1970 F40.00
G01 X30.5067 Y-3.1685 F40.00
G01 X30.4698 Y-3.1412 F40.00
G01 X30.4304 Y-3.1176 F40.00
G01 X30.3890 Y-3.0979 F40.00
G01 X30.3458 Y-3.0825 F40.00
G01 X30.3012 Y-3.0713 F40.00
G01 X30.2558 Y-3.0646 F40.00
G01 X30.2117 Y-3.0624 F40.00
G01 X30.1642 Y-3.0646 F40.00
G01 X30.1220 Y-3.0708 F40.00
G01 X30.1155 Y-3.0721 F40.00
G01 X30.0742 Y-3.0825 F40.00
G01 X30.0341 Y-3.0968 F40.00
G01 X30.0280 Y-3.0993 F40.00
G01 X29.9896 Y-3.1176 F40.00
G01 X29.9502 Y-3.1412 F40.00
G01 X29.9159 Y-3.1665 F40.00
G01 X29.9108 Y-3.1707 F40.00
G01 X29.8817 Y-3.1970 F40.00
G01 X29.8770 Y-3.2017 F40.00
G01 X29.8485 Y-3.2333 F40.00
G01 X29.8269 Y-3.2622 F40.00
G01 X18.9800 Y-3.2623 F40.00
G01 X18.9538 Y-3.2635 F40.00
G01 X18.9278 Y-3.2674 F40.00
G01 X18.9023 Y-3.2738 F40.00
G01 X18.8806 Y-3.2814 F40.00
G01 X18.8745 Y-3.2840 F40.00
G01 X18.8538 Y-3.2939 F40.00
G01 X18.8312 Y-3.3074 F40.00
G01 X18.8128 Y-3.3210 F40.00
G01 X18.8076 Y-3.3252 F40.00
G01 X18.7907 Y-3.3407 F40.00
G01 X15.4591 Y-6.6722 F40.00
G01 X11.0109 Y-6.6723 F40.00
G01 X9.6681 Y-5.3295 F40.00
G01 X9.6524 Y-5.3152 F40.00
G01 X9.6472 Y-5.3110 F40.00
G01 X9.6288 Y-5.2974 F40.00
G01 X9.6091 Y-5.2855 F40.00
G01 X9.6033 Y-5.2824 F40.00
G01 X9.5825 Y-5.2726 F40.00
G01 X9.5577 Y-5.2638 F40.00
G01 X9.5322 Y-5.2574 F40.00
G01 X9.5095 Y-5.2539 F40.00
G01 X9.5029 Y-5.2533 F40.00
G01 X9.4800 Y-5.2523 F40.00
G01 X7.5721 Y-5.2523 F40.00
G01 X7.5655 Y-5.2343 F40.00
G01 X7.5342 Y-5.1685 F40.00
G01 X7.4975 Y-5.1074 F40.00
G01 X7.4551 Y-5.0502 F40.00
G01 X7.4074 Y-4.9973 F40.00
G01 X7.4027 Y-4.9926 F40.00
G01 X7.3511 Y-4.9459 F40.00
G01 X7.2940 Y-4.9034 F40.00
G01 X7.2330 Y-4.8667 F40.00
G01 X7.2271 Y-4.8635 F40.00
G01 X7.1642 Y-4.8339 F40.00
G01 X7.0956 Y-4.8093 F40.00
G01 X7.0281 Y-4.7923 F40.00
G01 X7.0216 Y-4.7911 F40.00
G01 X6.9528 Y-4.7809 F40.00
G01 X6.8817 Y-4.7774 F40.00
G01 X6.8105 Y-4.7807 F40.00
G01 X6.8039 Y-4.7813 F40.00
G01 X6.7351 Y-4.7916 F40.00
G01 X6.6676 Y-4.8084 F40.00
G01 X6.6613 Y-4.8104 F40.00
G01 X6.5958 Y-4.8339 F40.00
G01 X6.5329 Y-4.8635 F40.00
G01 X6.5270 Y-4.8667 F40.00
G01 X6.4674 Y-4.9025 F40.00
G01 X6.4115 Y-4.9439 F40.00
G01 X6.4064 Y-4.9481 F40.00
G01 X6.3549 Y-4.9949 F40.00
G01 X6.3059 Y-5.0489 F40.00
G01 X6.2644 Y-5.1047 F40.00
G01 X6.2607 Y-5.1102 F40.00
G01 X6.2243 Y-5.1714 F40.00
G01 X6.1939 Y-5.2358 F40.00
G01 X6.1693 Y-5.3044 F40.00
G01 X6.1516 Y-5.3751 F40.00
G01 X6.1409 Y-5.4472 F40.00
G01 X6.1374 Y-5.5200 F40.00
G01 X6.1409 Y-5.5928 F40.00
G01 X6.1516 Y-5.6649 F40.00
G01 X6.1693 Y-5.7356 F40.00
G01 X6.1939 Y-5.8042 F40.00
G01 X6.2250 Y-5.8701 F40.00
G01 X6.2625 Y-5.9326 F40.00
G01 X6.3059 Y-5.9911 F40.00
G01 X6.3549 Y-6.0451 F40.00
G01 X6.4089 Y-6.0941 F40.00
G01 X6.4674 Y-6.1375 F40.00
G01 X6.5314 Y-6.1757 F40.00
G01 X6.5958 Y-6.2061 F40.00
G01 X6.6644 Y-6.2307 F40.00
G01 X6.7351 Y-6.2484 F40.00
G01 X6.8072 Y-6.2591 F40.00
G01 X6.8800 Y-6.2626 F40.00
G01 X6.9528 Y-6.2591 F40.00
G01 X7.0249 Y-6.2484 F40.00
G01 X7.0940 Y-6.2311 F40.00
G01 X7.1642 Y-6.2061 F40.00
G01 X7.2271 Y-6.1765 F40.00
G01 X7.2330 Y-6.1733 F40.00
G01 X7.2926 Y-6.1375 F40.00
G01 X7.3485 Y-6.0961 F40.00
G01 X7.3536 Y-6.0919 F40.00
G01 X7.4027 Y-6.0474 F40.00
G01 X7.4074 Y-6.0427 F40.00
G01 X7.4541 Y-5.9911 F40.00
G01 X7.4975 Y-5.9326 F40.00
G01 X7.5357 Y-5.8686 F40.00
G01 X7.5655 Y-5.8057 F40.00
G01 X7.5721 Y-5.7878 F40.00
G01 X7.6326 Y-5.8854 F40.00
G01 X7.6340 Y-5.8825 F40.00
G01 X7.6376 Y-5.8825 F40.00
G01 X7.6326 Y-5.8854 F40.00
G00 Z1.0000
G00 X7.6324 Y-7.1543
G01 F40.00
G01 Z-0.1001
G01 F40.00
G01 X7.6343 Y-7.1555 F40.00
G01 X7.6375 Y-7.1575 F40.00
G01 X7.6340 Y-7.1575 F40.00
G01 X7.6324 Y-7.1543 F40.00
G00 Z1.0000
G00 X7.5721 Y-7.7878
G01 F40.00
G01 Z-0.1001
G01 F40.00
G01 X10.1491 Y-7.7877 F40.00
G01 X10.5722 Y-8.2109 F40.00
G01 X10.5723 Y-16.2300 F40.00
G01 X10.5735 Y-16.2562 F40.00
G01 X10.5774 Y-16.2822 F40.00
G01 X10.5838 Y-16.3077 F40.00
G01 X10.5933 Y-16.3340 F40.00
G01 X10.6039 Y-16.3562 F40.00
G01 X10.6174 Y-16.3788 F40.00
G01 X10.6330 Y-16.3999 F40.00
G01 X10.6507 Y-16.4193 F40.00
G01 X15.2107 Y-20.9793 F40.00
G01 X15.2301 Y-20.9970 F40.00
G01 X15.2485 Y-21.0107 F40.00
G01 X15.2541 Y-21.0144 F40.00
G01 X15.2753 Y-21.0269 F40.00
G01 X15.2975 Y-21.0374 F40.00
G01 X15.3207 Y-21.0457 F40.00
G01 X15.3461 Y-21.0523 F40.00
G01 X15.3560 Y-21.0539 F40.00
G01 X16.8960 Y-22.5940 F40.00
G01 X16.9094 Y-22.6061 F40.00
G01 X16.9145 Y-22.6103 F40.00
G01 X16.9290 Y-22.6210 F40.00
G01 X16.9474 Y-22.6320 F40.00
G01 X16.9636 Y-22.6398 F40.00
G01 X16.9698 Y-22.6423 F40.00
G01 X16.9868 Y-22.6483 F40.00
G01 X17.0043 Y-22.6528 F40.00
G01 X17.0108 Y-22.6541 F40.00
G01 X17.0287 Y-22.6567 F40.00
G01 X17.0500 Y-22.6577 F40.00
G01 X34.5270 Y-22.6577 F40.00
G01 X34.5533 Y-22.6815 F40.00
G01 X34.5902 Y-22.7088 F40.00
G01 X34.6296 Y-22.7324 F40.00
G01 X34.6710 Y-22.7521 F40.00
G01 X34.7142 Y-22.7675 F40.00
G01 X34.7588 Y-22.7787 F40.00
G01 X34.8042 Y-22.7854 F40.00
G01 X34.8500 Y-22.7876 F40.00
G01 X34.8958 Y-22.7854 F40.00
G01 X34.9380 Y-22.7792 F40.00
G01 X34.9445 Y-22.7779 F40.00
G01 X34.9858 Y-22.7675 F40.00
G01 X35.0259 Y-22.7532 F40.00
G01 X35.0320 Y-22.7507 F40.00
G01 X35.0704 Y-22.7324 F40.00
G01 X35.1070 Y-22.7106 F40.00
G01 X35.1125 Y-22.7069 F40.00
G01 X35.1467 Y-22.6815 F40.00
G01 X35.1783 Y-22.6530 F40.00
G01 X35.1830 Y-22.6483 F40.00
G01 X35.2115 Y-22.6167 F40.00
G01 X35.2369 Y-22.5825 F40.00
G01 X35.2406 Y-22.5770 F40.00
G01 X35.2624 Y-22.5404 F40.00
G01 X35.2807 Y-22.5020 F40.00
G01 X35.2832 Y-22.4959 F40.00
G01 X35.2975 Y-22.4558 F40.00
G01 X35.3079 Y-22.4145 F40.00
G01 X35.3092 Y-22.4080 F40.00
G01 X35.3154 Y-22.3658 F40.00
G01 X35.3176 Y-22.3200 F40.00
G01 X35.3156 Y-22.2775 F40.00
G01 X35.3150 Y-22.2709 F40.00
G01 X35.3087 Y-22.2288 F40.00
G01 X35.2984 Y-22.1874 F40.00
G01 X35.2965 Y-22.1811 F40.00
G01 X35.2821 Y-22.1410 F40.00
G01 X35.2639 Y-22.1025 F40.00
G01 X35.2608 Y-22.0967 F40.00
G01 X35.2388 Y-22.0602 F40.00
G01 X35.2135 Y-22.0259 F40.00
G01 X35.2093 Y-22.0208 F40.00
G01 X35.1807 Y-21.9893 F40.00
G01 X35.1492 Y-21.9607 F40.00
G01 X35.1441 Y-21.9565 F40.00
G01 X35.1098 Y-21.9312 F40.00
G01 X35.0733 Y-21.9092 F40.00
G01 X35.0675 Y-21.9061 F40.00
G01 X35.0290 Y-21.8879 F40.00
G01 X34.9889 Y-21.8735 F40.00
G01 X34.9826 Y-21.8716 F40.00
G01 X34.9412 Y-21.8613 F40.00
G01 X34.8991 Y-21.8550 F40.00
G01 X34.8925 Y-21.8544 F40.00
G01 X34.8517 Y-21.8524 F40.00
G01 X34.8042 Y-21.8546 F40.00
G01 X34.7620 Y-21.8608 F40.00
G01 X34.7555 Y-21.8621 F40.00
G01 X34.7174 Y-21.8716 F40.00
G01 X34.7111 Y-21.8735 F40.00
G01 X34.6710 Y-21.8879 F40.00
G01 X34.6296 Y-21.9076 F40.00
G01 X34.5902 Y-21.9312 F40.00
G01 X34.5533 Y-21.9585 F40.00
G01 X34.5193 Y-21.9893 F40.00
G01 X34.4907 Y-22.0208 F40.00
G01 X34.4865 Y-22.0259 F40.00
G01 X34.4631 Y-22.0575 F40.00
G01 X34.4594 Y-22.0630 F40.00
G01 X34.4376 Y-22.0996 F40.00
G01 X34.4179 Y-22.1410 F40.00
G01 X34.4025 Y-22.1842 F40.00
G01 X34.3929 Y-22.2223 F40.00
G01 X17.1402 Y-22.2223 F40.00
G01 X15.6639 Y-20.7460 F40.00
G01 X15.6623 Y-20.7361 F40.00
G01 X15.6557 Y-20.7107 F40.00
G01 X15.6474 Y-20.6875 F40.00
G01 X15.6369 Y-20.6653 F40.00
G01 X15.6244 Y-20.6441 F40.00
G01 X15.6207 Y-20.6385 F40.00
G01 X15.6070 Y-20.6201 F40.00
G01 X15.5893 Y-20.6007 F40.00
G01 X11.1078 Y-16.1191 F40.00
G01 X11.1077 Y-8.1000 F40.00
G01 X11.1067 Y-8.0771 F40.00
G01 X11.1061 Y-8.0705 F40.00
G01 X11.1026 Y-8.0478 F40.00
G01 X11.0962 Y-8.0223 F40.00
G01 X11.0874 Y-7.9975 F40.00
G01 X11.0776 Y-7.9767 F40.00
G01 X11.0745 Y-7.9709 F40.00
G01 X11.0626 Y-7.9512 F40.00
G01 X11.0470 Y-7.9301 F40.00
G01 X11.0293 Y-7.9107 F40.00
G01 X10.4369 Y-7.3184 F40.00
G01 X10.4199 Y-7.3030 F40.00
G01 X10.4015 Y-7.2893 F40.00
G01 X10.3959 Y-7.2856 F40.00
G01 X10.3762 Y-7.2739 F40.00
G01 X10.3525 Y-7.2626 F40.00
G01 X10.3309 Y-7.2548 F40.00
G01 X10.3245 Y-7.2529 F40.00
G01 X10.3006 Y-7.2471 F40.00
G01 X10.2762 Y-7.2435 F40.00
G01 X10.2500 Y-7.2423 F40.00
G01 X10.2271 Y-7.2433 F40.00
G01 X10.2205 Y-7.2439 F40.00
G01 X10.1978 Y-7.2474 F40.00
G01 X10.1780 Y-7.2523 F40.00
G01 X7.5721 Y-7.2523 F40.00
G01 X7.5655 Y-7.2343 F40.00
G01 X7.5342 Y-7.1685 F40.00
G01 X7.4975 Y-7.1074 F40.00
G01 X7.4551 Y-7.0502 F40.00
G01 X7.4074 Y-6.9973 F40.00
G01 X7.4027 Y-6.9926 F40.00
G01 X7.3511 Y-6.9459 F40.00
G01 X7.2940 Y-6.9034 F40.00
G01 X7.2330 Y-6.8667 F40.00
G01 X7.2271 Y-6.8635 F40.00
G01 X7.1642 Y-6.8339 F40.00
G01 X7.0956 Y-6.8093 F40.00
G01 X7.0281 Y-6.7923 F40.00
G01 X7.0216 Y-6.7911 F40.00
G01 X6.9528 Y-6.7809 F40.00
G01 X6.8817 Y-6.7774 F40.00
G01 X6.8105 Y-6.7807 F40.00
G01 X6.8039 Y-6.7813 F40.00
G01 X6.7351 Y-6.7916 F40.00
G01 X6.6676 Y-6.8084 F40.00
G01 X6.6613 Y-6.8104 F40.00
G01 X6.5958 Y-6.8339 F40.00
G01 X6.5329 Y-6.8635 F40.00
G01 X6.5270 Y-6.8667 F40.00
G01 X6.4674 Y-6.9025 F40.00
G01 X6.4115 Y-6.9439 F40.00
G01 X6.4064 Y-6.9481 F40.00
G01 X6.3549 Y-6.9949 F40.00
G01 X6.3059 Y-7.0489 F40.00
G01 X6.2644 Y-7.1047 F40.00
G01 X6.2607 Y-7.1102 F40.00
G01 X6.2243 Y-7.1714 F40.00
G01 X6.1939 Y-7.2358 F40.00
G01 X6.1693 Y-7.3044 F40.00
G01 X6.1516 Y-7.3751 F40.00
G01 X6.1409 Y-7.4472 F40.00
G01 X6.1374 Y-7.5200 F40.00
G01 X6.1409 Y-7.5928 F40.00
G01 X6.1516 Y-7.6649 F40.00
G01 X6.1693 Y-7.7356 F40.00
G01 X6.1939 Y-7.8042 F40.00
G01 X6.2250 Y-7.8701 F40.00
G01 X6.2625 Y-7.9326 F40.00
G01 X6.3059 Y-7.9911 F40.00
G01 X6.3549 Y-8.0451 F40.00
G01 X6.4089 Y-8.0941 F40.00
G01 X6.4674 Y-8.1375 F40.00
G01 X6.5314 Y-8.1757 F40.00
G01 X6.5958 Y-8.2061 F40.00
G01 X6.6644 Y-8.2307 F40.00
G01 X6.7351 Y-8.2484 F40.00
G01 X6.8072 Y-8.2591 F40.00
G01 X6.8800 Y-8.2626 F40.00
G01 X6.9528 Y-8.2591 F40.00
G01 X7.0249 Y-8.2484 F40.00
G01 X7.0940 Y-8.2311 F40.00
G01 X7.1642 Y-8.2061 F40.00
G01 X7.2271 Y-8.1765 F40.00
G01 X7.2330 Y-8.1733 F40.00
G01 X7.2926 Y-8.1375 F40.00
G01 X7.3485 Y-8.0961 F40.00
G01 X7.3536 Y-8.0919 F40.00
G01 X7.4027 Y-8.0474 F40.00
G01 X7.4074 Y-8.0427 F40.00
G01 X7.4541 Y-7.9911 F40.00
G01 X7.4975 Y-7.9326 F40.00
G01 X7.5357 Y-7.8686 F40.00
G01 X7.5655 Y-7.8057 F40.00
G01 X7.5721 Y-7.7878 F40.00
G01 X7.6326 Y-7.8854 F40.00
G01 X7.6340 Y-7.8825 F40.00
G01 X7.6376 Y-7.8825 F40.00
G01 X7.6326 Y-7.8854 F40.00
G00 Z1.0000
G00 X7.3038 Y-8.3833
G01 F40.00
G01 Z-0.1001
G01 F40.00
G01 X7.3059 Y-8.3947 F40.00
G01 X7.3080 Y-8.4010 F40.00
G01 X7.3107 Y-8.4071 F40.00
G01 X7.3140 Y-8.4128 F40.00
G01 X7.3178 Y-8.4183 F40.00
G01 X7.3221 Y-8.4233 F40.00
G01 X7.3269 Y-8.4279 F40.00
G01 X7.3404 Y-8.4385 F40.00
G01 X7.3462 Y-8.4420 F40.00
G01 X7.3522 Y-8.4448 F40.00
G01 X7.3586 Y-8.4471 F40.00
G01 X7.3651 Y-8.4487 F40.00
G01 X7.3736 Y-8.4499 F40.00
G01 X7.3805 Y-8.4504 F40.00
G01 X10.3290 Y-8.4125 F40.00
G01 X10.3389 Y-8.4116 F40.00
G01 X10.3470 Y-8.4098 F40.00
G01 X10.3533 Y-8.4076 F40.00
G01 X10.3659 Y-8.4021 F40.00
G01 X10.3731 Y-8.3981 F40.00
G01 X10.3797 Y-8.3932 F40.00
G01 X10.3845 Y-8.3887 F40.00
G01 X10.3899 Y-8.3825 F40.00
G01 X10.3937 Y-8.3771 F40.00
G01 X10.3976 Y-8.3699 F40.00
G01 X10.4028 Y-8.3573 F40.00
G01 X10.4052 Y-8.3495 F40.00
G01 X10.4064 Y-8.3431 F40.00
G01 X10.4071 Y-8.3366 F40.00
G01 X10.4071 Y-8.3104 F40.00
G01 X10.4064 Y-8.3022 F40.00
G01 X10.4051 Y-8.2956 F40.00
G01 X10.4032 Y-8.2893 F40.00
G01 X10.3986 Y-8.2781 F40.00
G01 X10.3958 Y-8.2721 F40.00
G01 X10.3924 Y-8.2664 F40.00
G01 X10.3884 Y-8.2610 F40.00
G01 X10.3840 Y-8.2561 F40.00
G01 X10.1015 Y-7.9737 F40.00
G01 X10.0936 Y-7.9676 F40.00
G01 X10.0835 Y-7.9620 F40.00
G01 X10.0691 Y-7.9563 F40.00
G01 X10.0627 Y-7.9545 F40.00
G01 X10.0562 Y-7.9534 F40.00
G01 X10.0479 Y-7.9529 F40.00
G01 X7.7238 Y-7.9529 F40.00
G01 X7.7156 Y-7.9536 F40.00
G01 X7.7074 Y-7.9553 F40.00
G01 X7.7011 Y-7.9574 F40.00
G01 X7.6899 Y-7.9620 F40.00
G01 X7.6840 Y-7.9650 F40.00
G01 X7.6784 Y-7.9686 F40.00
G01 X7.6732 Y-7.9726 F40.00
G01 X7.6683 Y-7.9772 F40.00
G01 X7.6630 Y-7.9836 F40.00
G01 X7.6573 Y-7.9918 F40.00
G01 X7.6387 Y-8.0264 F40.00
G01 X7.5250 Y-8.1651 F40.00
G01 X7.3868 Y-8.2785 F40.00
G01 X7.3411 Y-8.3031 F40.00
G01 X7.3342 Y-8.3077 F40.00
G01 X7.3280 Y-8.3132 F40.00
G01 X7.3180 Y-8.3250 F40.00
G01 X7.3140 Y-8.3303 F40.00
G01 X7.3098 Y-8.3375 F40.00
G01 X7.3066 Y-8.3451 F40.00
G01 X7.3042 Y-8.3531 F40.00
G01 X7.3028 Y-8.3629 F40.00
G01 X7.3027 Y-8.3712 F40.00
G01 X7.3038 Y-8.3833 F40.00
G00 Z1.0000
G00 X7.5387 Y-8.7325
G01 F40.00
G01 Z-0.1001
G01 F40.00
G01 X7.6887 Y-8.7306 F40.00
G01 X7.6727 Y-8.7517 F40.00
G01 X7.6652 Y-8.7629 F40.00
G01 X7.6579 Y-8.7748 F40.00
G01 X7.6513 Y-8.7865 F40.00
G01 X7.6452 Y-8.7984 F40.00
G01 X7.6395 Y-8.8105 F40.00
G01 X7.6338 Y-8.8240 F40.00
G01 X7.6141 Y-8.8023 F40.00
G01 X7.6011 Y-8.7891 F40.00
G01 X7.5387 Y-8.7325 F40.00
G01 X6.8105 Y-8.7807 F40.00
G01 X6.8089 Y-8.7808 F40.00
G01 X6.8072 Y-8.7809 F40.00
G01 X6.7351 Y-8.7916 F40.00
G01 X6.6676 Y-8.8084 F40.00
G01 X6.6613 Y-8.8104 F40.00
G01 X6.5958 Y-8.8339 F40.00
G01 X6.5299 Y-8.8650 F40.00
G01 X6.4702 Y-8.9007 F40.00
G01 X6.4647 Y-8.9044 F40.00
G01 X6.4115 Y-8.9439 F40.00
G01 X6.4064 Y-8.9481 F40.00
G01 X6.3549 Y-8.9949 F40.00
G01 X6.3081 Y-9.0464 F40.00
G01 X6.3039 Y-9.0515 F40.00
G01 X6.2625 Y-9.1074 F40.00
G01 X6.2250 Y-9.1699 F40.00
G01 X6.1939 Y-9.2358 F40.00
G01 X6.1693 Y-9.3044 F40.00
G01 X6.1516 Y-9.3751 F40.00
G01 X6.1413 Y-9.4439 F40.00
G01 X6.1407 Y-9.4505 F40.00
G01 X6.1374 Y-9.5200 F40.00
G01 X6.1407 Y-9.5895 F40.00
G01 X6.1413 Y-9.5961 F40.00
G01 X6.1516 Y-9.6649 F40.00
G01 X6.1684 Y-9.7324 F40.00
G01 X6.1704 Y-9.7387 F40.00
G01 X6.1939 Y-9.8042 F40.00
G01 X6.2235 Y-9.8671 F40.00
G01 X6.2267 Y-9.8730 F40.00
G01 X6.2625 Y-9.9326 F40.00
G01 X6.3039 Y-9.9885 F40.00
G01 X6.3081 Y-9.9936 F40.00
G01 X6.3549 Y-10.0451 F40.00
G01 X6.4089 Y-10.0941 F40.00
G01 X6.4647 Y-10.1356 F40.00
G01 X6.4702 Y-10.1393 F40.00
G01 X6.5299 Y-10.1750 F40.00
G01 X6.5928 Y-10.2048 F40.00
G01 X6.5989 Y-10.2073 F40.00
G01 X6.6644 Y-10.2307 F40.00
G01 X6.7319 Y-10.2477 F40.00
G01 X6.7384 Y-10.2489 F40.00
G01 X6.8072 Y-10.2591 F40.00
G01 X6.8767 Y-10.2626 F40.00
G01 X6.8833 Y-10.2626 F40.00
G01 X6.9528 Y-10.2591 F40.00
G01 X7.0216 Y-10.2489 F40.00
G01 X7.0281 Y-10.2477 F40.00
G01 X7.0972 Y-10.2302 F40.00
G01 X7.1611 Y-10.2073 F40.00
G01 X7.1672 Y-10.2048 F40.00
G01 X7.2301 Y-10.1750 F40.00
G01 X7.2898 Y-10.1393 F40.00
G01 X7.2953 Y-10.1356 F40.00
G01 X7.3511 Y-10.0941 F40.00
G01 X7.4051 Y-10.0451 F40.00
G01 X7.4519 Y-9.9936 F40.00
G01 X7.4561 Y-9.9885 F40.00
G01 X7.4975 Y-9.9326 F40.00
G01 X7.5333 Y-9.8730 F40.00
G01 X7.5365 Y-9.8671 F40.00
G01 X7.5661 Y-9.8042 F40.00
G01 X7.5896 Y-9.7387 F40.00
G01 X7.5916 Y-9.7324 F40.00
G01 X7.6084 Y-9.6649 F40.00
G01 X7.6187 Y-9.5961 F40.00
G01 X7.6193 Y-9.5895 F40.00
G01 X7.6226 Y-9.5200 F40.00
G01 X7.6193 Y-9.4505 F40.00
G01 X7.6187 Y-9.4439 F40.00
G01 X7.6084 Y-9.3751 F40.00
G01 X7.5916 Y-9.3076 F40.00
G01 X7.5896 Y-9.3013 F40.00
G01 X7.5661 Y-9.2358 F40.00
G01 X7.5365 Y-9.1729 F40.00
G01 X7.5333 Y-9.1670 F40.00
G01 X7.4975 Y-9.1074 F40.00
G01 X7.4561 Y-9.0515 F40.00
G01 X7.4519 Y-9.0464 F40.00
G01 X7.4063 Y-8.9961 F40.00
G01 X7.3511 Y-8.9459 F40.00
G01 X7.2926 Y-8.9025 F40.00
G01 X7.2301 Y-8.8650 F40.00
G01 X7.1657 Y-8.8345 F40.00
G01 X7.0956 Y-8.8093 F40.00
G01 X7.0281 Y-8.7923 F40.00
G01 X7.0216 Y-8.7911 F40.00
G01 X6.9528 Y-8.7809 F40.00
G01 X6.8833 Y-8.7774 F40.00
G01 X6.8767 Y-8.7774 F40.00
G01 X6.8105 Y-8.7807 F40.00
G01 X6.8059 Y-8.6861 F40.00
G01 X6.7912 Y-8.6875 F40.00
G01 X6.7245 Y-8.6974 F40.00
G01 X6.7089 Y-8.7005 F40.00
G01 X6.6358 Y-8.7190 F40.00
G01 X6.5659 Y-8.7439 F40.00
G01 X6.5523 Y-8.7496 F40.00
G01 X6.4863 Y-8.7810 F40.00
G01 X6.4215 Y-8.8195 F40.00
G01 X6.4092 Y-8.8277 F40.00
G01 X6.3497 Y-8.8720 F40.00
G01 X6.3428 Y-8.8779 F40.00
G01 X6.2871 Y-8.9287 F40.00
G01 X6.2371 Y-8.9836 F40.00
G01 X6.2278 Y-8.9951 F40.00
G01 X6.1844 Y-9.0538 F40.00
G01 X6.1454 Y-9.1183 F40.00
G01 X6.1384 Y-9.1313 F40.00
G01 X6.1084 Y-9.1948 F40.00
G01 X6.1035 Y-9.2070 F40.00
G01 X6.0784 Y-9.2780 F40.00
G01 X6.0602 Y-9.3500 F40.00
G01 X6.0574 Y-9.3645 F40.00
G01 X6.0468 Y-9.4368 F40.00
G01 X6.0428 Y-9.5120 F40.00
G01 X6.0428 Y-9.5268 F40.00
G01 X6.0466 Y-9.6009 F40.00
G01 X6.0476 Y-9.6100 F40.00
G01 X6.0590 Y-9.6845 F40.00
G01 X6.0769 Y-9.7565 F40.00
G01 X6.0812 Y-9.7706 F40.00
G01 X6.1068 Y-9.8415 F40.00
G01 X6.1379 Y-9.9076 F40.00
G01 X6.1449 Y-9.9207 F40.00
G01 X6.1795 Y-9.9785 F40.00
G01 X6.1877 Y-9.9908 F40.00
G01 X6.2320 Y-10.0503 F40.00
G01 X6.2824 Y-10.1063 F40.00
G01 X6.2887 Y-10.1129 F40.00
G01 X6.3497 Y-10.1680 F40.00
G01 X6.4092 Y-10.2123 F40.00
G01 X6.4215 Y-10.2205 F40.00
G01 X6.4863 Y-10.2590 F40.00
G01 X6.5523 Y-10.2904 F40.00
G01 X6.5659 Y-10.2961 F40.00
G01 X6.6305 Y-10.3192 F40.00
G01 X6.6446 Y-10.3234 F40.00
G01 X6.7155 Y-10.3410 F40.00
G01 X6.7900 Y-10.3524 F40.00
G01 X6.8031 Y-10.3537 F40.00
G01 X6.8788 Y-10.3574 F40.00
G01 X6.9541 Y-10.3539 F40.00
G01 X6.9700 Y-10.3524 F40.00
G01 X7.0445 Y-10.3410 F40.00
G01 X7.1220 Y-10.3216 F40.00
G01 X7.1930 Y-10.2965 F40.00
G01 X7.2067 Y-10.2909 F40.00
G01 X7.2737 Y-10.2590 F40.00
G01 X7.3385 Y-10.2205 F40.00
G01 X7.3517 Y-10.2117 F40.00
G01 X7.4121 Y-10.1665 F40.00
G01 X7.4713 Y-10.1129 F40.00
G01 X7.5221 Y-10.0572 F40.00
G01 X7.5322 Y-10.0449 F40.00
G01 X7.5756 Y-9.9862 F40.00
G01 X7.6146 Y-9.9217 F40.00
G01 X7.6216 Y-9.9087 F40.00
G01 X7.6532 Y-9.8415 F40.00
G01 X7.6788 Y-9.7706 F40.00
G01 X7.6834 Y-9.7554 F40.00
G01 X7.7015 Y-9.6822 F40.00
G01 X7.7125 Y-9.6088 F40.00
G01 X7.7139 Y-9.5941 F40.00
G01 X7.7172 Y-9.5268 F40.00
G01 X7.7172 Y-9.5132 F40.00
G01 X7.7134 Y-9.4391 F40.00
G01 X7.7026 Y-9.3645 F40.00
G01 X7.6995 Y-9.3489 F40.00
G01 X7.6810 Y-9.2758 F40.00
G01 X7.6561 Y-9.2059 F40.00
G01 X7.6504 Y-9.1923 F40.00
G01 X7.6179 Y-9.1242 F40.00
G01 X7.5790 Y-9.0591 F40.00
G01 X7.5717 Y-9.0483 F40.00
G01 X7.5280 Y-8.9897 F40.00
G01 X7.4729 Y-8.9287 F40.00
G01 X7.4121 Y-8.8735 F40.00
G01 X7.3462 Y-8.8244 F40.00
G01 X7.2758 Y-8.7821 F40.00
G01 X7.2676 Y-8.7779 F40.00
G01 X7.2077 Y-8.7496 F40.00
G01 X7.2015 Y-8.7468 F40.00
G01 X7.1242 Y-8.7190 F40.00
G01 X7.0461 Y-8.6993 F40.00
G01 X7.0355 Y-8.6974 F40.00
G01 X6.9700 Y-8.6876 F40.00
G01 X6.9541 Y-8.6861 F40.00
G01 X6.8812 Y-8.6826 F40.00
G01 X6.8059 Y-8.6861 F40.00
G01 X6.0527 Y-8.7516 F40.00
G01 X6.2022 Y-8.7497 F40.00
G01 X6.1645 Y-8.7838 F40.00
G01 X6.1527 Y-8.7952 F40.00
G01 X6.1428 Y-8.8056 F40.00
G01 X6.1031 Y-8.8494 F40.00
G01 X6.0885 Y-8.8145 F40.00
G01 X6.0790 Y-8.7945 F40.00
G01 X6.0667 Y-8.7727 F40.00
G01 X6.0527 Y-8.7516 F40.00
G01 X5.7385 Y-8.6609 F40.00
G01 X6.4063 Y-8.6523 F40.00
G01 X6.4270 Y-8.6512 F40.00
G01 X6.4474 Y-8.6484 F40.00
G01 X6.4670 Y-8.6441 F40.00
G01 X6.4873 Y-8.6380 F40.00
G01 X6.5039 Y-8.6315 F40.00
G01 X6.5167 Y-8.6260 F40.00
G01 X6.5280 Y-8.6205 F40.00
G01 X6.5445 Y-8.6112 F40.00
G01 X6.5622 Y-8.5994 F40.00
G01 X6.5779 Y-8.5869 F40.00
G01 X6.5930 Y-8.5729 F40.00
G01 X6.6058 Y-8.5590 F40.00
G01 X6.6183 Y-8.5432 F40.00
G01 X6.6301 Y-8.5256 F40.00
G01 X6.6398 Y-8.5080 F40.00
G01 X6.6478 Y-8.4908 F40.00
G01 X6.6573 Y-8.4660 F40.00
G01 X6.6630 Y-8.4468 F40.00
G01 X6.6672 Y-8.4267 F40.00
G01 X6.6897 Y-8.4323 F40.00
G01 X6.7032 Y-8.4351 F40.00
G01 X6.7847 Y-8.4472 F40.00
G01 X6.8012 Y-8.4485 F40.00
G01 X6.8691 Y-8.4518 F40.00
G01 X6.8840 Y-8.4520 F40.00
G01 X6.9605 Y-8.4484 F40.00
G01 X6.9799 Y-8.4466 F40.00
G01 X7.0596 Y-8.4346 F40.00
G01 X7.0725 Y-8.4318 F40.00
G01 X7.1178 Y-8.4205 F40.00
G01 X7.1215 Y-8.4380 F40.00
G01 X7.1267 Y-8.4562 F40.00
G01 X7.1332 Y-8.4739 F40.00
G01 X7.1410 Y-8.4912 F40.00
G01 X7.1500 Y-8.5078 F40.00
G01 X7.1603 Y-8.5237 F40.00
G01 X7.1717 Y-8.5388 F40.00
G01 X7.1841 Y-8.5531 F40.00
G01 X7.1993 Y-8.5679 F40.00
G01 X7.2167 Y-8.5824 F40.00
G01 X7.2320 Y-8.5939 F40.00
G01 X7.2471 Y-8.6035 F40.00
G01 X7.2640 Y-8.6127 F40.00
G01 X7.2814 Y-8.6205 F40.00
G01 X7.2994 Y-8.6270 F40.00
G01 X7.3179 Y-8.6322 F40.00
G01 X7.3332 Y-8.6354 F40.00
G01 X7.3506 Y-8.6379 F40.00
G01 X7.3661 Y-8.6393 F40.00
G01 X7.3823 Y-8.6398 F40.00
G01 X8.0036 Y-8.6318 F40.00
G01 X7.9288 Y-8.6547 F40.00
G01 X7.9113 Y-8.6610 F40.00
G01 X7.8985 Y-8.6664 F40.00
G01 X7.8845 Y-8.6734 F40.00
G01 X7.8714 Y-8.6809 F40.00
G01 X7.8597 Y-8.6886 F40.00
G01 X7.8481 Y-8.6971 F40.00
G01 X7.8373 Y-8.7060 F40.00
G01 X7.8262 Y-8.7162 F40.00
G01 X7.8173 Y-8.7254 F40.00
G01 X7.7631 Y-8.7893 F40.00
G01 X7.7552 Y-8.7993 F40.00
G01 X7.7478 Y-8.8097 F40.00
G01 X7.7400 Y-8.8219 F40.00
G01 X7.7338 Y-8.8331 F40.00
G01 X7.7281 Y-8.8445 F40.00
G01 X7.7225 Y-8.8573 F40.00
G01 X7.7181 Y-8.8692 F40.00
G01 X7.7135 Y-8.8837 F40.00
G01 X7.7101 Y-8.8972 F40.00
G01 X7.7076 Y-8.9097 F40.00
G01 X7.6968 Y-8.9910 F40.00
G01 X7.6950 Y-9.0131 F40.00
G01 X7.6950 Y-9.0307 F40.00
G01 X7.6960 Y-9.0467 F40.00
G01 X7.6981 Y-9.0631 F40.00
G01 X7.7011 Y-9.0790 F40.00
G01 X7.6617 Y-9.0128 F40.00
G01 X7.6556 Y-9.0031 F40.00
G01 X7.6481 Y-8.9923 F40.00
G01 X7.6083 Y-8.9386 F40.00
G01 X7.6012 Y-8.9296 F40.00
G01 X7.5938 Y-8.9209 F40.00
G01 X7.5399 Y-8.8618 F40.00
G01 X7.5304 Y-8.8526 F40.00
G01 X7.4796 Y-8.8066 F40.00
G01 X7.4627 Y-8.7928 F40.00
G01 X7.3988 Y-8.7457 F40.00
G01 X7.3935 Y-8.7422 F40.00
G01 X7.3916 Y-8.7410 F40.00
G01 X7.3906 Y-8.7403 F40.00
G01 X7.3877 Y-8.7386 F40.00
G01 X7.3299 Y-8.7039 F40.00
G01 X7.3204 Y-8.6985 F40.00
G01 X7.3097 Y-8.6931 F40.00
G01 X7.2477 Y-8.6637 F40.00
G01 X7.2356 Y-8.6584 F40.00
G01 X7.1604 Y-8.6313 F40.00
G01 X7.1495 Y-8.6277 F40.00
G01 X7.1384 Y-8.6247 F40.00
G01 X7.0736 Y-8.6085 F40.00
G01 X7.0607 Y-8.6056 F40.00
G01 X6.9816 Y-8.5936 F40.00
G01 X6.9702 Y-8.5923 F40.00
G01 X6.9588 Y-8.5915 F40.00
G01 X6.8909 Y-8.5882 F40.00
G01 X6.8725 Y-8.5880 F40.00
G01 X6.7898 Y-8.5923 F40.00
G01 X6.7767 Y-8.5939 F40.00
G01 X6.7100 Y-8.6038 F40.00
G01 X6.6993 Y-8.6056 F40.00
G01 X6.6875 Y-8.6082 F40.00
G01 X6.6210 Y-8.6248 F40.00
G01 X6.6083 Y-8.6284 F40.00
G01 X6.5329 Y-8.6551 F40.00
G01 X6.5222 Y-8.6593 F40.00
G01 X6.5118 Y-8.6640 F40.00
G01 X6.4514 Y-8.6926 F40.00
G01 X6.4396 Y-8.6985 F40.00
G01 X6.4296 Y-8.7042 F40.00
G01 X6.3728 Y-8.7383 F40.00
G01 X6.3655 Y-8.7428 F40.00
G01 X6.3533 Y-8.7512 F40.00
G01 X6.2982 Y-8.7921 F40.00
G01 X6.2878 Y-8.8002 F40.00
G01 X6.2796 Y-8.8074 F40.00
G01 X6.2296 Y-8.8526 F40.00
G01 X6.2201 Y-8.8618 F40.00
G01 X6.1628 Y-8.9248 F40.00
G01 X6.1528 Y-8.9373 F40.00
G01 X6.1123 Y-8.9919 F40.00
G01 X6.1010 Y-9.0084 F40.00
G01 X6.0591 Y-9.0786 F40.00
G01 X6.0531 Y-9.0903 F40.00
G01 X6.0356 Y-9.1273 F40.00
G01 X6.0477 Y-9.0584 F40.00
G01 X6.0496 Y-9.0429 F40.00
G01 X6.0504 Y-9.0266 F40.00
G01 X6.0501 Y-9.0063 F40.00
G01 X6.0483 Y-8.9872 F40.00
G01 X6.0451 Y-8.9683 F40.00
G01 X6.0400 Y-8.9481 F40.00
G01 X6.0367 Y-8.9376 F40.00
G01 X6.0323 Y-8.9256 F40.00
G01 X6.0032 Y-8.8557 F40.00
G01 X5.9964 Y-8.8410 F40.00
G01 X5.9878 Y-8.8253 F40.00
G01 X5.9810 Y-8.8144 F40.00
G01 X5.9747 Y-8.8053 F40.00
G01 X5.9669 Y-8.7952 F40.00
G01 X5.9595 Y-8.7863 F40.00
G01 X5.9508 Y-8.7769 F40.00
G01 X5.9434 Y-8.7696 F40.00
G01 X5.9348 Y-8.7618 F40.00
G01 X5.9249 Y-8.7537 F40.00
G01 X5.9132 Y-8.7451 F40.00
G01 X5.8553 Y-8.7050 F40.00
G01 X5.8400 Y-8.6953 F40.00
G01 X5.8266 Y-8.6879 F40.00
G01 X5.8198 Y-8.6845 F40.00
G01 X5.8182 Y-8.6838 F40.00
G01 X5.8171 Y-8.6833 F40.00
G01 X5.8123 Y-8.6811 F40.00
G01 X5.7971 Y-8.6750 F40.00
G01 X5.7837 Y-8.6705 F40.00
G01 X5.7633 Y-8.6652 F40.00
G01 X5.7385 Y-8.6609 F40.00
G01 X5.3226 Y-8.5716 F40.00
G01 X6.4045 Y-8.5577 F40.00
G01 X6.4216 Y-8.5565 F40.00
G01 X6.4389 Y-8.5535 F40.00
G01 X6.4489 Y-8.5509 F40.00
G01 X6.4580 Y-8.5479 F40.00
G01 X6.4808 Y-8.5382 F40.00
G01 X6.4899 Y-8.5335 F40.00
G01 X6.4982 Y-8.5285 F40.00
G01 X6.5067 Y-8.5227 F40.00
G01 X6.5142 Y-8.5167 F40.00
G01 X6.5220 Y-8.5099 F40.00
G01 X6.5288 Y-8.5031 F40.00
G01 X6.5356 Y-8.4954 F40.00
G01 X6.5415 Y-8.4878 F40.00
G01 X6.5473 Y-8.4793 F40.00
G01 X6.5523 Y-8.4711 F40.00
G01 X6.5570 Y-8.4619 F40.00
G01 X6.5609 Y-8.4531 F40.00
G01 X6.5656 Y-8.4412 F40.00
G01 X6.5689 Y-8.4315 F40.00
G01 X6.5715 Y-8.4222 F40.00
G01 X6.5736 Y-8.4121 F40.00
G01 X6.5750 Y-8.4026 F40.00
G01 X6.5760 Y-8.3907 F40.00
G01 X6.5761 Y-8.3804 F40.00
G01 X6.5756 Y-8.3708 F40.00
G01 X6.5745 Y-8.3606 F40.00
G01 X6.5728 Y-8.3511 F40.00
G01 X6.5705 Y-8.3411 F40.00
G01 X6.5669 Y-8.3297 F40.00
G01 X6.5634 Y-8.3207 F40.00
G01 X6.5567 Y-8.3054 F40.00
G01 X6.5520 Y-8.2964 F40.00
G01 X6.5470 Y-8.2879 F40.00
G01 X6.5643 Y-8.2955 F40.00
G01 X6.6358 Y-8.3210 F40.00
G01 X6.7155 Y-8.3410 F40.00
G01 X6.7245 Y-8.3426 F40.00
G01 X6.7991 Y-8.3534 F40.00
G01 X6.8720 Y-8.3572 F40.00
G01 X6.8828 Y-8.3573 F40.00
G01 X6.9632 Y-8.3532 F40.00
G01 X7.0355 Y-8.3426 F40.00
G01 X7.0484 Y-8.3402 F40.00
G01 X7.1165 Y-8.3231 F40.00
G01 X7.1280 Y-8.3197 F40.00
G01 X7.1978 Y-8.2947 F40.00
G01 X7.2067 Y-8.2909 F40.00
G01 X7.2356 Y-8.2772 F40.00
G01 X7.2296 Y-8.2869 F40.00
G01 X7.2240 Y-8.2974 F40.00
G01 X7.2198 Y-8.3068 F40.00
G01 X7.2157 Y-8.3181 F40.00
G01 X7.2130 Y-8.3273 F40.00
G01 X7.2105 Y-8.3390 F40.00
G01 X7.2090 Y-8.3492 F40.00
G01 X7.2080 Y-8.3611 F40.00
G01 X7.2079 Y-8.3707 F40.00
G01 X7.2086 Y-8.3826 F40.00
G01 X7.2103 Y-8.3993 F40.00
G01 X7.2124 Y-8.4111 F40.00
G01 X7.2150 Y-8.4211 F40.00
G01 X7.2186 Y-8.4324 F40.00
G01 X7.2222 Y-8.4414 F40.00
G01 X7.2274 Y-8.4522 F40.00
G01 X7.2333 Y-8.4625 F40.00
G01 X7.2400 Y-8.4724 F40.00
G01 X7.2474 Y-8.4818 F40.00
G01 X7.2543 Y-8.4894 F40.00
G01 X7.2629 Y-8.4977 F40.00
G01 X7.2758 Y-8.5085 F40.00
G01 X7.2836 Y-8.5144 F40.00
G01 X7.2922 Y-8.5201 F40.00
G01 X7.3027 Y-8.5261 F40.00
G01 X7.3115 Y-8.5304 F40.00
G01 X7.3211 Y-8.5343 F40.00
G01 X7.3326 Y-8.5381 F40.00
G01 X7.3421 Y-8.5406 F40.00
G01 X7.3523 Y-8.5425 F40.00
G01 X7.3656 Y-8.5443 F40.00
G01 X7.3764 Y-8.5450 F40.00
G01 X10.3354 Y-8.5070 F40.00
G01 X10.3450 Y-8.5063 F40.00
G01 X10.3552 Y-8.5049 F40.00
G01 X10.3669 Y-8.5025 F40.00
G01 X10.3762 Y-8.4999 F40.00
G01 X10.3875 Y-8.4960 F40.00
G01 X10.4029 Y-8.4894 F40.00
G01 X10.4120 Y-8.4849 F40.00
G01 X10.4204 Y-8.4802 F40.00
G01 X10.4289 Y-8.4747 F40.00
G01 X10.4384 Y-8.4675 F40.00
G01 X10.4456 Y-8.4613 F40.00
G01 X10.4530 Y-8.4542 F40.00
G01 X10.4594 Y-8.4472 F40.00
G01 X10.4668 Y-8.4379 F40.00
G01 X10.4726 Y-8.4295 F40.00
G01 X10.4775 Y-8.4213 F40.00
G01 X10.4775 Y-16.2300 F40.00
G01 X10.4794 Y-16.2667 F40.00
G01 X10.4847 Y-16.3019 F40.00
G01 X10.4935 Y-16.3363 F40.00
G01 X10.5027 Y-16.3624 F40.00
G01 X10.5072 Y-16.3734 F40.00
G01 X10.5209 Y-16.4019 F40.00
G01 X10.5393 Y-16.4323 F40.00
G01 X10.5606 Y-16.4608 F40.00
G01 X10.5837 Y-16.4863 F40.00
G01 X15.1437 Y-21.0463 F40.00
G01 X15.1649 Y-21.0658 F40.00
G01 X15.1754 Y-21.0744 F40.00
G01 X15.1996 Y-21.0920 F40.00
G01 X15.2246 Y-21.1072 F40.00
G01 X15.2363 Y-21.1132 F40.00
G01 X15.2639 Y-21.1259 F40.00
G01 X15.2921 Y-21.1360 F40.00
G01 X15.3087 Y-21.1405 F40.00
G01 X16.8299 Y-22.6617 F40.00
G01 X16.8509 Y-22.6808 F40.00
G01 X16.8708 Y-22.6959 F40.00
G01 X16.8822 Y-22.7034 F40.00
G01 X16.9052 Y-22.7168 F40.00
G01 X16.9257 Y-22.7266 F40.00
G01 X16.9368 Y-22.7311 F40.00
G01 X16.9582 Y-22.7386 F40.00
G01 X16.9813 Y-22.7447 F40.00
G01 X16.9941 Y-22.7474 F40.00
G01 X17.0166 Y-22.7506 F40.00
G01 X17.0273 Y-22.7515 F40.00
G01 X17.0500 Y-22.7524 F40.00
G01 X34.4905 Y-22.7524 F40.00
G01 X34.4995 Y-22.7596 F40.00
G01 X34.5366 Y-22.7869 F40.00
G01 X34.5780 Y-22.8120 F40.00
G01 X34.5920 Y-22.8195 F40.00
G01 X34.6301 Y-22.8375 F40.00
G01 X34.6422 Y-22.8424 F40.00
G01 X34.6879 Y-22.8585 F40.00
G01 X34.7414 Y-22.8718 F40.00
G01 X34.7960 Y-22.8798 F40.00
G01 X34.8420 Y-22.8822 F40.00
G01 X34.8528 Y-22.8823 F40.00
G01 X34.9063 Y-22.8795 F40.00
G01 X34.9608 Y-22.8713 F40.00
G01 X35.0144 Y-22.8578 F40.00
G01 X35.0663 Y-22.8391 F40.00
G01 X35.1161 Y-22.8154 F40.00
G01 X35.1634 Y-22.7869 F40.00
G01 X35.2077 Y-22.7540 F40.00
G01 X35.2485 Y-22.7168 F40.00
G01 X35.2854 Y-22.6759 F40.00
G01 X35.3182 Y-22.6315 F40.00
G01 X35.3454 Y-22.5861 F40.00
G01 X35.3691 Y-22.5363 F40.00
G01 X35.3878 Y-22.4844 F40.00
G01 X35.4013 Y-22.4308 F40.00
G01 X35.4095 Y-22.3763 F40.00
G01 X35.4124 Y-22.3212 F40.00
G01 X35.4098 Y-22.2660 F40.00
G01 X35.4018 Y-22.2114 F40.00
G01 X35.3885 Y-22.1579 F40.00
G01 X35.3700 Y-22.1059 F40.00
G01 X35.3465 Y-22.0559 F40.00
G01 X35.3182 Y-22.0085 F40.00
G01 X35.2854 Y-21.9641 F40.00
G01 X35.2485 Y-21.9232 F40.00
G01 X35.2077 Y-21.8860 F40.00
G01 X35.1634 Y-21.8531 F40.00
G01 X35.1161 Y-21.8246 F40.00
G01 X35.0663 Y-21.8009 F40.00
G01 X35.0144 Y-21.7822 F40.00
G01 X34.9608 Y-21.7687 F40.00
G01 X34.9063 Y-21.7605 F40.00
G01 X34.8568 Y-21.7578 F40.00
G01 X34.8449 Y-21.7577 F40.00
G01 X34.8028 Y-21.7598 F40.00
G01 X34.7881 Y-21.7612 F40.00
G01 X34.7392 Y-21.7687 F40.00
G01 X34.6879 Y-21.7815 F40.00
G01 X34.6359 Y-21.8000 F40.00
G01 X34.5920 Y-21.8205 F40.00
G01 X34.5790 Y-21.8274 F40.00
G01 X34.5433 Y-21.8488 F40.00
G01 X34.5352 Y-21.8540 F40.00
G01 X34.4941 Y-21.8846 F40.00
G01 X34.4573 Y-21.9176 F40.00
G01 X34.4469 Y-21.9281 F40.00
G01 X34.4197 Y-21.9581 F40.00
G01 X34.4121 Y-21.9673 F40.00
G01 X34.3818 Y-22.0085 F40.00
G01 X34.3554 Y-22.0524 F40.00
G01 X34.3510 Y-22.0610 F40.00
G01 X34.3325 Y-22.1001 F40.00
G01 X34.3286 Y-22.1096 F40.00
G01 X34.3221 Y-22.1276 F40.00
G01 X17.1794 Y-22.1276 F40.00
G01 X15.7505 Y-20.6987 F40.00
G01 X15.7460 Y-20.6821 F40.00
G01 X15.7359 Y-20.6539 F40.00
G01 X15.7232 Y-20.6263 F40.00
G01 X15.7172 Y-20.6146 F40.00
G01 X15.7020 Y-20.5896 F40.00
G01 X15.6844 Y-20.5654 F40.00
G01 X15.6758 Y-20.5549 F40.00
G01 X15.6563 Y-20.5337 F40.00
G01 X11.2025 Y-16.0799 F40.00
G01 X11.2025 Y-8.4081 F40.00
G01 X11.2082 Y-8.4175 F40.00
G01 X11.2142 Y-8.4259 F40.00
G01 X11.2217 Y-8.4352 F40.00
G01 X11.2282 Y-8.4423 F40.00
G01 X11.2357 Y-8.4494 F40.00
G01 X11.2449 Y-8.4570 F40.00
G01 X11.2546 Y-8.4639 F40.00
G01 X11.2628 Y-8.4690 F40.00
G01 X11.2719 Y-8.4738 F40.00
G01 X11.2817 Y-8.4783 F40.00
G01 X11.2960 Y-8.4841 F40.00
G01 X11.3092 Y-8.4883 F40.00
G01 X11.3205 Y-8.4909 F40.00
G01 X11.3320 Y-8.4928 F40.00
G01 X11.3436 Y-8.4938 F40.00
G01 X11.3541 Y-8.4940 F40.00
G01 X44.8604 Y-8.0631 F40.00
G01 X44.8606 Y-8.2545 F40.00
G01 X44.8220 Y-8.2466 F40.00
G01 X44.8085 Y-8.2451 F40.00
G01 X44.7955 Y-8.2448 F40.00
G01 X42.4893 Y-8.2745 F40.00
G01 X42.4716 Y-8.2759 F40.00
G01 X42.4549 Y-8.2792 F40.00
G01 X42.3768 Y-8.3030 F40.00
G01 X42.3655 Y-8.3072 F40.00
G01 X42.3524 Y-8.3132 F40.00
G01 X42.3419 Y-8.3192 F40.00
G01 X42.3318 Y-8.3260 F40.00
G01 X42.3193 Y-8.3361 F40.00
G01 X42.3078 Y-8.3474 F40.00
G01 X42.2574 Y-8.4068 F40.00
G01 X42.2514 Y-8.4145 F40.00
G01 X42.2455 Y-8.4231 F40.00
G01 X42.2394 Y-8.4335 F40.00
G01 X42.2350 Y-8.4422 F40.00
G01 X42.2303 Y-8.4534 F40.00
G01 X42.2270 Y-8.4632 F40.00
G01 X42.2244 Y-8.4726 F40.00
G01 X42.2220 Y-8.4845 F40.00
G01 X42.2116 Y-8.5640 F40.00
G01 X42.2109 Y-8.5759 F40.00
G01 X42.2111 Y-8.5894 F40.00
G01 X42.2120 Y-8.5996 F40.00
G01 X42.2135 Y-8.6091 F40.00
G01 X42.2156 Y-8.6191 F40.00
G01 X42.2189 Y-8.6306 F40.00
G01 X42.2226 Y-8.6407 F40.00
G01 X42.2435 Y-8.6926 F40.00
G01 X42.2499 Y-8.7064 F40.00
G01 X42.2550 Y-8.7157 F40.00
G01 X42.2604 Y-8.7240 F40.00
G01 X42.3655 Y-8.8741 F40.00
G01 X42.4460 Y-9.0466 F40.00
G01 X42.4952 Y-9.2304 F40.00
G01 X42.5118 Y-9.4200 F40.00
G01 X42.4952 Y-9.6096 F40.00
G01 X42.4460 Y-9.7934 F40.00
G01 X42.4239 Y-9.8407 F40.00
G01 X42.2866 Y-9.7035 F40.00
G01 X42.2915 Y-9.6897 F40.00
G01 X42.2945 Y-9.6799 F40.00
G01 X42.3146 Y-9.5991 F40.00
G01 X42.3270 Y-9.5173 F40.00
G01 X42.3284 Y-9.5043 F40.00
G01 X42.3324 Y-9.4212 F40.00
G01 X42.3286 Y-9.3385 F40.00
G01 X42.3272 Y-9.3238 F40.00
G01 X42.3154 Y-9.2448 F40.00
G01 X42.3131 Y-9.2342 F40.00
G01 X42.2927 Y-9.1540 F40.00
G01 X42.2654 Y-9.0772 F40.00
G01 X42.2597 Y-9.0636 F40.00
G01 X42.2241 Y-8.9889 F40.00
G01 X42.1829 Y-8.9199 F40.00
G01 X42.1747 Y-8.9075 F40.00
G01 X42.1295 Y-8.8466 F40.00
G01 X42.1201 Y-8.8352 F40.00
G01 X42.0660 Y-8.7757 F40.00
G01 X42.0594 Y-8.7694 F40.00
G01 X41.9979 Y-8.7140 F40.00
G01 X41.9259 Y-8.6608 F40.00
G01 X41.8560 Y-8.6187 F40.00
G01 X41.8430 Y-8.6118 F40.00
G01 X41.7681 Y-8.5767 F40.00
G01 X41.6924 Y-8.5494 F40.00
G01 X41.6783 Y-8.5451 F40.00
G01 X41.6058 Y-8.5269 F40.00
G01 X41.5913 Y-8.5240 F40.00
G01 X41.5106 Y-8.5122 F40.00
G01 X41.5015 Y-8.5114 F40.00
G01 X41.4188 Y-8.5076 F40.00
G01 X41.3294 Y-8.5122 F40.00
G01 X41.2487 Y-8.5240 F40.00
G01 X41.2342 Y-8.5269 F40.00
G01 X41.1540 Y-8.5473 F40.00
G01 X41.0783 Y-8.5742 F40.00
G01 X41.0646 Y-8.5798 F40.00
G01 X40.9970 Y-8.6118 F40.00
G01 X40.9840 Y-8.6187 F40.00
G01 X40.9141 Y-8.6608 F40.00
G01 X40.8421 Y-8.7140 F40.00
G01 X40.7806 Y-8.7694 F40.00
G01 X40.7740 Y-8.7757 F40.00
G01 X40.7199 Y-8.8352 F40.00
G01 X40.7105 Y-8.8466 F40.00
G01 X40.6653 Y-8.9075 F40.00
G01 X40.6571 Y-8.9199 F40.00
G01 X40.6159 Y-8.9889 F40.00
G01 X40.5803 Y-9.0636 F40.00
G01 X40.5746 Y-9.0772 F40.00
G01 X40.5473 Y-9.1540 F40.00
G01 X40.5269 Y-9.2342 F40.00
G01 X40.5246 Y-9.2448 F40.00
G01 X40.5128 Y-9.3238 F40.00
G01 X40.5114 Y-9.3385 F40.00
G01 X40.5076 Y-9.4212 F40.00
G01 X40.5116 Y-9.5043 F40.00
G01 X40.5130 Y-9.5173 F40.00
G01 X40.5254 Y-9.5991 F40.00
G01 X40.5455 Y-9.6799 F40.00
G01 X40.5485 Y-9.6897 F40.00
G01 X40.5534 Y-9.7035 F40.00
G01 X40.4161 Y-9.8407 F40.00
G01 X40.3940 Y-9.7934 F40.00
G01 X40.3448 Y-9.6096 F40.00
G01 X40.3282 Y-9.4200 F40.00
G01 X40.3448 Y-9.2304 F40.00
G01 X40.3940 Y-9.0466 F40.00
G01 X40.4745 Y-8.8741 F40.00
G01 X40.5609 Y-8.7506 F40.00
G01 X40.5681 Y-8.7388 F40.00
G01 X40.5734 Y-8.7285 F40.00
G01 X40.5798 Y-8.7127 F40.00
G01 X40.6025 Y-8.6454 F40.00
G01 X40.6057 Y-8.6350 F40.00
G01 X40.6083 Y-8.6232 F40.00
G01 X40.6101 Y-8.6112 F40.00
G01 X40.6109 Y-8.5992 F40.00
G01 X40.6108 Y-8.5847 F40.00
G01 X40.6095 Y-8.5710 F40.00
G01 X40.6068 Y-8.5568 F40.00
G01 X40.5889 Y-8.4851 F40.00
G01 X40.5840 Y-8.4697 F40.00
G01 X40.5770 Y-8.4534 F40.00
G01 X40.5732 Y-8.4463 F40.00
G01 X40.5678 Y-8.4374 F40.00
G01 X40.5573 Y-8.4230 F40.00
G01 X40.5465 Y-8.4110 F40.00
G01 X40.4918 Y-8.3596 F40.00
G01 X40.4848 Y-8.3534 F40.00
G01 X40.4705 Y-8.3427 F40.00
G01 X40.4615 Y-8.3372 F40.00
G01 X40.4529 Y-8.3325 F40.00
G01 X40.4455 Y-8.3291 F40.00
G01 X40.4357 Y-8.3252 F40.00
G01 X40.4185 Y-8.3201 F40.00
G01 X40.3549 Y-8.3054 F40.00
G01 X40.3417 Y-8.3034 F40.00
G01 X40.3278 Y-8.3024 F40.00
G01 X11.6608 Y-8.6709 F40.00
G01 X11.6504 Y-8.6713 F40.00
G01 X11.6388 Y-8.6726 F40.00
G01 X11.6275 Y-8.6748 F40.00
G01 X11.6162 Y-8.6777 F40.00
G01 X11.5418 Y-8.7007 F40.00
G01 X11.5269 Y-8.7069 F40.00
G01 X11.5197 Y-8.7105 F40.00
G01 X11.5107 Y-8.7157 F40.00
G01 X11.5026 Y-8.7211 F40.00
G01 X11.4930 Y-8.7284 F40.00
G01 X11.4839 Y-8.7364 F40.00
G01 X11.4766 Y-8.7438 F40.00
G01 X11.4252 Y-8.8046 F40.00
G01 X11.4189 Y-8.8128 F40.00
G01 X11.4123 Y-8.8228 F40.00
G01 X11.4064 Y-8.8333 F40.00
G01 X11.4014 Y-8.8442 F40.00
G01 X11.3971 Y-8.8555 F40.00
G01 X11.3937 Y-8.8670 F40.00
G01 X11.3806 Y-8.9291 F40.00
G01 X11.3787 Y-8.9433 F40.00
G01 X11.3781 Y-8.9572 F40.00
G01 X11.3781 Y-15.8885 F40.00
G01 X11.3785 Y-15.8989 F40.00
G01 X11.3794 Y-15.9089 F40.00
G01 X11.3809 Y-15.9181 F40.00
G01 X11.3830 Y-15.9279 F40.00
G01 X11.4052 Y-16.0040 F40.00
G01 X11.4086 Y-16.0137 F40.00
G01 X11.4116 Y-16.0211 F40.00
G01 X11.4188 Y-16.0353 F40.00
G01 X11.4282 Y-16.0501 F40.00
G01 X11.4512 Y-16.0790 F40.00
G01 X11.4620 Y-16.0910 F40.00
G01 X15.8035 Y-20.4325 F40.00
G01 X15.8639 Y-20.5096 F40.00
G01 X15.8878 Y-20.5626 F40.00
G01 X15.8949 Y-20.5759 F40.00
G01 X15.9010 Y-20.5855 F40.00
G01 X15.9281 Y-20.6248 F40.00
G01 X15.9359 Y-20.6347 F40.00
G01 X15.9431 Y-20.6428 F40.00
G01 X17.1683 Y-21.8680 F40.00
G01 X17.1760 Y-21.8751 F40.00
G01 X17.1837 Y-21.8815 F40.00
G01 X17.1912 Y-21.8870 F40.00
G01 X17.1996 Y-21.8924 F40.00
G01 X17.2691 Y-21.9305 F40.00
G01 X17.2799 Y-21.9356 F40.00
G01 X17.2910 Y-21.9400 F40.00
G01 X17.3047 Y-21.9441 F40.00
G01 X17.3203 Y-21.9472 F40.00
G01 X17.3565 Y-21.9512 F40.00
G01 X17.3708 Y-21.9519 F40.00
G01 X34.0635 Y-21.9518 F40.00
G01 X34.0734 Y-21.9514 F40.00
G01 X34.0849 Y-21.9500 F40.00
G01 X34.0963 Y-21.9479 F40.00
G01 X34.1065 Y-21.9453 F40.00
G01 X34.1822 Y-21.9228 F40.00
G01 X34.1985 Y-21.9159 F40.00
G01 X34.2125 Y-21.9083 F40.00
G01 X34.2225 Y-21.9016 F40.00
G01 X34.2307 Y-21.8953 F40.00
G01 X34.2590 Y-21.8714 F40.00
G01 X34.2667 Y-21.8643 F40.00
G01 X34.2735 Y-21.8571 F40.00
G01 X34.3534 Y-21.7684 F40.00
G01 X34.4789 Y-21.6772 F40.00
G01 X34.6206 Y-21.6141 F40.00
G01 X34.7724 Y-21.5819 F40.00
G01 X34.9276 Y-21.5819 F40.00
G01 X35.0794 Y-21.6141 F40.00
G01 X35.2211 Y-21.6772 F40.00
G01 X35.3466 Y-21.7684 F40.00
G01 X35.4505 Y-21.8837 F40.00
G01 X35.5280 Y-22.0181 F40.00
G01 X35.5760 Y-22.1657 F40.00
G01 X35.5922 Y-22.3200 F40.00
G01 X35.5760 Y-22.4743 F40.00
G01 X35.5280 Y-22.6219 F40.00
G01 X35.4505 Y-22.7563 F40.00
G01 X35.3466 Y-22.8716 F40.00
G01 X35.2211 Y-22.9628 F40.00
G01 X35.0794 Y-23.0259 F40.00
G01 X34.9276 Y-23.0581 F40.00
G01 X34.7724 Y-23.0581 F40.00
G01 X34.6206 Y-23.0259 F40.00
G01 X34.4567 Y-22.9529 F40.00
G01 X34.4437 Y-22.9478 F40.00
G01 X34.4271 Y-22.9430 F40.00
G01 X34.3714 Y-22.9312 F40.00
G01 X34.3564 Y-22.9290 F40.00
G01 X34.3414 Y-22.9281 F40.00
G01 X17.1355 Y-22.9281 F40.00
G01 X17.1234 Y-22.9286 F40.00
G01 X17.1079 Y-22.9302 F40.00
G01 X17.0450 Y-22.9282 F40.00
G01 X17.0181 Y-22.9281 F40.00
G01 X17.0009 Y-22.9269 F40.00
G01 X16.9730 Y-22.9260 F40.00
G01 X16.9629 Y-22.9233 F40.00
G01 X16.9409 Y-22.9187 F40.00
G01 X16.9276 Y-22.9166 F40.00
G01 X16.8971 Y-22.9047 F40.00
G01 X16.8813 Y-22.8993 F40.00
G01 X16.8546 Y-22.8916 F40.00
G01 X16.8455 Y-22.8865 F40.00
G01 X16.8253 Y-22.8766 F40.00
G01 X16.8130 Y-22.8712 F40.00
G01 X16.7904 Y-22.8548 F40.00
G01 X16.7766 Y-22.8456 F40.00
G01 X16.7484 Y-22.8288 F40.00
G01 X16.7386 Y-22.8196 F40.00
G01 X16.7215 Y-22.8050 F40.00
G01 X16.7132 Y-22.7987 F40.00
G01 X16.6939 Y-22.7755 F40.00
G01 X16.6790 Y-22.7593 F40.00
G01 X15.2510 Y-21.3315 F40.00
G01 X15.2434 Y-21.3248 F40.00
G01 X15.2348 Y-21.3181 F40.00
G01 X15.1955 Y-21.2910 F40.00
G01 X15.1859 Y-21.2849 F40.00
G01 X15.1726 Y-21.2778 F40.00
G01 X15.1196 Y-21.2539 F40.00
G01 X15.0425 Y-21.1935 F40.00
G01 X10.4771 Y-16.6281 F40.00
G01 X10.4656 Y-16.6172 F40.00
G01 X10.4342 Y-16.5895 F40.00
G01 X10.4040 Y-16.5462 F40.00
G01 X10.3751 Y-16.5092 F40.00
G01 X10.3606 Y-16.4834 F40.00
G01 X10.3439 Y-16.4396 F40.00
G01 X10.3218 Y-16.3898 F40.00
G01 X10.3139 Y-16.3613 F40.00
G01 X10.3081 Y-16.3147 F40.00
G01 X10.2989 Y-16.2627 F40.00
G01 X10.3014 Y-16.2209 F40.00
G01 X10.3019 Y-16.2051 F40.00
G01 X10.3019 Y-8.9773 F40.00
G01 X10.3015 Y-8.9679 F40.00
G01 X10.3006 Y-8.9580 F40.00
G01 X10.2975 Y-8.9412 F40.00
G01 X10.2740 Y-8.8606 F40.00
G01 X10.2692 Y-8.8478 F40.00
G01 X10.2630 Y-8.8347 F40.00
G01 X10.2546 Y-8.8209 F40.00
G01 X10.2465 Y-8.8098 F40.00
G01 X10.2386 Y-8.8007 F40.00
G01 X10.2300 Y-8.7921 F40.00
G01 X10.1712 Y-8.7411 F40.00
G01 X10.1569 Y-8.7304 F40.00
G01 X10.1420 Y-8.7216 F40.00
G01 X10.1329 Y-8.7172 F40.00
G01 X10.1241 Y-8.7136 F40.00
G01 X10.1146 Y-8.7104 F40.00
G01 X10.1054 Y-8.7079 F40.00
G01 X10.0424 Y-8.6946 F40.00
G01 X10.0328 Y-8.6932 F40.00
G01 X10.0209 Y-8.6922 F40.00
G01 X10.0118 Y-8.6921 F40.00
G01 X8.0696 Y-8.7170 F40.00
G01 X8.0581 Y-8.7177 F40.00
G01 X8.0488 Y-8.7188 F40.00
G01 X8.0374 Y-8.7209 F40.00
G01 X8.0277 Y-8.7234 F40.00
G01 X7.9518 Y-8.7469 F40.00
G01 X7.9369 Y-8.7530 F40.00
G01 X7.9241 Y-8.7598 F40.00
G01 X7.9139 Y-8.7663 F40.00
G01 X7.9060 Y-8.7720 F40.00
G01 X7.8968 Y-8.7798 F40.00
G01 X7.8893 Y-8.7871 F40.00
G01 X7.8820 Y-8.7952 F40.00
G01 X7.8369 Y-8.8486 F40.00
G01 X7.8288 Y-8.8591 F40.00
G01 X7.8201 Y-8.8726 F40.00
G01 X7.8128 Y-8.8870 F40.00
G01 X7.8069 Y-8.9020 F40.00
G01 X7.8026 Y-8.9176 F40.00
G01 X7.8002 Y-8.9311 F40.00
G01 X7.7906 Y-9.0043 F40.00
G01 X7.7896 Y-9.0185 F40.00
G01 X7.7898 Y-9.0320 F40.00
G01 X7.7908 Y-9.0422 F40.00
G01 X7.7922 Y-9.0516 F40.00
G01 X7.7964 Y-9.0693 F40.00
G01 X7.8119 Y-9.1169 F40.00
G01 X7.8168 Y-9.1284 F40.00
G01 X7.8288 Y-9.1524 F40.00
G01 X7.8802 Y-9.3330 F40.00
G01 X7.8975 Y-9.5200 F40.00
G01 X7.8802 Y-9.7070 F40.00
G01 X7.8288 Y-9.8876 F40.00
G01 X7.7451 Y-10.0556 F40.00
G01 X7.6319 Y-10.2055 F40.00
G01 X7.5170 Y-10.3102 F40.00
G01 X7.5063 Y-10.3214 F40.00
G01 X7.4967 Y-10.3335 F40.00
G01 X7.4897 Y-10.3441 F40.00
G01 X7.4528 Y-10.4048 F40.00
G01 X7.4480 Y-10.4133 F40.00
G01 X7.4429 Y-10.4242 F40.00
G01 X7.4373 Y-10.4393 F40.00
G01 X7.4345 Y-10.4494 F40.00
G01 X7.4327 Y-10.4572 F40.00
G01 X7.4305 Y-10.4732 F40.00
G01 X7.4298 Y-10.4893 F40.00
G01 X7.4316 Y-10.5632 F40.00
G01 X7.4332 Y-10.5809 F40.00
G01 X7.4359 Y-10.5951 F40.00
G01 X7.4396 Y-10.6083 F40.00
G01 X7.4447 Y-10.6218 F40.00
G01 X7.4506 Y-10.6343 F40.00
G01 X7.4567 Y-10.6447 F40.00
G01 X7.4925 Y-10.7004 F40.00
G01 X7.4977 Y-10.7080 F40.00
G01 X7.5039 Y-10.7158 F40.00
G01 X7.5116 Y-10.7244 F40.00
G01 X7.5182 Y-10.7309 F40.00
G01 X7.6319 Y-10.8345 F40.00
G01 X7.7451 Y-10.9844 F40.00
G01 X7.8288 Y-11.1524 F40.00
G01 X7.8802 Y-11.3330 F40.00
G01 X7.8975 Y-11.5200 F40.00
G01 X7.8802 Y-11.7070 F40.00
G01 X7.8288 Y-11.8876 F40.00
G01 X7.7451 Y-12.0556 F40.00
G01 X7.6711 Y-12.1537 F40.00
G01 X7.6634 Y-12.1652 F40.00
G01 X7.6570 Y-12.1768 F40.00
G01 X7.6504 Y-12.1920 F40.00
G01 X7.6257 Y-12.2573 F40.00
G01 X7.6222 Y-12.2677 F40.00
G01 X7.6191 Y-12.2794 F40.00
G01 X7.6169 Y-12.2913 F40.00
G01 X7.6156 Y-12.3033 F40.00
G01 X7.6152 Y-12.3154 F40.00
G01 X7.6159 Y-12.3298 F40.00
G01 X7.6178 Y-12.3434 F40.00
G01 X7.6345 Y-12.4220 F40.00
G01 X7.6379 Y-12.4338 F40.00
G01 X7.6421 Y-12.4452 F40.00
G01 X7.6472 Y-12.4563 F40.00
G01 X7.6532 Y-12.4670 F40.00
G01 X7.6599 Y-12.4772 F40.00
G01 X7.6673 Y-12.4869 F40.00
G01 X7.7047 Y-12.5303 F40.00
G01 X7.7155 Y-12.5415 F40.00
G01 X7.7287 Y-12.5526 F40.00
G01 X7.7966 Y-12.6034 F40.00
G01 X7.8548 Y-12.6813 F40.00
G01 X7.8898 Y-12.7751 F40.00
G01 X7.8931 Y-12.8058 F40.00
G01 X7.8931 Y-14.2342 F40.00
G01 X7.8898 Y-14.2649 F40.00
G01 X7.8548 Y-14.3587 F40.00
G01 X7.7966 Y-14.4366 F40.00
G01 X7.7187 Y-14.4948 F40.00
G01 X7.6249 Y-14.5298 F40.00
G01 X7.5942 Y-14.5331 F40.00
G01 X6.1658 Y-14.5331 F40.00
G01 X6.1351 Y-14.5298 F40.00
G01 X6.0413 Y-14.4948 F40.00
G01 X5.9634 Y-14.4366 F40.00
G01 X5.9052 Y-14.3587 F40.00
G01 X5.8702 Y-14.2649 F40.00
G01 X5.8669 Y-14.2342 F40.00
G01 X5.8669 Y-12.8058 F40.00
G01 X5.8702 Y-12.7751 F40.00
G01 X5.9052 Y-12.6813 F40.00
G01 X5.9634 Y-12.6034 F40.00
G01 X6.0326 Y-12.5516 F40.00
G01 X6.0403 Y-12.5453 F40.00
G01 X6.0487 Y-12.5373 F40.00
G01 X6.0565 Y-12.5288 F40.00
G01 X6.0631 Y-12.5206 F40.00
G01 X6.1066 Y-12.4624 F40.00
G01 X6.1154 Y-12.4489 F40.00
G01 X6.1221 Y-12.4361 F40.00
G01 X6.1274 Y-12.4234 F40.00
G01 X6.1318 Y-12.4096 F40.00
G01 X6.1348 Y-12.3961 F40.00
G01 X6.1369 Y-12.3790 F40.00
G01 X6.1419 Y-12.3093 F40.00
G01 X6.1423 Y-12.2983 F40.00
G01 X6.1419 Y-12.2861 F40.00
G01 X6.1406 Y-12.2739 F40.00
G01 X6.1378 Y-12.2596 F40.00
G01 X6.1345 Y-12.2478 F40.00
G01 X6.1287 Y-12.2326 F40.00
G01 X6.1024 Y-12.1756 F40.00
G01 X6.0955 Y-12.1634 F40.00
G01 X6.0890 Y-12.1537 F40.00
G01 X6.0149 Y-12.0556 F40.00
G01 X5.9312 Y-11.8876 F40.00
G01 X5.8798 Y-11.7070 F40.00
G01 X5.8625 Y-11.5200 F40.00
G01 X5.8798 Y-11.3330 F40.00
G01 X5.9312 Y-11.1524 F40.00
G01 X6.0149 Y-10.9844 F40.00
G01 X6.1281 Y-10.8345 F40.00
G01 X6.2418 Y-10.7309 F40.00
G01 X6.2485 Y-10.7243 F40.00
G01 X6.2562 Y-10.7157 F40.00
G01 X6.2624 Y-10.7078 F40.00
G01 X6.2689 Y-10.6983 F40.00
G01 X6.3092 Y-10.6317 F40.00
G01 X6.3165 Y-10.6173 F40.00
G01 X6.3222 Y-10.6023 F40.00
G01 X6.3268 Y-10.5851 F40.00
G01 X6.3293 Y-10.5691 F40.00
G01 X6.3301 Y-10.5588 F40.00
G01 X6.3302 Y-10.5478 F40.00
G01 X6.3283 Y-10.4751 F40.00
G01 X6.3268 Y-10.4591 F40.00
G01 X6.3241 Y-10.4449 F40.00
G01 X6.3204 Y-10.4317 F40.00
G01 X6.3162 Y-10.4203 F40.00
G01 X6.3102 Y-10.4072 F40.00
G01 X6.3027 Y-10.3943 F40.00
G01 X6.2675 Y-10.3396 F40.00
G01 X6.2599 Y-10.3289 F40.00
G01 X6.2526 Y-10.3201 F40.00
G01 X6.2429 Y-10.3102 F40.00
G01 X6.1281 Y-10.2055 F40.00
G01 X6.0149 Y-10.0556 F40.00
G01 X5.9312 Y-9.8876 F40.00
G01 X5.8798 Y-9.7070 F40.00
G01 X5.8625 Y-9.5200 F40.00
G01 X5.8798 Y-9.3330 F40.00
G01 X5.9321 Y-9.1494 F40.00
G01 X5.9357 Y-9.1394 F40.00
G01 X5.9389 Y-9.1283 F40.00
G01 X5.9410 Y-9.1180 F40.00
G01 X5.9538 Y-9.0464 F40.00
G01 X5.9551 Y-9.0361 F40.00
G01 X5.9557 Y-9.0264 F40.00
G01 X5.9556 Y-9.0119 F40.00
G01 X5.9545 Y-8.9999 F40.00
G01 X5.9521 Y-8.9863 F40.00
G01 X5.9484 Y-8.9723 F40.00
G01 X5.9438 Y-8.9594 F40.00
G01 X5.9164 Y-8.8938 F40.00
G01 X5.9101 Y-8.8803 F40.00
G01 X5.9049 Y-8.8712 F40.00
G01 X5.9005 Y-8.8645 F40.00
G01 X5.8897 Y-8.8504 F40.00
G01 X5.8826 Y-8.8427 F40.00
G01 X5.8756 Y-8.8359 F40.00
G01 X5.8695 Y-8.8307 F40.00
G01 X5.8612 Y-8.8243 F40.00
G01 X5.8004 Y-8.7823 F40.00
G01 X5.7865 Y-8.7738 F40.00
G01 X5.7756 Y-8.7684 F40.00
G01 X5.7642 Y-8.7638 F40.00
G01 X5.7526 Y-8.7601 F40.00
G01 X5.7391 Y-8.7569 F40.00
G01 X5.6907 Y-8.7494 F40.00
G01 X5.6808 Y-8.7484 F40.00
G01 X5.6715 Y-8.7479 F40.00
G01 X5.3947 Y-8.7514 F40.00
G01 X5.3793 Y-8.7526 F40.00
G01 X5.3640 Y-8.7553 F40.00
G01 X5.3528 Y-8.7582 F40.00
G01 X5.3228 Y-8.7674 F40.00
G01 X5.3226 Y-8.5716 F40.00
G00 Z1.0000
G00 X5.2277 Y-8.4640
G01 F40.00
G01 Z-0.1001
G01 F40.00
G01 X5.2359 Y-8.4683 F40.00
G01 X5.2518 Y-8.4746 F40.00
G01 X5.2616 Y-8.4768 F40.00
G01 X5.2715 Y-8.4775 F40.00
G01 X6.4033 Y-8.4630 F40.00
G01 X6.4116 Y-8.4623 F40.00
G01 X6.4213 Y-8.4603 F40.00
G01 X6.4276 Y-8.4581 F40.00
G01 X6.4402 Y-8.4526 F40.00
G01 X6.4475 Y-8.4485 F40.00
G01 X6.4528 Y-8.4446 F40.00
G01 X6.4590 Y-8.4391 F40.00
G01 X6.4634 Y-8.4341 F40.00
G01 X6.4673 Y-8.4287 F40.00
G01 X6.4706 Y-8.4230 F40.00
G01 X6.4772 Y-8.4072 F40.00
G01 X6.4803 Y-8.3960 F40.00
G01 X6.4814 Y-8.3845 F40.00
G01 X6.4806 Y-8.3729 F40.00
G01 X6.4778 Y-8.3616 F40.00
G01 X6.4711 Y-8.3459 F40.00
G01 X6.4680 Y-8.3402 F40.00
G01 X6.4643 Y-8.3347 F40.00
G01 X6.4600 Y-8.3297 F40.00
G01 X6.4554 Y-8.3251 F40.00
G01 X6.4503 Y-8.3210 F40.00
G01 X6.4437 Y-8.3164 F40.00
G01 X6.3732 Y-8.2785 F40.00
G01 X6.2349 Y-8.1651 F40.00
G01 X6.1215 Y-8.0268 F40.00
G01 X6.0372 Y-7.8691 F40.00
G01 X5.9853 Y-7.6980 F40.00
G01 X5.9678 Y-7.5200 F40.00
G01 X5.9853 Y-7.3420 F40.00
G01 X6.0372 Y-7.1709 F40.00
G01 X6.1215 Y-7.0132 F40.00
G01 X6.2349 Y-6.8749 F40.00
G01 X6.3732 Y-6.7615 F40.00
G01 X6.5309 Y-6.6772 F40.00
G01 X6.7020 Y-6.6253 F40.00
G01 X6.8800 Y-6.6078 F40.00
G01 X7.0580 Y-6.6253 F40.00
G01 X7.2291 Y-6.6772 F40.00
G01 X7.3868 Y-6.7615 F40.00
G01 X7.5251 Y-6.8749 F40.00
G01 X7.6385 Y-7.0132 F40.00
G01 X7.6573 Y-7.0482 F40.00
G01 X7.6610 Y-7.0537 F40.00
G01 X7.6652 Y-7.0589 F40.00
G01 X7.6711 Y-7.0646 F40.00
G01 X7.6805 Y-7.0723 F40.00
G01 X7.6903 Y-7.0787 F40.00
G01 X7.6963 Y-7.0815 F40.00
G01 X7.7041 Y-7.0842 F40.00
G01 X7.7106 Y-7.0857 F40.00
G01 X7.7188 Y-7.0868 F40.00
G01 X7.7255 Y-7.0871 F40.00
G01 X10.1325 Y-7.0871 F40.00
G01 X10.1394 Y-7.0866 F40.00
G01 X10.1468 Y-7.0854 F40.00
G01 X10.1570 Y-7.0827 F40.00
G01 X10.1891 Y-7.0801 F40.00
G01 X10.2188 Y-7.0738 F40.00
G01 X10.2306 Y-7.0745 F40.00
G01 X10.2405 Y-7.0737 F40.00
G01 X10.2486 Y-7.0720 F40.00
G01 X10.2633 Y-7.0671 F40.00
G01 X10.2694 Y-7.0644 F40.00
G01 X10.2765 Y-7.0602 F40.00
G01 X10.2831 Y-7.0552 F40.00
G01 X10.2890 Y-7.0494 F40.00
G01 X10.2932 Y-7.0442 F40.00
G01 X10.2969 Y-7.0387 F40.00
G01 X10.3032 Y-7.0265 F40.00
G01 X10.3059 Y-7.0204 F40.00
G01 X10.3088 Y-7.0109 F40.00
G01 X10.3102 Y-7.0010 F40.00
G01 X10.3102 Y-6.9911 F40.00
G01 X10.3087 Y-6.9812 F40.00
G01 X10.3042 Y-6.9665 F40.00
G01 X10.3010 Y-6.9586 F40.00
G01 X10.2959 Y-6.9497 F40.00
G01 X10.2889 Y-6.9411 F40.00
G01 X9.3239 Y-5.9760 F40.00
G01 X9.3164 Y-5.9695 F40.00
G01 X9.3065 Y-5.9634 F40.00
G01 X9.2907 Y-5.9568 F40.00
G01 X9.2811 Y-5.9541 F40.00
G01 X9.2746 Y-5.9532 F40.00
G01 X9.2679 Y-5.9529 F40.00
G01 X7.7255 Y-5.9529 F40.00
G01 X7.7188 Y-5.9532 F40.00
G01 X7.7123 Y-5.9541 F40.00
G01 X7.7011 Y-5.9574 F40.00
G01 X7.6855 Y-5.9642 F40.00
G01 X7.6757 Y-5.9705 F40.00
G01 X7.6672 Y-5.9784 F40.00
G01 X7.6630 Y-5.9836 F40.00
G01 X7.6573 Y-5.9918 F40.00
G01 X7.6385 Y-6.0268 F40.00
G01 X7.5251 Y-6.1651 F40.00
G01 X7.3868 Y-6.2785 F40.00
G01 X7.2291 Y-6.3628 F40.00
G01 X7.0580 Y-6.4147 F40.00
G01 X6.8800 Y-6.4322 F40.00
G01 X6.7020 Y-6.4147 F40.00
G01 X6.5309 Y-6.3628 F40.00
G01 X6.3732 Y-6.2785 F40.00
G01 X6.2349 Y-6.1651 F40.00
G01 X6.1215 Y-6.0268 F40.00
G01 X6.0372 Y-5.8691 F40.00
G01 X5.9853 Y-5.6980 F40.00
G01 X5.9678 Y-5.5200 F40.00
G01 X5.9853 Y-5.3420 F40.00
G01 X6.0372 Y-5.1709 F40.00
G01 X6.1215 Y-5.0132 F40.00
G01 X6.2349 Y-4.8749 F40.00
G01 X6.3732 Y-4.7615 F40.00
G01 X6.5309 Y-4.6772 F40.00
G01 X6.7020 Y-4.6253 F40.00
G01 X6.8800 Y-4.6078 F40.00
G01 X7.0580 Y-4.6253 F40.00
G01 X7.2291 Y-4.6772 F40.00
G01 X7.3868 Y-4.7615 F40.00
G01 X7.5251 Y-4.8749 F40.00
G01 X7.6385 Y-5.0132 F40.00
G01 X7.6565 Y-5.0468 F40.00
G01 X7.6600 Y-5.0524 F40.00
G01 X7.6641 Y-5.0576 F40.00
G01 X7.6724 Y-5.0657 F40.00
G01 X7.6818 Y-5.0733 F40.00
G01 X7.6874 Y-5.0770 F40.00
G01 X7.6978 Y-5.0821 F40.00
G01 X7.7041 Y-5.0842 F40.00
G01 X7.7106 Y-5.0857 F40.00
G01 X7.7188 Y-5.0868 F40.00
G01 X7.7255 Y-5.0871 F40.00
G01 X9.4250 Y-5.0871 F40.00
G01 X9.4364 Y-5.0863 F40.00
G01 X9.4488 Y-5.0838 F40.00
G01 X9.4927 Y-5.0869 F40.00
G01 X9.5110 Y-5.0871 F40.00
G01 X9.5291 Y-5.0896 F40.00
G01 X9.5730 Y-5.0927 F40.00
G01 X9.5866 Y-5.0974 F40.00
G01 X9.5943 Y-5.0991 F40.00
G01 X9.6032 Y-5.1004 F40.00
G01 X9.6454 Y-5.1196 F40.00
G01 X9.6896 Y-5.1362 F40.00
G01 X9.7014 Y-5.1445 F40.00
G01 X9.7082 Y-5.1484 F40.00
G01 X9.7164 Y-5.1521 F40.00
G01 X9.7506 Y-5.1817 F40.00
G01 X9.7642 Y-5.1920 F40.00
G01 X9.7773 Y-5.2048 F40.00
G01 X9.8105 Y-5.2336 F40.00
G01 X9.8175 Y-5.2441 F40.00
G01 X9.8250 Y-5.2528 F40.00
G01 X11.0561 Y-6.4840 F40.00
G01 X11.0636 Y-6.4905 F40.00
G01 X11.0721 Y-6.4958 F40.00
G01 X11.0877 Y-6.5026 F40.00
G01 X11.0973 Y-6.5055 F40.00
G01 X11.1038 Y-6.5066 F40.00
G01 X11.1121 Y-6.5071 F40.00
G01 X15.3629 Y-6.5070 F40.00
G01 X15.3711 Y-6.5059 F40.00
G01 X15.3776 Y-6.5042 F40.00
G01 X15.3935 Y-6.4980 F40.00
G01 X15.3994 Y-6.4950 F40.00
G01 X15.4050 Y-6.4914 F40.00
G01 X15.4139 Y-6.4840 F40.00
G01 X18.6350 Y-3.2629 F40.00
G01 X18.6425 Y-3.2541 F40.00
G01 X18.6495 Y-3.2436 F40.00
G01 X18.6827 Y-3.2148 F40.00
G01 X18.6958 Y-3.2020 F40.00
G01 X18.7104 Y-3.1909 F40.00
G01 X18.7436 Y-3.1621 F40.00
G01 X18.7517 Y-3.1584 F40.00
G01 X18.7586 Y-3.1545 F40.00
G01 X18.7704 Y-3.1462 F40.00
G01 X18.8146 Y-3.1297 F40.00
G01 X18.8568 Y-3.1104 F40.00
G01 X18.8657 Y-3.1091 F40.00
G01 X18.8734 Y-3.1074 F40.00
G01 X18.8870 Y-3.1027 F40.00
G01 X18.9309 Y-3.0996 F40.00
G01 X18.9490 Y-3.0971 F40.00
G01 X18.9674 Y-3.0969 F40.00
G01 X19.0112 Y-3.0938 F40.00
G01 X19.0236 Y-3.0963 F40.00
G01 X19.0350 Y-3.0971 F40.00
G01 X29.7159 Y-3.0971 F40.00
G01 X29.7256 Y-3.0962 F40.00
G01 X29.7351 Y-3.0938 F40.00
G01 X29.7489 Y-3.0886 F40.00
G01 X29.7575 Y-3.0841 F40.00
G01 X29.7667 Y-3.0772 F40.00
G01 X29.8479 Y-3.0053 F40.00
G01 X29.9839 Y-2.9339 F40.00
G01 X30.1332 Y-2.8971 F40.00
G01 X30.2868 Y-2.8971 F40.00
G01 X30.4361 Y-2.9339 F40.00
G01 X30.5721 Y-3.0053 F40.00
G01 X30.6872 Y-3.1073 F40.00
G01 X30.7745 Y-3.2337 F40.00
G01 X30.8290 Y-3.3774 F40.00
G01 X30.8475 Y-3.5300 F40.00
G01 X30.8290 Y-3.6826 F40.00
G01 X30.7745 Y-3.8263 F40.00
G01 X30.6872 Y-3.9527 F40.00
G01 X30.5721 Y-4.0547 F40.00
G01 X30.4361 Y-4.1261 F40.00
G01 X30.2868 Y-4.1629 F40.00
G01 X30.1332 Y-4.1629 F40.00
G01 X29.9839 Y-4.1261 F40.00
G01 X29.8479 Y-4.0547 F40.00
G01 X29.7667 Y-3.9828 F40.00
G01 X29.7575 Y-3.9759 F40.00
G01 X29.7489 Y-3.9714 F40.00
G01 X29.7351 Y-3.9662 F40.00
G01 X29.7256 Y-3.9638 F40.00
G01 X29.7159 Y-3.9629 F40.00
G01 X19.1921 Y-3.9629 F40.00
G01 X19.1854 Y-3.9632 F40.00
G01 X19.1773 Y-3.9645 F40.00
G01 X19.1677 Y-3.9674 F40.00
G01 X19.1521 Y-3.9742 F40.00
G01 X19.1436 Y-3.9795 F40.00
G01 X19.1361 Y-3.9860 F40.00
G01 X15.9150 Y-7.2072 F40.00
G01 X15.9075 Y-7.2159 F40.00
G01 X15.9005 Y-7.2264 F40.00
G01 X15.8673 Y-7.2551 F40.00
G01 X15.8542 Y-7.2680 F40.00
G01 X15.8396 Y-7.2791 F40.00
G01 X15.8064 Y-7.3079 F40.00
G01 X15.7935 Y-7.3142 F40.00
G01 X15.7868 Y-7.3184 F40.00
G01 X15.7796 Y-7.3238 F40.00
G01 X15.7361 Y-7.3401 F40.00
G01 X15.6932 Y-7.3596 F40.00
G01 X15.6790 Y-7.3620 F40.00
G01 X15.6714 Y-7.3642 F40.00
G01 X15.6630 Y-7.3673 F40.00
G01 X15.6191 Y-7.3704 F40.00
G01 X15.6010 Y-7.3729 F40.00
G01 X15.5826 Y-7.3731 F40.00
G01 X15.5388 Y-7.3762 F40.00
G01 X15.5264 Y-7.3737 F40.00
G01 X15.5150 Y-7.3729 F40.00
G01 X10.9532 Y-7.3729 F40.00
G01 X10.9418 Y-7.3740 F40.00
G01 X10.9312 Y-7.3762 F40.00
G01 X10.9227 Y-7.3756 F40.00
G01 X10.9161 Y-7.3756 F40.00
G01 X10.9095 Y-7.3763 F40.00
G01 X10.9030 Y-7.3776 F40.00
G01 X10.8883 Y-7.3823 F40.00
G01 X10.8821 Y-7.3849 F40.00
G01 X10.8735 Y-7.3898 F40.00
G01 X10.8669 Y-7.3948 F40.00
G01 X10.8599 Y-7.4019 F40.00
G01 X10.8540 Y-7.4099 F40.00
G01 X10.8468 Y-7.4235 F40.00
G01 X10.8435 Y-7.4312 F40.00
G01 X10.8409 Y-7.4408 F40.00
G01 X10.8397 Y-7.4507 F40.00
G01 X10.8398 Y-7.4590 F40.00
G01 X10.8413 Y-7.4688 F40.00
G01 X10.8458 Y-7.4835 F40.00
G01 X10.8490 Y-7.4914 F40.00
G01 X10.8541 Y-7.5002 F40.00
G01 X10.8605 Y-7.5082 F40.00
G01 X11.1072 Y-7.7550 F40.00
G01 X11.1159 Y-7.7625 F40.00
G01 X11.1264 Y-7.7695 F40.00
G01 X11.1552 Y-7.8027 F40.00
G01 X11.1680 Y-7.8158 F40.00
G01 X11.1791 Y-7.8304 F40.00
G01 X11.2079 Y-7.8636 F40.00
G01 X11.2116 Y-7.8718 F40.00
G01 X11.2155 Y-7.8786 F40.00
G01 X11.2238 Y-7.8904 F40.00
G01 X11.2404 Y-7.9346 F40.00
G01 X11.2596 Y-7.9768 F40.00
G01 X11.2609 Y-7.9857 F40.00
G01 X11.2626 Y-7.9934 F40.00
G01 X11.2673 Y-8.0070 F40.00
G01 X11.2704 Y-8.0509 F40.00
G01 X11.2729 Y-8.0690 F40.00
G01 X11.2731 Y-8.0874 F40.00
G01 X11.2762 Y-8.1312 F40.00
G01 X11.2737 Y-8.1436 F40.00
G01 X11.2728 Y-8.1551 F40.00
G01 X11.2728 Y-8.3202 F40.00
G01 X11.2734 Y-8.3284 F40.00
G01 X11.2749 Y-8.3366 F40.00
G01 X11.2780 Y-8.3461 F40.00
G01 X11.2827 Y-8.3572 F40.00
G01 X11.2858 Y-8.3631 F40.00
G01 X11.2926 Y-8.3725 F40.00
G01 X11.3009 Y-8.3806 F40.00
G01 X11.3063 Y-8.3845 F40.00
G01 X11.3120 Y-8.3880 F40.00
G01 X11.3291 Y-8.3953 F40.00
G01 X11.3400 Y-8.3982 F40.00
G01 X11.3513 Y-8.3993 F40.00
G01 X44.9095 Y-7.9678 F40.00
G01 X44.9194 Y-7.9669 F40.00
G01 X44.9307 Y-7.9641 F40.00
G01 X44.9464 Y-7.9575 F40.00
G01 X44.9553 Y-7.9523 F40.00
G01 X44.9554 Y-8.4208 F40.00
G01 X44.9477 Y-8.4129 F40.00
G01 X44.8949 Y-8.3672 F40.00
G01 X44.8884 Y-8.3622 F40.00
G01 X44.8814 Y-8.3581 F40.00
G01 X44.8739 Y-8.3548 F40.00
G01 X44.8661 Y-8.3525 F40.00
G01 X44.8099 Y-8.3406 F40.00
G01 X44.7983 Y-8.3395 F40.00
G01 X42.4916 Y-8.3691 F40.00
G01 X42.4836 Y-8.3699 F40.00
G01 X42.4757 Y-8.3716 F40.00
G01 X42.4058 Y-8.3931 F40.00
G01 X42.4011 Y-8.3949 F40.00
G01 X42.3950 Y-8.3978 F40.00
G01 X42.3893 Y-8.4013 F40.00
G01 X42.3839 Y-8.4054 F40.00
G01 X42.3802 Y-8.4087 F40.00
G01 X42.3756 Y-8.4136 F40.00
G01 X42.3295 Y-8.4683 F40.00
G01 X42.3238 Y-8.4766 F40.00
G01 X42.3194 Y-8.4857 F40.00
G01 X42.3172 Y-8.4920 F40.00
G01 X42.3154 Y-8.5002 F40.00
G01 X42.3059 Y-8.5728 F40.00
G01 X42.3056 Y-8.5827 F40.00
G01 X42.3070 Y-8.5942 F40.00
G01 X42.3104 Y-8.6053 F40.00
G01 X42.3314 Y-8.6572 F40.00
G01 X42.3359 Y-8.6663 F40.00
G01 X42.4479 Y-8.8266 F40.00
G01 X42.5353 Y-9.0141 F40.00
G01 X42.5888 Y-9.2139 F40.00
G01 X42.6069 Y-9.4200 F40.00
G01 X42.5888 Y-9.6261 F40.00
G01 X42.5353 Y-9.8259 F40.00
G01 X42.4526 Y-10.0033 F40.00
G01 X42.1772 Y-9.7280 F40.00
G01 X42.2024 Y-9.6574 F40.00
G01 X42.2212 Y-9.5828 F40.00
G01 X42.2225 Y-9.5762 F40.00
G01 X42.2333 Y-9.5034 F40.00
G01 X42.2340 Y-9.4968 F40.00
G01 X42.2376 Y-9.4200 F40.00
G01 X42.2337 Y-9.3399 F40.00
G01 X42.2225 Y-9.2638 F40.00
G01 X42.2212 Y-9.2572 F40.00
G01 X42.2024 Y-9.1826 F40.00
G01 X42.1766 Y-9.1102 F40.00
G01 X42.1741 Y-9.1041 F40.00
G01 X42.1411 Y-9.0346 F40.00
G01 X42.1016 Y-8.9685 F40.00
G01 X42.0979 Y-8.9630 F40.00
G01 X42.0541 Y-8.9039 F40.00
G01 X42.0499 Y-8.8988 F40.00
G01 X41.9982 Y-8.8418 F40.00
G01 X41.9412 Y-8.7901 F40.00
G01 X41.9361 Y-8.7859 F40.00
G01 X41.8743 Y-8.7401 F40.00
G01 X41.8054 Y-8.6989 F40.00
G01 X41.7359 Y-8.6659 F40.00
G01 X41.7298 Y-8.6634 F40.00
G01 X41.6574 Y-8.6376 F40.00
G01 X41.5828 Y-8.6188 F40.00
G01 X41.5762 Y-8.6175 F40.00
G01 X41.5001 Y-8.6063 F40.00
G01 X41.4200 Y-8.6024 F40.00
G01 X41.3399 Y-8.6063 F40.00
G01 X41.2638 Y-8.6175 F40.00
G01 X41.2572 Y-8.6188 F40.00
G01 X41.1826 Y-8.6376 F40.00
G01 X41.1102 Y-8.6634 F40.00
G01 X41.1041 Y-8.6659 F40.00
G01 X41.0346 Y-8.6989 F40.00
G01 X40.9657 Y-8.7401 F40.00
G01 X40.9039 Y-8.7859 F40.00
G01 X40.8988 Y-8.7901 F40.00
G01 X40.8442 Y-8.8395 F40.00
G01 X40.8395 Y-8.8442 F40.00
G01 X40.7879 Y-8.9013 F40.00
G01 X40.7421 Y-8.9630 F40.00
G01 X40.7384 Y-8.9685 F40.00
G01 X40.6989 Y-9.0346 F40.00
G01 X40.6659 Y-9.1041 F40.00
G01 X40.6634 Y-9.1102 F40.00
G01 X40.6376 Y-9.1826 F40.00
G01 X40.6188 Y-9.2572 F40.00
G01 X40.6175 Y-9.2638 F40.00
G01 X40.6063 Y-9.3399 F40.00
G01 X40.6024 Y-9.4200 F40.00
G01 X40.6060 Y-9.4968 F40.00
G01 X40.6067 Y-9.5034 F40.00
G01 X40.6175 Y-9.5762 F40.00
G01 X40.6188 Y-9.5828 F40.00
G01 X40.6376 Y-9.6574 F40.00
G01 X40.6628 Y-9.7280 F40.00
G01 X40.3874 Y-10.0033 F40.00
G01 X40.3047 Y-9.8259 F40.00
G01 X40.2512 Y-9.6261 F40.00
G01 X40.2331 Y-9.4200 F40.00
G01 X40.2512 Y-9.2139 F40.00
G01 X40.3047 Y-9.0141 F40.00
G01 X40.3921 Y-8.8266 F40.00
G01 X40.4818 Y-8.6986 F40.00
G01 X40.4867 Y-8.6903 F40.00
G01 X40.4905 Y-8.6814 F40.00
G01 X40.5138 Y-8.6120 F40.00
G01 X40.5153 Y-8.6054 F40.00
G01 X40.5160 Y-8.6004 F40.00
G01 X40.5163 Y-8.5904 F40.00
G01 X40.5156 Y-8.5837 F40.00
G01 X40.5147 Y-8.5787 F40.00
G01 X40.4959 Y-8.5045 F40.00
G01 X40.4934 Y-8.4982 F40.00
G01 X40.4896 Y-8.4908 F40.00
G01 X40.4848 Y-8.4839 F40.00
G01 X40.4804 Y-8.4788 F40.00
G01 X40.4258 Y-8.4275 F40.00
G01 X40.4191 Y-8.4223 F40.00
G01 X40.4118 Y-8.4179 F40.00
G01 X40.4041 Y-8.4145 F40.00
G01 X40.3960 Y-8.4121 F40.00
G01 X40.3369 Y-8.3984 F40.00
G01 X40.3256 Y-8.3970 F40.00
G01 X11.6620 Y-8.7656 F40.00
G01 X11.6524 Y-8.7664 F40.00
G01 X11.6430 Y-8.7685 F40.00
G01 X11.5746 Y-8.7896 F40.00
G01 X11.5669 Y-8.7928 F40.00
G01 X11.5595 Y-8.7969 F40.00
G01 X11.5528 Y-8.8018 F40.00
G01 X11.5455 Y-8.8088 F40.00
G01 X11.4994 Y-8.8635 F40.00
G01 X11.4935 Y-8.8716 F40.00
G01 X11.4882 Y-8.8820 F40.00
G01 X11.4852 Y-8.8916 F40.00
G01 X11.4740 Y-8.9450 F40.00
G01 X11.4731 Y-8.9519 F40.00
G01 X11.4729 Y-8.9572 F40.00
G01 X11.4729 Y-15.8885 F40.00
G01 X11.4735 Y-15.8981 F40.00
G01 X11.4752 Y-15.9060 F40.00
G01 X11.4953 Y-15.9746 F40.00
G01 X11.4981 Y-15.9824 F40.00
G01 X11.5010 Y-15.9883 F40.00
G01 X11.5055 Y-15.9953 F40.00
G01 X11.5241 Y-16.0186 F40.00
G01 X11.5290 Y-16.0240 F40.00
G01 X15.8746 Y-20.3696 F40.00
G01 X15.9456 Y-20.4602 F40.00
G01 X15.9753 Y-20.5258 F40.00
G01 X15.9790 Y-20.5317 F40.00
G01 X16.0044 Y-20.5685 F40.00
G01 X16.0110 Y-20.5767 F40.00
G01 X17.2353 Y-21.8010 F40.00
G01 X17.2413 Y-21.8064 F40.00
G01 X17.2479 Y-21.8109 F40.00
G01 X17.3120 Y-21.8460 F40.00
G01 X17.3211 Y-21.8502 F40.00
G01 X17.3274 Y-21.8521 F40.00
G01 X17.3356 Y-21.8537 F40.00
G01 X17.3636 Y-21.8568 F40.00
G01 X17.3708 Y-21.8571 F40.00
G01 X34.0623 Y-21.8571 F40.00
G01 X34.0703 Y-21.8565 F40.00
G01 X34.0782 Y-21.8548 F40.00
G01 X34.1468 Y-21.8347 F40.00
G01 X34.1546 Y-21.8319 F40.00
G01 X34.1635 Y-21.8273 F40.00
G01 X34.1716 Y-21.8214 F40.00
G01 X34.1967 Y-21.8000 F40.00
G01 X34.2019 Y-21.7951 F40.00
G01 X34.2896 Y-21.6977 F40.00
G01 X34.4313 Y-21.5948 F40.00
G01 X34.5912 Y-21.5235 F40.00
G01 X34.7625 Y-21.4871 F40.00
G01 X34.9375 Y-21.4871 F40.00
G01 X35.1088 Y-21.5235 F40.00
G01 X35.2687 Y-21.5948 F40.00
G01 X35.4104 Y-21.6977 F40.00
G01 X35.5275 Y-21.8278 F40.00
G01 X35.6150 Y-21.9794 F40.00
G01 X35.6691 Y-22.1459 F40.00
G01 X35.6874 Y-22.3200 F40.00
G01 X35.6691 Y-22.4941 F40.00
G01 X35.6150 Y-22.6606 F40.00
G01 X35.5275 Y-22.8122 F40.00
G01 X35.4104 Y-22.9423 F40.00
G01 X35.2687 Y-23.0452 F40.00
G01 X35.1088 Y-23.1165 F40.00
G01 X34.9375 Y-23.1529 F40.00
G01 X34.7625 Y-23.1529 F40.00
G01 X34.5912 Y-23.1165 F40.00
G01 X34.4138 Y-23.0377 F40.00
G01 X34.4048 Y-23.0350 F40.00
G01 X34.3543 Y-23.0243 F40.00
G01 X34.3481 Y-23.0233 F40.00
G01 X34.3403 Y-23.0229 F40.00
G01 X17.1355 Y-23.0229 F40.00
G01 X17.1299 Y-23.0231 F40.00
G01 X17.1116 Y-23.0251 F40.00
G01 X17.0428 Y-23.0229 F40.00
G01 X17.0133 Y-23.0229 F40.00
G01 X16.9968 Y-23.0215 F40.00
G01 X16.9581 Y-23.0202 F40.00
G01 X16.9425 Y-23.0158 F40.00
G01 X16.9217 Y-23.0115 F40.00
G01 X16.9039 Y-23.0090 F40.00
G01 X16.8664 Y-22.9943 F40.00
G01 X16.8538 Y-22.9900 F40.00
G01 X16.8167 Y-22.9792 F40.00
G01 X16.8027 Y-22.9710 F40.00
G01 X16.7836 Y-22.9616 F40.00
G01 X16.7670 Y-22.9548 F40.00
G01 X16.7343 Y-22.9312 F40.00
G01 X16.7232 Y-22.9239 F40.00
G01 X16.6899 Y-22.9042 F40.00
G01 X16.6771 Y-22.8916 F40.00
G01 X16.6609 Y-22.8779 F40.00
G01 X16.6478 Y-22.8683 F40.00
G01 X16.6232 Y-22.8384 F40.00
G01 X16.6120 Y-22.8263 F40.00
G01 X15.1867 Y-21.4010 F40.00
G01 X15.1785 Y-21.3944 F40.00
G01 X15.1417 Y-21.3690 F40.00
G01 X15.1358 Y-21.3653 F40.00
G01 X15.0702 Y-21.3356 F40.00
G01 X14.9796 Y-21.2646 F40.00
G01 X10.4101 Y-16.6951 F40.00
G01 X10.4017 Y-16.6872 F40.00
G01 X10.3628 Y-16.6527 F40.00
G01 X10.3277 Y-16.6023 F40.00
G01 X10.2944 Y-16.5598 F40.00
G01 X10.2909 Y-16.5526 F40.00
G01 X10.2791 Y-16.5317 F40.00
G01 X10.2755 Y-16.5263 F40.00
G01 X10.2564 Y-16.4758 F40.00
G01 X10.2314 Y-16.4197 F40.00
G01 X10.2296 Y-16.4118 F40.00
G01 X10.2232 Y-16.3887 F40.00
G01 X10.2210 Y-16.3826 F40.00
G01 X10.2134 Y-16.3216 F40.00
G01 X10.2037 Y-16.2685 F40.00
G01 X10.2068 Y-16.2167 F40.00
G01 X10.2071 Y-16.2051 F40.00
G01 X10.2071 Y-8.9784 F40.00
G01 X10.2067 Y-8.9704 F40.00
G01 X10.2048 Y-8.9609 F40.00
G01 X10.1842 Y-8.8907 F40.00
G01 X10.1819 Y-8.8844 F40.00
G01 X10.1797 Y-8.8799 F40.00
G01 X10.1763 Y-8.8741 F40.00
G01 X10.1723 Y-8.8687 F40.00
G01 X10.1654 Y-8.8614 F40.00
G01 X10.1113 Y-8.8145 F40.00
G01 X10.1048 Y-8.8095 F40.00
G01 X10.0978 Y-8.8054 F40.00
G01 X10.0904 Y-8.8021 F40.00
G01 X10.0826 Y-8.7998 F40.00
G01 X10.0262 Y-8.7879 F40.00
G01 X10.0164 Y-8.7868 F40.00
G01 X8.0720 Y-8.8117 F40.00
G01 X8.0624 Y-8.8125 F40.00
G01 X8.0529 Y-8.8147 F40.00
G01 X7.9846 Y-8.8358 F40.00
G01 X7.9783 Y-8.8382 F40.00
G01 X7.9709 Y-8.8421 F40.00
G01 X7.9627 Y-8.8480 F40.00
G01 X7.9555 Y-8.8550 F40.00
G01 X7.9093 Y-8.9097 F40.00
G01 X7.9052 Y-8.9150 F40.00
G01 X7.9017 Y-8.9207 F40.00
G01 X7.8988 Y-8.9268 F40.00
G01 X7.8964 Y-8.9331 F40.00
G01 X7.8944 Y-8.9412 F40.00
G01 X7.8847 Y-9.0155 F40.00
G01 X7.8843 Y-9.0237 F40.00
G01 X7.8849 Y-9.0319 F40.00
G01 X7.8870 Y-9.0416 F40.00
G01 X7.9001 Y-9.0825 F40.00
G01 X7.9029 Y-9.0888 F40.00
G01 X7.9175 Y-9.1181 F40.00
G01 X7.9737 Y-9.3156 F40.00
G01 X7.9926 Y-9.5200 F40.00
G01 X7.9737 Y-9.7244 F40.00
G01 X7.9175 Y-9.9219 F40.00
G01 X7.8259 Y-10.1057 F40.00
G01 X7.7022 Y-10.2696 F40.00
G01 X7.5829 Y-10.3784 F40.00
G01 X7.5752 Y-10.3866 F40.00
G01 X7.5706 Y-10.3932 F40.00
G01 X7.5343 Y-10.4529 F40.00
G01 X7.5311 Y-10.4589 F40.00
G01 X7.5280 Y-10.4666 F40.00
G01 X7.5262 Y-10.4731 F40.00
G01 X7.5248 Y-10.4814 F40.00
G01 X7.5245 Y-10.4898 F40.00
G01 X7.5263 Y-10.5613 F40.00
G01 X7.5273 Y-10.5696 F40.00
G01 X7.5292 Y-10.5778 F40.00
G01 X7.5322 Y-10.5856 F40.00
G01 X7.5361 Y-10.5931 F40.00
G01 X7.5724 Y-10.6495 F40.00
G01 X7.5773 Y-10.6559 F40.00
G01 X7.5829 Y-10.6616 F40.00
G01 X7.7022 Y-10.7704 F40.00
G01 X7.8259 Y-10.9343 F40.00
G01 X7.9175 Y-11.1181 F40.00
G01 X7.9737 Y-11.3156 F40.00
G01 X7.9926 Y-11.5200 F40.00
G01 X7.9737 Y-11.7244 F40.00
G01 X7.9175 Y-11.9219 F40.00
G01 X7.8259 Y-12.1057 F40.00
G01 X7.7483 Y-12.2086 F40.00
G01 X7.7423 Y-12.2181 F40.00
G01 X7.7390 Y-12.2254 F40.00
G01 X7.7132 Y-12.2940 F40.00
G01 X7.7114 Y-12.3005 F40.00
G01 X7.7106 Y-12.3054 F40.00
G01 X7.7099 Y-12.3155 F40.00
G01 X7.7103 Y-12.3222 F40.00
G01 X7.7111 Y-12.3272 F40.00
G01 X7.7263 Y-12.3988 F40.00
G01 X7.7294 Y-12.4085 F40.00
G01 X7.7315 Y-12.4131 F40.00
G01 X7.7349 Y-12.4190 F40.00
G01 X7.7409 Y-12.4272 F40.00
G01 X7.7757 Y-12.4675 F40.00
G01 X7.7813 Y-12.4734 F40.00
G01 X7.7864 Y-12.4775 F40.00
G01 X7.8642 Y-12.5358 F40.00
G01 X7.9388 Y-12.6354 F40.00
G01 X7.9827 Y-12.7532 F40.00
G01 X7.9879 Y-12.8008 F40.00
G01 X7.9878 Y-14.2392 F40.00
G01 X7.9827 Y-14.2868 F40.00
G01 X7.9388 Y-14.4046 F40.00
G01 X7.8642 Y-14.5042 F40.00
G01 X7.7646 Y-14.5788 F40.00
G01 X7.6468 Y-14.6227 F40.00
G01 X7.5992 Y-14.6279 F40.00
G01 X6.1608 Y-14.6279 F40.00
G01 X6.1132 Y-14.6227 F40.00
G01 X5.9954 Y-14.5788 F40.00
G01 X5.8958 Y-14.5042 F40.00
G01 X5.8212 Y-14.4046 F40.00
G01 X5.7773 Y-14.2868 F40.00
G01 X5.7721 Y-14.2392 F40.00
G01 X5.7721 Y-12.8008 F40.00
G01 X5.7773 Y-12.7532 F40.00
G01 X5.8212 Y-12.6354 F40.00
G01 X5.8958 Y-12.5358 F40.00
G01 X5.9736 Y-12.4775 F40.00
G01 X5.9798 Y-12.4723 F40.00
G01 X5.9873 Y-12.4639 F40.00
G01 X6.0291 Y-12.4079 F40.00
G01 X6.0329 Y-12.4024 F40.00
G01 X6.0361 Y-12.3965 F40.00
G01 X6.0386 Y-12.3903 F40.00
G01 X6.0406 Y-12.3838 F40.00
G01 X6.0419 Y-12.3772 F40.00
G01 X6.0476 Y-12.2974 F40.00
G01 X6.0474 Y-12.2924 F40.00
G01 X6.0465 Y-12.2856 F40.00
G01 X6.0450 Y-12.2790 F40.00
G01 X6.0434 Y-12.2742 F40.00
G01 X6.0170 Y-12.2168 F40.00
G01 X6.0117 Y-12.2086 F40.00
G01 X5.9341 Y-12.1057 F40.00
G01 X5.8425 Y-11.9219 F40.00
G01 X5.7863 Y-11.7244 F40.00
G01 X5.7674 Y-11.5200 F40.00
G01 X5.7863 Y-11.3156 F40.00
G01 X5.8425 Y-11.1181 F40.00
G01 X5.9341 Y-10.9343 F40.00
G01 X6.0578 Y-10.7704 F40.00
G01 X6.1771 Y-10.6616 F40.00
G01 X6.1838 Y-10.6546 F40.00
G01 X6.1894 Y-10.6468 F40.00
G01 X6.2257 Y-10.5871 F40.00
G01 X6.2296 Y-10.5796 F40.00
G01 X6.2320 Y-10.5734 F40.00
G01 X6.2342 Y-10.5653 F40.00
G01 X6.2353 Y-10.5569 F40.00
G01 X6.2355 Y-10.5502 F40.00
G01 X6.2337 Y-10.4804 F40.00
G01 X6.2330 Y-10.4720 F40.00
G01 X6.2317 Y-10.4654 F40.00
G01 X6.2297 Y-10.4590 F40.00
G01 X6.2247 Y-10.4484 F40.00
G01 X6.1885 Y-10.3918 F40.00
G01 X6.1838 Y-10.3853 F40.00
G01 X6.1771 Y-10.3784 F40.00
G01 X6.0578 Y-10.2696 F40.00
G01 X5.9341 Y-10.1057 F40.00
G01 X5.8425 Y-9.9219 F40.00
G01 X5.7863 Y-9.7244 F40.00
G01 X5.7674 Y-9.5200 F40.00
G01 X5.7863 Y-9.3156 F40.00
G01 X5.8426 Y-9.1179 F40.00
G01 X5.8449 Y-9.1123 F40.00
G01 X5.8468 Y-9.1061 F40.00
G01 X5.8600 Y-9.0326 F40.00
G01 X5.8610 Y-9.0243 F40.00
G01 X5.8610 Y-9.0176 F40.00
G01 X5.8604 Y-9.0109 F40.00
G01 X5.8591 Y-9.0043 F40.00
G01 X5.8571 Y-8.9979 F40.00
G01 X5.8269 Y-8.9256 F40.00
G01 X5.8236 Y-8.9198 F40.00
G01 X5.8186 Y-8.9130 F40.00
G01 X5.8129 Y-8.9069 F40.00
G01 X5.8064 Y-8.9016 F40.00
G01 X5.7447 Y-8.8590 F40.00
G01 X5.7388 Y-8.8557 F40.00
G01 X5.7325 Y-8.8531 F40.00
G01 X5.7277 Y-8.8515 F40.00
G01 X5.7211 Y-8.8499 F40.00
G01 X5.6773 Y-8.8432 F40.00
G01 X5.6693 Y-8.8426 F40.00
G01 X5.3954 Y-8.8462 F40.00
G01 X5.3874 Y-8.8471 F40.00
G01 X5.3811 Y-8.8486 F40.00
G01 X5.3128 Y-8.8696 F40.00
G01 X5.3050 Y-8.8726 F40.00
G01 X5.2961 Y-8.8774 F40.00
G01 X5.2881 Y-8.8834 F40.00
G01 X5.2821 Y-8.8893 F40.00
G01 X5.2349 Y-8.9453 F40.00
G01 X5.2310 Y-8.9507 F40.00
G01 X5.2280 Y-8.9557 F40.00
G01 X5.2277 Y-8.4640 F40.00
G00 Z1.0000
G00 X6.3416 Y-10.2801
G01 F40.00
G01 Z-0.1001
G01 F40.00
G01 X6.3579 Y-10.2921 F40.00
G01 X6.3694 Y-10.2997 F40.00
G01 X6.4316 Y-10.3370 F40.00
G01 X6.4483 Y-10.3460 F40.00
G01 X6.5123 Y-10.3763 F40.00
G01 X6.5244 Y-10.3816 F40.00
G01 X6.6056 Y-10.4107 F40.00
G01 X6.6199 Y-10.4149 F40.00
G01 X6.6875 Y-10.4318 F40.00
G01 X6.6993 Y-10.4344 F40.00
G01 X6.7106 Y-10.4363 F40.00
G01 X6.7767 Y-10.4461 F40.00
G01 X6.7898 Y-10.4477 F40.00
G01 X6.8674 Y-10.4518 F40.00
G01 X6.8812 Y-10.4521 F40.00
G01 X6.8926 Y-10.4518 F40.00
G01 X6.9702 Y-10.4477 F40.00
G01 X6.9833 Y-10.4461 F40.00
G01 X7.0494 Y-10.4363 F40.00
G01 X7.0607 Y-10.4344 F40.00
G01 X7.0725 Y-10.4318 F40.00
G01 X7.1401 Y-10.4149 F40.00
G01 X7.1544 Y-10.4107 F40.00
G01 X7.2356 Y-10.3816 F40.00
G01 X7.2477 Y-10.3763 F40.00
G01 X7.3117 Y-10.3460 F40.00
G01 X7.3284 Y-10.3370 F40.00
G01 X7.3906 Y-10.2997 F40.00
G01 X7.4021 Y-10.2921 F40.00
G01 X7.4184 Y-10.2801 F40.00
G01 X7.4096 Y-10.2934 F40.00
G01 X7.3698 Y-10.3591 F40.00
G01 X7.3613 Y-10.3749 F40.00
G01 X7.3535 Y-10.3924 F40.00
G01 X7.3491 Y-10.4044 F40.00
G01 X7.3457 Y-10.4149 F40.00
G01 X7.3424 Y-10.4273 F40.00
G01 X7.3399 Y-10.4386 F40.00
G01 X7.3381 Y-10.4488 F40.00
G01 X7.3365 Y-10.4615 F40.00
G01 X7.3355 Y-10.4742 F40.00
G01 X7.3351 Y-10.4870 F40.00
G01 X7.3369 Y-10.5650 F40.00
G01 X7.3379 Y-10.5812 F40.00
G01 X7.3394 Y-10.5938 F40.00
G01 X7.3415 Y-10.6064 F40.00
G01 X7.3442 Y-10.6189 F40.00
G01 X7.3478 Y-10.6323 F40.00
G01 X7.3518 Y-10.6444 F40.00
G01 X7.3573 Y-10.6585 F40.00
G01 X7.3631 Y-10.6712 F40.00
G01 X7.3690 Y-10.6825 F40.00
G01 X7.3773 Y-10.6964 F40.00
G01 X7.4184 Y-10.7599 F40.00
G01 X7.4021 Y-10.7479 F40.00
G01 X7.3906 Y-10.7403 F40.00
G01 X7.3284 Y-10.7030 F40.00
G01 X7.3117 Y-10.6940 F40.00
G01 X7.2477 Y-10.6637 F40.00
G01 X7.2356 Y-10.6584 F40.00
G01 X7.1544 Y-10.6293 F40.00
G01 X7.1401 Y-10.6251 F40.00
G01 X7.0725 Y-10.6082 F40.00
G01 X7.0607 Y-10.6056 F40.00
G01 X7.0494 Y-10.6037 F40.00
G01 X6.9839 Y-10.5940 F40.00
G01 X6.9833 Y-10.5939 F40.00
G01 X6.9702 Y-10.5923 F40.00
G01 X6.8926 Y-10.5882 F40.00
G01 X6.8788 Y-10.5879 F40.00
G01 X6.8674 Y-10.5882 F40.00
G01 X6.7898 Y-10.5923 F40.00
G01 X6.7767 Y-10.5939 F40.00
G01 X6.7106 Y-10.6037 F40.00
G01 X6.6993 Y-10.6056 F40.00
G01 X6.6959 Y-10.6063 F40.00
G01 X6.6943 Y-10.6067 F40.00
G01 X6.6931 Y-10.6069 F40.00
G01 X6.6875 Y-10.6082 F40.00
G01 X6.6199 Y-10.6251 F40.00
G01 X6.6056 Y-10.6293 F40.00
G01 X6.5244 Y-10.6584 F40.00
G01 X6.5123 Y-10.6637 F40.00
G01 X6.4483 Y-10.6940 F40.00
G01 X6.4316 Y-10.7030 F40.00
G01 X6.3694 Y-10.7403 F40.00
G01 X6.3579 Y-10.7479 F40.00
G01 X6.3416 Y-10.7599 F40.00
G01 X6.3504 Y-10.7466 F40.00
G01 X6.3902 Y-10.6809 F40.00
G01 X6.3987 Y-10.6651 F40.00
G01 X6.4065 Y-10.6476 F40.00
G01 X6.4104 Y-10.6372 F40.00
G01 X6.4143 Y-10.6251 F40.00
G01 X6.4176 Y-10.6127 F40.00
G01 X6.4201 Y-10.6014 F40.00
G01 X6.4223 Y-10.5888 F40.00
G01 X6.4238 Y-10.5762 F40.00
G01 X6.4247 Y-10.5634 F40.00
G01 X6.4249 Y-10.5530 F40.00
G01 X6.4231 Y-10.4750 F40.00
G01 X6.4221 Y-10.4588 F40.00
G01 X6.4206 Y-10.4462 F40.00
G01 X6.4185 Y-10.4336 F40.00
G01 X6.4158 Y-10.4211 F40.00
G01 X6.4122 Y-10.4077 F40.00
G01 X6.4074 Y-10.3933 F40.00
G01 X6.4027 Y-10.3815 F40.00
G01 X6.3969 Y-10.3688 F40.00
G01 X6.3910 Y-10.3575 F40.00
G01 X6.3827 Y-10.3436 F40.00
G01 X6.3416 Y-10.2801 F40.00
G01 X6.5179 Y-10.4801 F40.00
G01 X6.5677 Y-10.4979 F40.00
G01 X6.5831 Y-10.5029 F40.00
G01 X6.5975 Y-10.5069 F40.00
G01 X6.6498 Y-10.5200 F40.00
G01 X6.5975 Y-10.5331 F40.00
G01 X6.5955 Y-10.5336 F40.00
G01 X6.5936 Y-10.5341 F40.00
G01 X6.5930 Y-10.5343 F40.00
G01 X6.5891 Y-10.5353 F40.00
G01 X6.5831 Y-10.5371 F40.00
G01 X6.5677 Y-10.5421 F40.00
G01 X6.5196 Y-10.5593 F40.00
G01 X6.5195 Y-10.5442 F40.00
G01 X6.5179 Y-10.4801 F40.00
G01 X6.8059 Y-10.6861 F40.00
G01 X6.7912 Y-10.6875 F40.00
G01 X6.7178 Y-10.6985 F40.00
G01 X6.6380 Y-10.7184 F40.00
G01 X6.5606 Y-10.7459 F40.00
G01 X6.4863 Y-10.7810 F40.00
G01 X6.4215 Y-10.8195 F40.00
G01 X6.4138 Y-10.8244 F40.00
G01 X6.3479 Y-10.8735 F40.00
G01 X6.2871 Y-10.9287 F40.00
G01 X6.2379 Y-10.9828 F40.00
G01 X6.2285 Y-10.9941 F40.00
G01 X6.1831 Y-11.0558 F40.00
G01 X6.1449 Y-11.1193 F40.00
G01 X6.1379 Y-11.1324 F40.00
G01 X6.1091 Y-11.1933 F40.00
G01 X6.1035 Y-11.2070 F40.00
G01 X6.0790 Y-11.2758 F40.00
G01 X6.0605 Y-11.3489 F40.00
G01 X6.0575 Y-11.3633 F40.00
G01 X6.0468 Y-11.4368 F40.00
G01 X6.0426 Y-11.5188 F40.00
G01 X6.0466 Y-11.6009 F40.00
G01 X6.0582 Y-11.6806 F40.00
G01 X6.0605 Y-11.6911 F40.00
G01 X6.0766 Y-11.7554 F40.00
G01 X6.0812 Y-11.7706 F40.00
G01 X6.1068 Y-11.8415 F40.00
G01 X6.1410 Y-11.9137 F40.00
G01 X6.1795 Y-11.9785 F40.00
G01 X6.1883 Y-11.9917 F40.00
G01 X6.2335 Y-12.0521 F40.00
G01 X6.2871 Y-12.1113 F40.00
G01 X6.3428 Y-12.1621 F40.00
G01 X6.3551 Y-12.1722 F40.00
G01 X6.4158 Y-12.2169 F40.00
G01 X6.4842 Y-12.2579 F40.00
G01 X6.5523 Y-12.2904 F40.00
G01 X6.5670 Y-12.2965 F40.00
G01 X6.6380 Y-12.3216 F40.00
G01 X6.7139 Y-12.3407 F40.00
G01 X6.7245 Y-12.3426 F40.00
G01 X6.7968 Y-12.3532 F40.00
G01 X6.8788 Y-12.3574 F40.00
G01 X6.9609 Y-12.3534 F40.00
G01 X7.0422 Y-12.3415 F40.00
G01 X7.1220 Y-12.3216 F40.00
G01 X7.1994 Y-12.2941 F40.00
G01 X7.2737 Y-12.2590 F40.00
G01 X7.3442 Y-12.2169 F40.00
G01 X7.4103 Y-12.1680 F40.00
G01 X7.4713 Y-12.1129 F40.00
G01 X7.5265 Y-12.0521 F40.00
G01 X7.5756 Y-11.9862 F40.00
G01 X7.6179 Y-11.9158 F40.00
G01 X7.6532 Y-11.8415 F40.00
G01 X7.6810 Y-11.7642 F40.00
G01 X7.7007 Y-11.6861 F40.00
G01 X7.7026 Y-11.6755 F40.00
G01 X7.7134 Y-11.6009 F40.00
G01 X7.7172 Y-11.5268 F40.00
G01 X7.7172 Y-11.5120 F40.00
G01 X7.7138 Y-11.4447 F40.00
G01 X7.7124 Y-11.4300 F40.00
G01 X7.7015 Y-11.3578 F40.00
G01 X7.6834 Y-11.2846 F40.00
G01 X7.6792 Y-11.2705 F40.00
G01 X7.6541 Y-11.2006 F40.00
G01 X7.6190 Y-11.1263 F40.00
G01 X7.5805 Y-11.0615 F40.00
G01 X7.5756 Y-11.0538 F40.00
G01 X7.5322 Y-10.9951 F40.00
G01 X7.5229 Y-10.9836 F40.00
G01 X7.4768 Y-10.9328 F40.00
G01 X7.4663 Y-10.9224 F40.00
G01 X7.4121 Y-10.8735 F40.00
G01 X7.3517 Y-10.8283 F40.00
G01 X7.3395 Y-10.8201 F40.00
G01 X7.2758 Y-10.7821 F40.00
G01 X7.2015 Y-10.7468 F40.00
G01 X7.1930 Y-10.7435 F40.00
G01 X7.1220 Y-10.7184 F40.00
G01 X7.0500 Y-10.7002 F40.00
G01 X7.0355 Y-10.6974 F40.00
G01 X6.9609 Y-10.6866 F40.00
G01 X6.9541 Y-10.6861 F40.00
G01 X6.8880 Y-10.6828 F40.00
G01 X6.8732 Y-10.6828 F40.00
G01 X6.8059 Y-10.6861 F40.00
G01 X6.8105 Y-10.7807 F40.00
G01 X6.8039 Y-10.7813 F40.00
G01 X6.7351 Y-10.7916 F40.00
G01 X6.6676 Y-10.8084 F40.00
G01 X6.6613 Y-10.8104 F40.00
G01 X6.5958 Y-10.8339 F40.00
G01 X6.5329 Y-10.8635 F40.00
G01 X6.5270 Y-10.8667 F40.00
G01 X6.4674 Y-10.9025 F40.00
G01 X6.4115 Y-10.9439 F40.00
G01 X6.4064 Y-10.9481 F40.00
G01 X6.3549 Y-10.9949 F40.00
G01 X6.3081 Y-11.0464 F40.00
G01 X6.3039 Y-11.0515 F40.00
G01 X6.2625 Y-11.1074 F40.00
G01 X6.2243 Y-11.1714 F40.00
G01 X6.1952 Y-11.2328 F40.00
G01 X6.1927 Y-11.2389 F40.00
G01 X6.1693 Y-11.3044 F40.00
G01 X6.1523 Y-11.3719 F40.00
G01 X6.1511 Y-11.3784 F40.00
G01 X6.1409 Y-11.4472 F40.00
G01 X6.1374 Y-11.5200 F40.00
G01 X6.1409 Y-11.5928 F40.00
G01 X6.1511 Y-11.6616 F40.00
G01 X6.1523 Y-11.6681 F40.00
G01 X6.1693 Y-11.7356 F40.00
G01 X6.1927 Y-11.8011 F40.00
G01 X6.1952 Y-11.8072 F40.00
G01 X6.2243 Y-11.8686 F40.00
G01 X6.2625 Y-11.9326 F40.00
G01 X6.3039 Y-11.9885 F40.00
G01 X6.3081 Y-11.9936 F40.00
G01 X6.3549 Y-12.0451 F40.00
G01 X6.4064 Y-12.0919 F40.00
G01 X6.4115 Y-12.0961 F40.00
G01 X6.4674 Y-12.1375 F40.00
G01 X6.5270 Y-12.1733 F40.00
G01 X6.5329 Y-12.1765 F40.00
G01 X6.5958 Y-12.2061 F40.00
G01 X6.6613 Y-12.2296 F40.00
G01 X6.6676 Y-12.2316 F40.00
G01 X6.7351 Y-12.2484 F40.00
G01 X6.8039 Y-12.2587 F40.00
G01 X6.8105 Y-12.2593 F40.00
G01 X6.8800 Y-12.2626 F40.00
G01 X6.9495 Y-12.2593 F40.00
G01 X6.9561 Y-12.2587 F40.00
G01 X7.0249 Y-12.2484 F40.00
G01 X7.0924 Y-12.2316 F40.00
G01 X7.0987 Y-12.2296 F40.00
G01 X7.1642 Y-12.2061 F40.00
G01 X7.2271 Y-12.1765 F40.00
G01 X7.2330 Y-12.1733 F40.00
G01 X7.2926 Y-12.1375 F40.00
G01 X7.3485 Y-12.0961 F40.00
G01 X7.3536 Y-12.0919 F40.00
G01 X7.4051 Y-12.0451 F40.00
G01 X7.4519 Y-11.9936 F40.00
G01 X7.4561 Y-11.9885 F40.00
G01 X7.4975 Y-11.9326 F40.00
G01 X7.5333 Y-11.8730 F40.00
G01 X7.5365 Y-11.8671 F40.00
G01 X7.5661 Y-11.8042 F40.00
G01 X7.5907 Y-11.7356 F40.00
G01 X7.6077 Y-11.6681 F40.00
G01 X7.6089 Y-11.6616 F40.00
G01 X7.6191 Y-11.5928 F40.00
G01 X7.6226 Y-11.5233 F40.00
G01 X7.6226 Y-11.5167 F40.00
G01 X7.6191 Y-11.4472 F40.00
G01 X7.6089 Y-11.3784 F40.00
G01 X7.6077 Y-11.3719 F40.00
G01 X7.5907 Y-11.3044 F40.00
G01 X7.5673 Y-11.2389 F40.00
G01 X7.5648 Y-11.2328 F40.00
G01 X7.5365 Y-11.1729 F40.00
G01 X7.5333 Y-11.1670 F40.00
G01 X7.4975 Y-11.1074 F40.00
G01 X7.4561 Y-11.0515 F40.00
G01 X7.4519 Y-11.0464 F40.00
G01 X7.4051 Y-10.9949 F40.00
G01 X7.3511 Y-10.9459 F40.00
G01 X7.2953 Y-10.9044 F40.00
G01 X7.2898 Y-10.9007 F40.00
G01 X7.2301 Y-10.8650 F40.00
G01 X7.1672 Y-10.8352 F40.00
G01 X7.1611 Y-10.8327 F40.00
G01 X7.0956 Y-10.8093 F40.00
G01 X7.0249 Y-10.7916 F40.00
G01 X6.9561 Y-10.7813 F40.00
G01 X6.9495 Y-10.7807 F40.00
G01 X6.8800 Y-10.7774 F40.00
G01 X6.8105 Y-10.7807 F40.00
G01 X7.1102 Y-10.5200 F40.00
G01 X7.1625 Y-10.5069 F40.00
G01 X7.1769 Y-10.5029 F40.00
G01 X7.1923 Y-10.4979 F40.00
G01 X7.2404 Y-10.4807 F40.00
G01 X7.2405 Y-10.4958 F40.00
G01 X7.2421 Y-10.5599 F40.00
G01 X7.1923 Y-10.5421 F40.00
G01 X7.1769 Y-10.5371 F40.00
G01 X7.1625 Y-10.5331 F40.00
G01 X7.1102 Y-10.5200 F40.00
G00 Z1.0000
G00 X7.5646 Y-12.1514
G01 F40.00
G01 Z-0.1001
G01 F40.00
G01 X7.5345 Y-12.2310 F40.00
G01 X7.5290 Y-12.2493 F40.00
G01 X7.5252 Y-12.2657 F40.00
G01 X7.5233 Y-12.2771 F40.00
G01 X7.5217 Y-12.2898 F40.00
G01 X7.5209 Y-12.3008 F40.00
G01 X7.5205 Y-12.3124 F40.00
G01 X7.5206 Y-12.3228 F40.00
G01 X7.5213 Y-12.3356 F40.00
G01 X7.5225 Y-12.3471 F40.00
G01 X7.5245 Y-12.3597 F40.00
G01 X7.5407 Y-12.4366 F40.00
G01 X7.5440 Y-12.4503 F40.00
G01 X7.5477 Y-12.4627 F40.00
G01 X7.5520 Y-12.4748 F40.00
G01 X7.5560 Y-12.4846 F40.00
G01 X7.5614 Y-12.4963 F40.00
G01 X7.5668 Y-12.5067 F40.00
G01 X7.5732 Y-12.5179 F40.00
G01 X7.5803 Y-12.5287 F40.00
G01 X7.5879 Y-12.5391 F40.00
G01 X7.5963 Y-12.5496 F40.00
G01 X7.6323 Y-12.5913 F40.00
G01 X7.6438 Y-12.6037 F40.00
G01 X7.6224 Y-12.5969 F40.00
G01 X7.6012 Y-12.5921 F40.00
G01 X7.5790 Y-12.5891 F40.00
G01 X7.5573 Y-12.5879 F40.00
G01 X6.2050 Y-12.5879 F40.00
G01 X6.1935 Y-12.5882 F40.00
G01 X6.1821 Y-12.5890 F40.00
G01 X6.1599 Y-12.5919 F40.00
G01 X6.1498 Y-12.5939 F40.00
G01 X6.1376 Y-12.5969 F40.00
G01 X6.1162 Y-12.6037 F40.00
G01 X6.1281 Y-12.5908 F40.00
G01 X6.1386 Y-12.5778 F40.00
G01 X6.1832 Y-12.5182 F40.00
G01 X6.1904 Y-12.5077 F40.00
G01 X6.1971 Y-12.4968 F40.00
G01 X6.2025 Y-12.4871 F40.00
G01 X6.2076 Y-12.4767 F40.00
G01 X6.2161 Y-12.4564 F40.00
G01 X6.2197 Y-12.4460 F40.00
G01 X6.2230 Y-12.4349 F40.00
G01 X6.2256 Y-12.4247 F40.00
G01 X6.2281 Y-12.4122 F40.00
G01 X6.2299 Y-12.4008 F40.00
G01 X6.2311 Y-12.3898 F40.00
G01 X6.2367 Y-12.3108 F40.00
G01 X6.2370 Y-12.2991 F40.00
G01 X6.2368 Y-12.2879 F40.00
G01 X6.2350 Y-12.2657 F40.00
G01 X6.2327 Y-12.2506 F40.00
G01 X6.2300 Y-12.2380 F40.00
G01 X6.2267 Y-12.2255 F40.00
G01 X6.2228 Y-12.2133 F40.00
G01 X6.2152 Y-12.1941 F40.00
G01 X6.1959 Y-12.1519 F40.00
G01 X6.2149 Y-12.1729 F40.00
G01 X6.2246 Y-12.1827 F40.00
G01 X6.2830 Y-12.2357 F40.00
G01 X6.2973 Y-12.2472 F40.00
G01 X6.3579 Y-12.2921 F40.00
G01 X6.3723 Y-12.3014 F40.00
G01 X6.4396 Y-12.3415 F40.00
G01 X6.4519 Y-12.3477 F40.00
G01 X6.5186 Y-12.3791 F40.00
G01 X6.5345 Y-12.3855 F40.00
G01 X6.6083 Y-12.4116 F40.00
G01 X6.6216 Y-12.4153 F40.00
G01 X6.6970 Y-12.4339 F40.00
G01 X6.7106 Y-12.4363 F40.00
G01 X6.7875 Y-12.4475 F40.00
G01 X6.8012 Y-12.4485 F40.00
G01 X6.8680 Y-12.4518 F40.00
G01 X6.8812 Y-12.4521 F40.00
G01 X6.9588 Y-12.4485 F40.00
G01 X6.9725 Y-12.4475 F40.00
G01 X7.0494 Y-12.4363 F40.00
G01 X7.0630 Y-12.4339 F40.00
G01 X7.1384 Y-12.4153 F40.00
G01 X7.1517 Y-12.4116 F40.00
G01 X7.2255 Y-12.3855 F40.00
G01 X7.2414 Y-12.3791 F40.00
G01 X7.3086 Y-12.3474 F40.00
G01 X7.3214 Y-12.3409 F40.00
G01 X7.3877 Y-12.3014 F40.00
G01 X7.4040 Y-12.2907 F40.00
G01 X7.4627 Y-12.2472 F40.00
G01 X7.4655 Y-12.2452 F40.00
G01 X7.4673 Y-12.2437 F40.00
G01 X7.4682 Y-12.2430 F40.00
G01 X7.4695 Y-12.2420 F40.00
G01 X7.4770 Y-12.2357 F40.00
G01 X7.5354 Y-12.1827 F40.00
G01 X7.5451 Y-12.1729 F40.00
G01 X7.5646 Y-12.1514 F40.00
G01 X7.2054 Y-12.4932 F40.00
G01 X7.2590 Y-12.4740 F40.00
G01 X7.2745 Y-12.4679 F40.00
G01 X7.2879 Y-12.4620 F40.00
G01 X7.3494 Y-12.4329 F40.00
G01 X7.3615 Y-12.4269 F40.00
G01 X7.3741 Y-12.4199 F40.00
G01 X7.4328 Y-12.3848 F40.00
G01 X7.4493 Y-12.4621 F40.00
G01 X7.4531 Y-12.4770 F40.00
G01 X7.4580 Y-12.4932 F40.00
G01 X7.2054 Y-12.4932 F40.00
G01 X6.3035 Y-12.4932 F40.00
G01 X6.3080 Y-12.4808 F40.00
G01 X6.3124 Y-12.4668 F40.00
G01 X6.3159 Y-12.4539 F40.00
G01 X6.3193 Y-12.4392 F40.00
G01 X6.3219 Y-12.4254 F40.00
G01 X6.3238 Y-12.4128 F40.00
G01 X6.3264 Y-12.3844 F40.00
G01 X6.3859 Y-12.4199 F40.00
G01 X6.3985 Y-12.4269 F40.00
G01 X6.4106 Y-12.4329 F40.00
G01 X6.4721 Y-12.4620 F40.00
G01 X6.4855 Y-12.4679 F40.00
G01 X6.5010 Y-12.4740 F40.00
G01 X6.5546 Y-12.4932 F40.00
G01 X6.3035 Y-12.4932 F40.00
G00 Z1.0000
G00 X6.1374 Y-14.1950
G01 F40.00
G01 Z-0.1001
G01 F40.00
G01 X6.1383 Y-14.2066 F40.00
G01 X6.1398 Y-14.2130 F40.00
G01 X6.1419 Y-14.2193 F40.00
G01 X6.1446 Y-14.2254 F40.00
G01 X6.1478 Y-14.2312 F40.00
G01 X6.1517 Y-14.2366 F40.00
G01 X6.1560 Y-14.2416 F40.00
G01 X6.1608 Y-14.2462 F40.00
G01 X6.1660 Y-14.2503 F40.00
G01 X6.1717 Y-14.2539 F40.00
G01 X6.1776 Y-14.2568 F40.00
G01 X6.1838 Y-14.2592 F40.00
G01 X6.1902 Y-14.2610 F40.00
G01 X6.1967 Y-14.2621 F40.00
G01 X6.2033 Y-14.2626 F40.00
G01 X7.5567 Y-14.2626 F40.00
G01 X7.5633 Y-14.2621 F40.00
G01 X7.5698 Y-14.2610 F40.00
G01 X7.5809 Y-14.2575 F40.00
G01 X7.5869 Y-14.2547 F40.00
G01 X7.5926 Y-14.2512 F40.00
G01 X7.5979 Y-14.2473 F40.00
G01 X7.6028 Y-14.2428 F40.00
G01 X7.6073 Y-14.2379 F40.00
G01 X7.6112 Y-14.2326 F40.00
G01 X7.6147 Y-14.2269 F40.00
G01 X7.6175 Y-14.2209 F40.00
G01 X7.6210 Y-14.2098 F40.00
G01 X7.6221 Y-14.2033 F40.00
G01 X7.6226 Y-14.1967 F40.00
G01 X7.6226 Y-12.8433 F40.00
G01 X7.6221 Y-12.8367 F40.00
G01 X7.6210 Y-12.8302 F40.00
G01 X7.6175 Y-12.8191 F40.00
G01 X7.6147 Y-12.8131 F40.00
G01 X7.6112 Y-12.8074 F40.00
G01 X7.6040 Y-12.7984 F40.00
G01 X7.5953 Y-12.7907 F40.00
G01 X7.5898 Y-12.7870 F40.00
G01 X7.5839 Y-12.7838 F40.00
G01 X7.5778 Y-12.7813 F40.00
G01 X7.5714 Y-12.7794 F40.00
G01 X7.5600 Y-12.7775 F40.00
G01 X6.2033 Y-12.7774 F40.00
G01 X6.1967 Y-12.7779 F40.00
G01 X6.1902 Y-12.7790 F40.00
G01 X6.1791 Y-12.7825 F40.00
G01 X6.1731 Y-12.7853 F40.00
G01 X6.1674 Y-12.7888 F40.00
G01 X6.1584 Y-12.7960 F40.00
G01 X6.1538 Y-12.8008 F40.00
G01 X6.1497 Y-12.8060 F40.00
G01 X6.1461 Y-12.8117 F40.00
G01 X6.1432 Y-12.8176 F40.00
G01 X6.1408 Y-12.8238 F40.00
G01 X6.1390 Y-12.8302 F40.00
G01 X6.1379 Y-12.8367 F40.00
G01 X6.1374 Y-12.8433 F40.00
G01 X6.1374 Y-14.1950 F40.00
G01 X6.0426 Y-14.1950 F40.00
G01 X6.0430 Y-14.2058 F40.00
G01 X6.0446 Y-14.2200 F40.00
G01 X6.0472 Y-14.2333 F40.00
G01 X6.0517 Y-14.2486 F40.00
G01 X6.0570 Y-14.2619 F40.00
G01 X6.0632 Y-14.2740 F40.00
G01 X6.0707 Y-14.2862 F40.00
G01 X6.0802 Y-14.2989 F40.00
G01 X6.0894 Y-14.3090 F40.00
G01 X6.0998 Y-14.3187 F40.00
G01 X6.1125 Y-14.3284 F40.00
G01 X6.1240 Y-14.3357 F40.00
G01 X6.1381 Y-14.3430 F40.00
G01 X6.1514 Y-14.3483 F40.00
G01 X6.1667 Y-14.3528 F40.00
G01 X6.1800 Y-14.3554 F40.00
G01 X6.1942 Y-14.3570 F40.00
G01 X6.2050 Y-14.3574 F40.00
G01 X7.5601 Y-14.3573 F40.00
G01 X7.5760 Y-14.3560 F40.00
G01 X7.5894 Y-14.3537 F40.00
G01 X7.6032 Y-14.3500 F40.00
G01 X7.6182 Y-14.3445 F40.00
G01 X7.6326 Y-14.3376 F40.00
G01 X7.6442 Y-14.3306 F40.00
G01 X7.6558 Y-14.3223 F40.00
G01 X7.6678 Y-14.3118 F40.00
G01 X7.6787 Y-14.3002 F40.00
G01 X7.6884 Y-14.2875 F40.00
G01 X7.6976 Y-14.2726 F40.00
G01 X7.7045 Y-14.2582 F40.00
G01 X7.7100 Y-14.2432 F40.00
G01 X7.7140 Y-14.2278 F40.00
G01 X7.7165 Y-14.2121 F40.00
G01 X7.7174 Y-14.1950 F40.00
G01 X7.7173 Y-12.8399 F40.00
G01 X7.7163 Y-12.8263 F40.00
G01 X7.7137 Y-12.8106 F40.00
G01 X7.7095 Y-12.7952 F40.00
G01 X7.7045 Y-12.7818 F40.00
G01 X7.6987 Y-12.7695 F40.00
G01 X7.6906 Y-12.7558 F40.00
G01 X7.6823 Y-12.7442 F40.00
G01 X7.6718 Y-12.7322 F40.00
G01 X7.6602 Y-12.7213 F40.00
G01 X7.6462 Y-12.7107 F40.00
G01 X7.6326 Y-12.7024 F40.00
G01 X7.6182 Y-12.6955 F40.00
G01 X7.6032 Y-12.6900 F40.00
G01 X7.5878 Y-12.6860 F40.00
G01 X7.5721 Y-12.6835 F40.00
G01 X7.5550 Y-12.6826 F40.00
G01 X6.1999 Y-12.6827 F40.00
G01 X6.1863 Y-12.6837 F40.00
G01 X6.1722 Y-12.6860 F40.00
G01 X6.1590 Y-12.6893 F40.00
G01 X6.1455 Y-12.6939 F40.00
G01 X6.1330 Y-12.6995 F40.00
G01 X6.1205 Y-12.7063 F40.00
G01 X6.1092 Y-12.7139 F40.00
G01 X6.0968 Y-12.7239 F40.00
G01 X6.0855 Y-12.7351 F40.00
G01 X6.0753 Y-12.7474 F40.00
G01 X6.0707 Y-12.7538 F40.00
G01 X6.0651 Y-12.7625 F40.00
G01 X6.0577 Y-12.7766 F40.00
G01 X6.0517 Y-12.7914 F40.00
G01 X6.0472 Y-12.8067 F40.00
G01 X6.0442 Y-12.8223 F40.00
G01 X6.0428 Y-12.8382 F40.00
G01 X6.0426 Y-14.1950 F40.00
G00 Z1.0000
G00 X8.6464 Y-17.6232
G01 F40.00
G01 Z-0.1001
G01 F40.00
G01 X8.5125 Y-17.4893 F40.00
G01 X8.5281 Y-17.4798 F40.00
G01 X8.7299 Y-17.3962 F40.00
G01 X8.9423 Y-17.3452 F40.00
G01 X9.1600 Y-17.3281 F40.00
G01 X9.3777 Y-17.3452 F40.00
G01 X9.5901 Y-17.3962 F40.00
G01 X9.7919 Y-17.4798 F40.00
G01 X9.8075 Y-17.4893 F40.00
G01 X9.6736 Y-17.6232 F40.00
G01 X9.6302 Y-17.6027 F40.00
G01 X9.6213 Y-17.5989 F40.00
G01 X9.5195 Y-17.5623 F40.00
G01 X9.5092 Y-17.5591 F40.00
G01 X9.3954 Y-17.5307 F40.00
G01 X9.2816 Y-17.5138 F40.00
G01 X9.2709 Y-17.5129 F40.00
G01 X9.1680 Y-17.5078 F40.00
G01 X9.1520 Y-17.5078 F40.00
G01 X9.0400 Y-17.5136 F40.00
G01 X8.9313 Y-17.5296 F40.00
G01 X8.9223 Y-17.5312 F40.00
G01 X8.8158 Y-17.5577 F40.00
G01 X8.8032 Y-17.5614 F40.00
G01 X8.6987 Y-17.5989 F40.00
G01 X8.6898 Y-17.6027 F40.00
G01 X8.6464 Y-17.6232 F40.00
G01 X8.6271 Y-17.7379 F40.00
G01 X8.3606 Y-17.4713 F40.00
G01 X8.4849 Y-17.3951 F40.00
G01 X8.7005 Y-17.3058 F40.00
G01 X8.9274 Y-17.2514 F40.00
G01 X9.1600 Y-17.2331 F40.00
G01 X9.3926 Y-17.2514 F40.00
G01 X9.6195 Y-17.3058 F40.00
G01 X9.8351 Y-17.3951 F40.00
G01 X9.9594 Y-17.4713 F40.00
G01 X9.6929 Y-17.7379 F40.00
G01 X9.6839 Y-17.7328 F40.00
G01 X9.5877 Y-17.6874 F40.00
G01 X9.4876 Y-17.6515 F40.00
G01 X9.4812 Y-17.6496 F40.00
G01 X9.3780 Y-17.6238 F40.00
G01 X9.2728 Y-17.6081 F40.00
G01 X9.2662 Y-17.6075 F40.00
G01 X9.1600 Y-17.6024 F40.00
G01 X9.0538 Y-17.6075 F40.00
G01 X9.0472 Y-17.6081 F40.00
G01 X8.9420 Y-17.6238 F40.00
G01 X8.8388 Y-17.6496 F40.00
G01 X8.8324 Y-17.6515 F40.00
G01 X8.7323 Y-17.6874 F40.00
G01 X8.6361 Y-17.7328 F40.00
G01 X8.6271 Y-17.7379 F40.00
G00 Z1.0000
G00 X7.7681 Y-18.7200
G01 F40.00
G01 Z-0.1001
G01 F40.00
G01 X7.7852 Y-18.9377 F40.00
G01 X7.8362 Y-19.1501 F40.00
G01 X7.9198 Y-19.3519 F40.00
G01 X7.9293 Y-19.3675 F40.00
G01 X8.0632 Y-19.2336 F40.00
G01 X8.0427 Y-19.1902 F40.00
G01 X8.0389 Y-19.1813 F40.00
G01 X8.0014 Y-19.0768 F40.00
G01 X7.9977 Y-19.0642 F40.00
G01 X7.9720 Y-18.9616 F40.00
G01 X7.9696 Y-18.9487 F40.00
G01 X7.9536 Y-18.8400 F40.00
G01 X7.9529 Y-18.8309 F40.00
G01 X7.9476 Y-18.7212 F40.00
G01 X7.9529 Y-18.6091 F40.00
G01 X7.9536 Y-18.6000 F40.00
G01 X7.9696 Y-18.4913 F40.00
G01 X7.9715 Y-18.4807 F40.00
G01 X7.9977 Y-18.3758 F40.00
G01 X8.0014 Y-18.3632 F40.00
G01 X8.0389 Y-18.2587 F40.00
G01 X8.0427 Y-18.2498 F40.00
G01 X8.0632 Y-18.2064 F40.00
G01 X7.9293 Y-18.0725 F40.00
G01 X7.9198 Y-18.0881 F40.00
G01 X7.8362 Y-18.2899 F40.00
G01 X7.7852 Y-18.5023 F40.00
G01 X7.7681 Y-18.7200 F40.00
G01 X7.6731 Y-18.7200 F40.00
G01 X7.6914 Y-18.9526 F40.00
G01 X7.7458 Y-19.1795 F40.00
G01 X7.8351 Y-19.3951 F40.00
G01 X7.9113 Y-19.5194 F40.00
G01 X8.1779 Y-19.2529 F40.00
G01 X8.1728 Y-19.2439 F40.00
G01 X8.1274 Y-19.1477 F40.00
G01 X8.0915 Y-19.0476 F40.00
G01 X8.0896 Y-19.0412 F40.00
G01 X8.0638 Y-18.9380 F40.00
G01 X8.0481 Y-18.8328 F40.00
G01 X8.0475 Y-18.8262 F40.00
G01 X8.0424 Y-18.7200 F40.00
G01 X8.0475 Y-18.6138 F40.00
G01 X8.0481 Y-18.6072 F40.00
G01 X8.0638 Y-18.5020 F40.00
G01 X8.0896 Y-18.3988 F40.00
G01 X8.0915 Y-18.3924 F40.00
G01 X8.1274 Y-18.2923 F40.00
G01 X8.1728 Y-18.1961 F40.00
G01 X8.1779 Y-18.1871 F40.00
G01 X7.9113 Y-17.9206 F40.00
G01 X7.8351 Y-18.0449 F40.00
G01 X7.7458 Y-18.2605 F40.00
G01 X7.6914 Y-18.4874 F40.00
G01 X7.6731 Y-18.7200 F40.00
G00 Z1.0000
G00 X8.6464 Y-19.8168
G01 F40.00
G01 Z-0.1001
G01 F40.00
G01 X8.6898 Y-19.8373 F40.00
G01 X8.6987 Y-19.8411 F40.00
G01 X8.8032 Y-19.8786 F40.00
G01 X8.8158 Y-19.8823 F40.00
G01 X8.9184 Y-19.9080 F40.00
G01 X8.9313 Y-19.9104 F40.00
G01 X9.0400 Y-19.9264 F40.00
G01 X9.0491 Y-19.9271 F40.00
G01 X9.1588 Y-19.9324 F40.00
G01 X9.1680 Y-19.9322 F40.00
G01 X9.2800 Y-19.9264 F40.00
G01 X9.3887 Y-19.9104 F40.00
G01 X9.3993 Y-19.9085 F40.00
G01 X9.5042 Y-19.8823 F40.00
G01 X9.5168 Y-19.8786 F40.00
G01 X9.6213 Y-19.8411 F40.00
G01 X9.6302 Y-19.8373 F40.00
G01 X9.6736 Y-19.8168 F40.00
G01 X9.8075 Y-19.9507 F40.00
G01 X9.7919 Y-19.9602 F40.00
G01 X9.5901 Y-20.0438 F40.00
G01 X9.3777 Y-20.0948 F40.00
G01 X9.1600 Y-20.1119 F40.00
G01 X8.9423 Y-20.0948 F40.00
G01 X8.7299 Y-20.0438 F40.00
G01 X8.5281 Y-19.9602 F40.00
G01 X8.5125 Y-19.9507 F40.00
G01 X8.6464 Y-19.8168 F40.00
G00 Z1.0000
G00 X9.6929 Y-19.7021
G01 F40.00
G01 Z-0.1001
G01 F40.00
G01 X9.9594 Y-19.9687 F40.00
G01 X9.8351 Y-20.0449 F40.00
G01 X9.6195 Y-20.1342 F40.00
G01 X9.3926 Y-20.1886 F40.00
G01 X9.1600 Y-20.2069 F40.00
G01 X8.9274 Y-20.1886 F40.00
G01 X8.7005 Y-20.1342 F40.00
G01 X8.4849 Y-20.0449 F40.00
G01 X8.3606 Y-19.9687 F40.00
G01 X8.6271 Y-19.7021 F40.00
G01 X8.6361 Y-19.7072 F40.00
G01 X8.7323 Y-19.7526 F40.00
G01 X8.8324 Y-19.7885 F40.00
G01 X8.8388 Y-19.7904 F40.00
G01 X8.9420 Y-19.8162 F40.00
G01 X9.0472 Y-19.8319 F40.00
G01 X9.0538 Y-19.8325 F40.00
G01 X9.1600 Y-19.8376 F40.00
G01 X9.2662 Y-19.8325 F40.00
G01 X9.2728 Y-19.8319 F40.00
G01 X9.3780 Y-19.8162 F40.00
G01 X9.4812 Y-19.7904 F40.00
G01 X9.4876 Y-19.7885 F40.00
G01 X9.5877 Y-19.7526 F40.00
G01 X9.6839 Y-19.7072 F40.00
G01 X9.6929 Y-19.7021 F40.00
G00 Z1.0000
G00 X10.1421 Y-18.1871
G01 F40.00
G01 Z-0.1001
G01 F40.00
G01 X10.4087 Y-17.9206 F40.00
G01 X10.4849 Y-18.0449 F40.00
G01 X10.5742 Y-18.2605 F40.00
G01 X10.6286 Y-18.4874 F40.00
G01 X10.6469 Y-18.7200 F40.00
G01 X10.6286 Y-18.9526 F40.00
G01 X10.5742 Y-19.1795 F40.00
G01 X10.4849 Y-19.3951 F40.00
G01 X10.4087 Y-19.5194 F40.00
G01 X10.1421 Y-19.2529 F40.00
G01 X10.1472 Y-19.2439 F40.00
G01 X10.1926 Y-19.1477 F40.00
G01 X10.2285 Y-19.0476 F40.00
G01 X10.2304 Y-19.0412 F40.00
G01 X10.2562 Y-18.9380 F40.00
G01 X10.2719 Y-18.8328 F40.00
G01 X10.2725 Y-18.8262 F40.00
G01 X10.2776 Y-18.7200 F40.00
G01 X10.2725 Y-18.6138 F40.00
G01 X10.2719 Y-18.6072 F40.00
G01 X10.2562 Y-18.5020 F40.00
G01 X10.2304 Y-18.3988 F40.00
G01 X10.2285 Y-18.3924 F40.00
G01 X10.1926 Y-18.2923 F40.00
G01 X10.1472 Y-18.1961 F40.00
G01 X10.1421 Y-18.1871 F40.00
G01 X10.2568 Y-18.2064 F40.00
G01 X10.3907 Y-18.0725 F40.00
G01 X10.4002 Y-18.0881 F40.00
G01 X10.4838 Y-18.2899 F40.00
G01 X10.5348 Y-18.5023 F40.00
G01 X10.5519 Y-18.7200 F40.00
G01 X10.5348 Y-18.9377 F40.00
G01 X10.4838 Y-19.1501 F40.00
G01 X10.4002 Y-19.3519 F40.00
G01 X10.3907 Y-19.3675 F40.00
G01 X10.2568 Y-19.2336 F40.00
G01 X10.2773 Y-19.1902 F40.00
G01 X10.2811 Y-19.1813 F40.00
G01 X10.3186 Y-19.0768 F40.00
G01 X10.3223 Y-19.0642 F40.00
G01 X10.3480 Y-18.9616 F40.00
G01 X10.3504 Y-18.9487 F40.00
G01 X10.3664 Y-18.8400 F40.00
G01 X10.3671 Y-18.8309 F40.00
G01 X10.3724 Y-18.7212 F40.00
G01 X10.3671 Y-18.6091 F40.00
G01 X10.3664 Y-18.6000 F40.00
G01 X10.3504 Y-18.4913 F40.00
G01 X10.3485 Y-18.4807 F40.00
G01 X10.3223 Y-18.3758 F40.00
G01 X10.3186 Y-18.3632 F40.00
G01 X10.2811 Y-18.2587 F40.00
G01 X10.2773 Y-18.2498 F40.00
G01 X10.2568 Y-18.2064 F40.00
G00 Z1.0000
G00 X11.3337 Y-16.0772
G01 F40.00
G01 Z-0.1001
G01 F40.00
G01 X11.2972 Y-16.0406 F40.00
G01 X11.2972 Y-15.9722 F40.00
G01 X11.3137 Y-16.0285 F40.00
G01 X11.3178 Y-16.0411 F40.00
G01 X11.3252 Y-16.0597 F40.00
G01 X11.3337 Y-16.0772 F40.00
G00 Z1.0000
G00 X11.2972 Y-8.8652
G01 F40.00
G01 Z-0.1001
G01 F40.00
G01 X11.2972 Y-8.5828 F40.00
G01 X11.3103 Y-8.5853 F40.00
G01 X11.3236 Y-8.5872 F40.00
G01 X11.3380 Y-8.5883 F40.00
G01 X11.3503 Y-8.5887 F40.00
G01 X11.5937 Y-8.5856 F40.00
G01 X11.5156 Y-8.6096 F40.00
G01 X11.5014 Y-8.6148 F40.00
G01 X11.4870 Y-8.6210 F40.00
G01 X11.4690 Y-8.6303 F40.00
G01 X11.4508 Y-8.6417 F40.00
G01 X11.4345 Y-8.6539 F40.00
G01 X11.4200 Y-8.6665 F40.00
G01 X11.4109 Y-8.6754 F40.00
G01 X11.4023 Y-8.6849 F40.00
G01 X11.3535 Y-8.7427 F40.00
G01 X11.3422 Y-8.7572 F40.00
G01 X11.3329 Y-8.7711 F40.00
G01 X11.3271 Y-8.7810 F40.00
G01 X11.3211 Y-8.7922 F40.00
G01 X11.3157 Y-8.8037 F40.00
G01 X11.3109 Y-8.8154 F40.00
G01 X11.3067 Y-8.8274 F40.00
G01 X11.3030 Y-8.8395 F40.00
G01 X11.2972 Y-8.8652 F40.00
G00 Z1.0000
G00 X10.0777 Y-8.6051
G01 F40.00
G01 Z-0.1001
G01 F40.00
G01 X10.3354 Y-8.6018 F40.00
G01 X10.3464 Y-8.6012 F40.00
G01 X10.3590 Y-8.6000 F40.00
G01 X10.3714 Y-8.5982 F40.00
G01 X10.3828 Y-8.5960 F40.00
G01 X10.3828 Y-8.8946 F40.00
G01 X10.3633 Y-8.8290 F40.00
G01 X10.3572 Y-8.8127 F40.00
G01 X10.3492 Y-8.7953 F40.00
G01 X10.3384 Y-8.7761 F40.00
G01 X10.3321 Y-8.7664 F40.00
G01 X10.3256 Y-8.7573 F40.00
G01 X10.3117 Y-8.7403 F40.00
G01 X10.2967 Y-8.7249 F40.00
G01 X10.2882 Y-8.7171 F40.00
G01 X10.2276 Y-8.6649 F40.00
G01 X10.2098 Y-8.6519 F40.00
G01 X10.1906 Y-8.6402 F40.00
G01 X10.1796 Y-8.6345 F40.00
G01 X10.1683 Y-8.6293 F40.00
G01 X10.1547 Y-8.6239 F40.00
G01 X10.1429 Y-8.6200 F40.00
G01 X10.1239 Y-8.6149 F40.00
G01 X10.0777 Y-8.6051 F40.00
G00 Z1.0000
G00 X10.3055 Y-7.1521
G01 F40.00
G01 Z-0.1001
G01 F40.00
G01 X10.3181 Y-7.1457 F40.00
G01 X10.3316 Y-7.1372 F40.00
G01 X10.3442 Y-7.1275 F40.00
G01 X10.3558 Y-7.1166 F40.00
G01 X10.3663 Y-7.1046 F40.00
G01 X10.3746 Y-7.0930 F40.00
G01 X10.3816 Y-7.0813 F40.00
G01 X10.3902 Y-7.0642 F40.00
G01 X10.3953 Y-7.0516 F40.00
G01 X10.4000 Y-7.0364 F40.00
G01 X10.4030 Y-7.0224 F40.00
G01 X10.4046 Y-7.0089 F40.00
G01 X10.4051 Y-6.9930 F40.00
G01 X10.4042 Y-6.9788 F40.00
G01 X10.4021 Y-6.9653 F40.00
G01 X10.3988 Y-6.9514 F40.00
G01 X10.6437 Y-7.1963 F40.00
G01 X10.6649 Y-7.2158 F40.00
G01 X10.6741 Y-7.2234 F40.00
G01 X10.6977 Y-7.2407 F40.00
G01 X10.7222 Y-7.2557 F40.00
G01 X10.7337 Y-7.2620 F40.00
G01 X10.7587 Y-7.2738 F40.00
G01 X10.7687 Y-7.2777 F40.00
G01 X10.7975 Y-7.2876 F40.00
G01 X10.8265 Y-7.2949 F40.00
G01 X10.8445 Y-7.2979 F40.00
G01 X10.8319 Y-7.3043 F40.00
G01 X10.8184 Y-7.3128 F40.00
G01 X10.8058 Y-7.3225 F40.00
G01 X10.7942 Y-7.3334 F40.00
G01 X10.7837 Y-7.3454 F40.00
G01 X10.7754 Y-7.3570 F40.00
G01 X10.7684 Y-7.3687 F40.00
G01 X10.7598 Y-7.3858 F40.00
G01 X10.7547 Y-7.3984 F40.00
G01 X10.7504 Y-7.4120 F40.00
G01 X10.7470 Y-7.4276 F40.00
G01 X10.7454 Y-7.4411 F40.00
G01 X10.7449 Y-7.4554 F40.00
G01 X10.7456 Y-7.4690 F40.00
G01 X10.7476 Y-7.4831 F40.00
G01 X10.7512 Y-7.4986 F40.00
G01 X10.5063 Y-7.2537 F40.00
G01 X10.4851 Y-7.2342 F40.00
G01 X10.4759 Y-7.2266 F40.00
G01 X10.4523 Y-7.2093 F40.00
G01 X10.4278 Y-7.1943 F40.00
G01 X10.4163 Y-7.1880 F40.00
G01 X10.3913 Y-7.1762 F40.00
G01 X10.3774 Y-7.1709 F40.00
G01 X10.3525 Y-7.1624 F40.00
G01 X10.3235 Y-7.1551 F40.00
G01 X10.3055 Y-7.1521 F40.00
G00 Z1.0000
G00 X10.3324 Y-4.2200
G01 F40.00
G01 Z-0.1001
G01 F40.00
G01 X10.3513 Y-3.9685 F40.00
G01 X10.4074 Y-3.7226 F40.00
G01 X10.4996 Y-3.4878 F40.00
G01 X10.6257 Y-3.2694 F40.00
G01 X10.7829 Y-3.0722 F40.00
G01 X10.9678 Y-2.9006 F40.00
G01 X11.1762 Y-2.7585 F40.00
G01 X11.4035 Y-2.6491 F40.00
G01 X11.6445 Y-2.5747 F40.00
G01 X11.8939 Y-2.5371 F40.00
G01 X12.1461 Y-2.5371 F40.00
G01 X12.3955 Y-2.5747 F40.00
G01 X12.6365 Y-2.6491 F40.00
G01 X12.8638 Y-2.7585 F40.00
G01 X13.0722 Y-2.9006 F40.00
G01 X13.2571 Y-3.0722 F40.00
G01 X13.4143 Y-3.2694 F40.00
G01 X13.5404 Y-3.4878 F40.00
G01 X13.6326 Y-3.7226 F40.00
G01 X13.6887 Y-3.9685 F40.00
G01 X13.7076 Y-4.2200 F40.00
G01 X13.6887 Y-4.4715 F40.00
G01 X13.6326 Y-4.7174 F40.00
G01 X13.5404 Y-4.9522 F40.00
G01 X13.4143 Y-5.1706 F40.00
G01 X13.2571 Y-5.3678 F40.00
G01 X13.0722 Y-5.5394 F40.00
G01 X12.8638 Y-5.6815 F40.00
