(G-CODE GENERATED BY FLATCAM v8.994 - www.flatcam.org - Version Date: 2020/11/7)

(Name: PowerAndCommModule-Edge_Cuts_Back.gbr_cutout_1_cnc)
(Type: G-code from Geometry)
(Units: MM)

(Created on Sunday, 30 April 2023 at 22:08)

(This preprocessor is used with a motion controller loaded with GRBL firmware.)
(It is configured to be compatible with almost any version of GRBL firmware.)

(TOOL DIAMETER: 1.0 mm)
(Feedrate_XY: 25.0 mm/min)
(Feedrate_Z: 25.0 mm/min)
(Feedrate rapids 1500.0 mm/min)

(Z_Cut: -2.5 mm)
(Z_Move: 1.0 mm)
(Z Start: None mm)
(Z End: 5.0 mm)
(X,Y End: 0.0000, 0.0000 mm)
(Steps per circle: 64)
(Steps per circle: 64)
(Preprocessor Geometry: GRBL_11_no_M6)

(X range:    4.6025 ...   45.5775  mm)
(Y range:  -25.7500 ...   26.7500  mm)

(Spindle Speed: 1000.0 RPM)
G21
G90
G17
G94


G01 F25.00

M5             
G00 Z5.0000
G00 X0.0000 Y0.0000                
T1
(MSG, Change to Tool Dia = 1.0000)
M0
G00 Z5.0000
        
M03 S1000.0
G01 F25.00
G00 X4.6025 Y-1.4000
G01 F25.00
G01 Z-2.5000
G01 F25.00
G01 X4.6025 Y-25.1500 F25.00
G01 X4.6054 Y-25.2088 F25.00
G01 X4.6140 Y-25.2671 F25.00
G01 X4.6283 Y-25.3242 F25.00
G01 X4.6481 Y-25.3796 F25.00
G01 X4.6733 Y-25.4329 F25.00
G01 X4.7036 Y-25.4834 F25.00
G01 X4.7387 Y-25.5307 F25.00
G01 X4.7782 Y-25.5743 F25.00
G01 X4.8218 Y-25.6138 F25.00
G01 X4.8691 Y-25.6489 F25.00
G01 X4.9196 Y-25.6792 F25.00
G01 X4.9729 Y-25.7044 F25.00
G01 X5.0283 Y-25.7242 F25.00
G01 X5.0854 Y-25.7385 F25.00
G01 X5.1437 Y-25.7471 F25.00
G01 X5.2025 Y-25.7500 F25.00
G01 X44.9775 Y-25.7500 F25.00
G01 X45.0363 Y-25.7471 F25.00
G01 X45.0946 Y-25.7385 F25.00
G01 X45.1517 Y-25.7242 F25.00
G01 X45.2071 Y-25.7044 F25.00
G01 X45.2604 Y-25.6792 F25.00
G01 X45.3109 Y-25.6489 F25.00
G01 X45.3582 Y-25.6138 F25.00
G01 X45.4018 Y-25.5743 F25.00
G01 X45.4413 Y-25.5307 F25.00
G01 X45.4764 Y-25.4834 F25.00
G01 X45.5067 Y-25.4329 F25.00
G01 X45.5319 Y-25.3796 F25.00
G01 X45.5517 Y-25.3242 F25.00
G01 X45.5660 Y-25.2671 F25.00
G01 X45.5746 Y-25.2088 F25.00
G01 X45.5775 Y-25.1500 F25.00
G01 X45.5775 Y-1.4000 F25.00
G00 Z1.0000
G00 X4.6025 Y2.6000
G01 F25.00
G01 Z-2.5000
G01 F25.00
G01 X4.6025 Y26.1500 F25.00
G01 X4.6054 Y26.2088 F25.00
G01 X4.6140 Y26.2671 F25.00
G01 X4.6283 Y26.3242 F25.00
G01 X4.6481 Y26.3796 F25.00
G01 X4.6733 Y26.4329 F25.00
G01 X4.7036 Y26.4834 F25.00
G01 X4.7387 Y26.5307 F25.00
G01 X4.7782 Y26.5743 F25.00
G01 X4.8218 Y26.6138 F25.00
G01 X4.8691 Y26.6489 F25.00
G01 X4.9196 Y26.6792 F25.00
G01 X4.9729 Y26.7044 F25.00
G01 X5.0283 Y26.7242 F25.00
G01 X5.0854 Y26.7385 F25.00
G01 X5.1437 Y26.7471 F25.00
G01 X5.2025 Y26.7500 F25.00
G01 X44.9775 Y26.7500 F25.00
G01 X45.0363 Y26.7471 F25.00
G01 X45.0946 Y26.7385 F25.00
G01 X45.1517 Y26.7242 F25.00
G01 X45.2071 Y26.7044 F25.00
G01 X45.2604 Y26.6792 F25.00
G01 X45.3109 Y26.6489 F25.00
G01 X45.3582 Y26.6138 F25.00
G01 X45.4018 Y26.5743 F25.00
G01 X45.4413 Y26.5307 F25.00
G01 X45.4764 Y26.4834 F25.00
G01 X45.5067 Y26.4329 F25.00
G01 X45.5319 Y26.3796 F25.00
G01 X45.5517 Y26.3242 F25.00
G01 X45.5660 Y26.2671 F25.00
G01 X45.5746 Y26.2088 F25.00
G01 X45.5775 Y26.1500 F25.00
G01 X45.5775 Y2.6000 F25.00
G00 Z1.0000
M05
G00 Z1.0000
G00 Z5.00
G00 X0.0 Y0.0


