(G-CODE GENERATED BY FLATCAM v8.994 - www.flatcam.org - Version Date: 2020/11/7)

(Name: PowerAndCommModule-PTH_Back.drl_cnc)
(Type: G-code from Geometry)
(Units: MM)

(Created on Saturday, 29 April 2023 at 23:36)

(This preprocessor is used with a motion controller loaded with GRBL firmware.)
(It is configured to be compatible with almost any version of GRBL firmware.)


(TOOLS DIAMETER: )
(Tool: 1 -> Dia: 0.4)
(Tool: 2 -> Dia: 0.8)
(Tool: 3 -> Dia: 1.0)
(Tool: 4 -> Dia: 1.1)
(Tool: 5 -> Dia: 1.2)
(Tool: 6 -> Dia: 1.4)

(FEEDRATE Z: )
(Tool: 1 -> Feedrate: 300)
(Tool: 2 -> Feedrate: 300)
(Tool: 3 -> Feedrate: 300)
(Tool: 4 -> Feedrate: 300)
(Tool: 5 -> Feedrate: 300)
(Tool: 6 -> Feedrate: 25.0)

(FEEDRATE RAPIDS: )
(Tool: 1 -> Feedrate Rapids: 1500)
(Tool: 2 -> Feedrate Rapids: 1500)
(Tool: 3 -> Feedrate Rapids: 1500)
(Tool: 4 -> Feedrate Rapids: 1500)
(Tool: 5 -> Feedrate Rapids: 1500)
(Tool: 6 -> Feedrate Rapids: 1500)

(Z_CUT: )
(Tool: 1 -> Z_Cut: -1.7)
(Tool: 2 -> Z_Cut: -1.7)
(Tool: 3 -> Z_Cut: -1.7)
(Tool: 4 -> Z_Cut: -1.7)
(Tool: 5 -> Z_Cut: -1.7)
(Tool: 6 -> Z_Cut: -2.5)

(Tools Offset: )
(Tool: 6 -> Offset Z: 0.0)

(Z_MOVE: )
(Tool: 1 -> Z_Move: 2)
(Tool: 2 -> Z_Move: 2)
(Tool: 3 -> Z_Move: 2)
(Tool: 4 -> Z_Move: 2)
(Tool: 5 -> Z_Move: 2)
(Tool: 6 -> Z_Move: 1.0)

(Z Toolchange: 15.0 mm)
(X,Y Toolchange: 0.0000, 0.0000 mm)
(Z Start: None mm)
(Z End: 0.5 mm)
(X,Y End: None mm)
(Steps per circle: 64)
(Steps per circle: 64)
(Preprocessor Excellon: GRBL_11_no_M6)

(X range:    6.4800 ...   42.9400  mm)
(Y range:  -22.2200 ...   25.2100  mm)

(Spindle Speed: 1000 RPM)
G21
G90
G17
G94


G01 F25.00

M5             
G00 Z15.0000
G00 X0.0000 Y0.0000                
T6
(MSG, Change to Tool Dia = 1.4000 ||| Total drills for tool T6 = 6)
M0
G00 Z15.0000
        
G01 F25.00
M03 S1000
G00 X9.1600 Y23.7200
G01 Z-2.5000
G01 Z0
G00 Z1.0000
G00 X9.1600 Y18.7200
G01 Z-2.5000
G01 Z0
G00 Z1.0000
G00 X11.0100 Y-21.4600
G01 Z-2.5000
G01 Z0
G00 Z1.0000
G00 X16.0100 Y-21.4600
G01 Z-2.5000
G01 Z0
G00 Z1.0000
G00 X25.5400 Y-21.5200
G01 Z-2.5000
G01 Z0
G00 Z1.0000
G00 X30.5400 Y-21.5200
G01 Z-2.5000
G01 Z0
G00 Z1.0000
M05
G00 Z0.50


