(G-CODE GENERATED BY FLATCAM v8.994 - www.flatcam.org - Version Date: 2020/11/7)

(Name: PowerAndCommModule-B_Cu.gbr_ncc_cnc)
(Type: G-code from Geometry)
(Units: MM)

(Created on Saturday, 29 April 2023 at 20:55)

(This preprocessor is used with a motion controller loaded with GRBL firmware.)
(It is configured to be compatible with almost any version of GRBL firmware.)

(TOOL DIAMETER: 0.1353 mm)
(Feedrate_XY: 40.0 mm/min)
(Feedrate_Z: 60.0 mm/min)
(Feedrate rapids 1500.0 mm/min)

(Z_Cut: -0.1001 mm)
(Z_Move: 1.0 mm)
(Z Start: None mm)
(Z End: 5.0 mm)
(X,Y End: None mm)
(Steps per circle: 64)
(Steps per circle: 64)
(Preprocessor Geometry: GRBL_11_no_M6)

(X range:    5.2515 ...   44.9593  mm)
(Y range:  -24.4566 ...   26.1242  mm)

(Spindle Speed: 1000.0 RPM)
G21
G90
G17
G94


G01 F40.00

M5             
G00 Z15.0000
G00 X0.0000 Y0.0000                
T1
(MSG, Change to Tool Dia = 0.1353)
M0
G00 Z15.0000
        
M03 S1000.0
G01 F40.00
G00 X5.2515 Y2.0600
G01 F60.00
G01 Z-0.1001
G01 F40.00
G01 X5.2517 Y1.5875 F40.00
G01 X5.2594 Y1.5953 F40.00
G01 X5.3122 Y1.6411 F40.00
G01 X5.3187 Y1.6462 F40.00
G01 X5.3258 Y1.6503 F40.00
G01 X5.3350 Y1.6542 F40.00
G01 X5.3430 Y1.6563 F40.00
G01 X5.3994 Y1.6679 F40.00
G01 X5.4045 Y1.6686 F40.00
G01 X5.4113 Y1.6689 F40.00
G01 X8.3743 Y1.5940 F40.00
G01 X8.3823 Y1.5931 F40.00
G01 X8.3901 Y1.5913 F40.00
G01 X8.4598 Y1.5690 F40.00
G01 X8.4660 Y1.5664 F40.00
G01 X8.4705 Y1.5641 F40.00
G01 X8.4789 Y1.5586 F40.00
G01 X8.4840 Y1.5542 F40.00
G01 X8.4886 Y1.5494 F40.00
G01 X8.5362 Y1.4915 F40.00
G01 X8.5399 Y1.4859 F40.00
G01 X8.5438 Y1.4784 F40.00
G01 X8.5467 Y1.4706 F40.00
G01 X8.5486 Y1.4624 F40.00
G01 X8.5574 Y1.3880 F40.00
G01 X8.5577 Y1.3796 F40.00
G01 X8.5569 Y1.3713 F40.00
G01 X8.5551 Y1.3631 F40.00
G01 X8.5516 Y1.3536 F40.00
G01 X8.5195 Y1.2878 F40.00
G01 X8.5154 Y1.2809 F40.00
G01 X8.5093 Y1.2733 F40.00
G01 X8.4876 Y1.2497 F40.00
G01 X8.4649 Y1.2268 F40.00
G01 X8.4440 Y1.2023 F40.00
G01 X8.3854 Y1.1386 F40.00
G01 X8.3749 Y1.1225 F40.00
G01 X8.3640 Y1.1079 F40.00
G01 X8.3499 Y1.0910 F40.00
G01 X8.3056 Y1.0166 F40.00
G01 X8.2555 Y0.9398 F40.00
G01 X8.2478 Y0.9222 F40.00
G01 X8.2395 Y0.9060 F40.00
G01 X8.2283 Y0.8870 F40.00
G01 X8.1949 Y0.8016 F40.00
G01 X8.1601 Y0.7224 F40.00
G01 X8.1546 Y0.7010 F40.00
G01 X8.1490 Y0.6837 F40.00
G01 X8.1420 Y0.6658 F40.00
G01 X8.1231 Y0.5761 F40.00
G01 X8.1018 Y0.4922 F40.00
G01 X8.1002 Y0.4730 F40.00
G01 X8.0977 Y0.4550 F40.00
G01 X8.0933 Y0.4334 F40.00
G01 X8.0897 Y0.3469 F40.00
G01 X8.0871 Y0.3148 F40.00
G01 X8.0870 Y0.2812 F40.00
G01 X8.0835 Y0.1961 F40.00
G01 X8.0860 Y0.1756 F40.00
G01 X8.0871 Y0.1547 F40.00
G01 X8.0871 Y-8.7334 F40.00
G01 X8.0865 Y-8.7430 F40.00
G01 X8.0844 Y-8.7525 F40.00
G01 X8.0637 Y-8.8227 F40.00
G01 X8.0612 Y-8.8289 F40.00
G01 X8.0581 Y-8.8348 F40.00
G01 X8.0544 Y-8.8404 F40.00
G01 X8.0502 Y-8.8456 F40.00
G01 X8.0117 Y-8.8846 F40.00
G01 X8.0071 Y-8.8888 F40.00
G01 X8.0021 Y-8.8927 F40.00
G01 X7.9857 Y-8.9035 F40.00
G01 X7.7239 Y-9.1231 F40.00
G01 X7.4895 Y-9.3716 F40.00
G01 X7.2855 Y-9.6456 F40.00
G01 X7.1147 Y-9.9415 F40.00
G01 X6.9794 Y-10.2552 F40.00
G01 X6.8814 Y-10.5825 F40.00
G01 X6.8220 Y-10.9189 F40.00
G01 X6.8071 Y-11.1747 F40.00
G01 X6.8071 Y-20.3036 F40.00
G01 X6.8065 Y-20.3188 F40.00
G01 X6.8034 Y-20.3546 F40.00
G01 X6.8071 Y-20.4799 F40.00
G01 X6.8071 Y-20.5254 F40.00
G01 X6.8097 Y-20.5707 F40.00
G01 X6.8134 Y-20.6960 F40.00
G01 X6.8187 Y-20.7330 F40.00
G01 X6.8199 Y-20.7453 F40.00
G01 X6.8220 Y-20.7811 F40.00
G01 X6.8445 Y-20.9090 F40.00
G01 X6.8629 Y-21.0341 F40.00
G01 X6.8725 Y-21.0702 F40.00
G01 X6.8751 Y-21.0822 F40.00
G01 X6.8814 Y-21.1175 F40.00
G01 X6.9176 Y-21.2386 F40.00
G01 X6.9513 Y-21.3641 F40.00
G01 X6.9645 Y-21.3974 F40.00
G01 X6.9686 Y-21.4090 F40.00
G01 X6.9794 Y-21.4448 F40.00
G01 X7.0308 Y-21.5642 F40.00
G01 X7.0774 Y-21.6816 F40.00
G01 X7.0951 Y-21.7145 F40.00
G01 X7.1004 Y-21.7255 F40.00
G01 X7.1147 Y-21.7585 F40.00
G01 X7.1796 Y-21.8711 F40.00
G01 X7.2396 Y-21.9823 F40.00
G01 X7.2609 Y-22.0129 F40.00
G01 X7.2675 Y-22.0233 F40.00
G01 X7.2855 Y-22.0544 F40.00
G01 X7.3609 Y-22.1557 F40.00
G01 X7.4355 Y-22.2621 F40.00
G01 X7.4594 Y-22.2889 F40.00
G01 X7.4671 Y-22.2985 F40.00
G01 X7.4895 Y-22.3284 F40.00
G01 X7.5762 Y-22.4203 F40.00
G01 X7.6058 Y-22.4535 F40.00
G01 X7.6379 Y-22.4857 F40.00
G01 X7.7239 Y-22.5769 F40.00
G01 X7.7514 Y-22.6000 F40.00
G01 X7.7626 Y-22.6103 F40.00
G01 X8.7465 Y-23.5942 F40.00
G01 X8.9379 Y-23.7645 F40.00
G01 X9.2177 Y-23.9604 F40.00
G01 X9.5184 Y-24.1226 F40.00
G01 X9.8359 Y-24.2487 F40.00
G01 X10.1659 Y-24.3371 F40.00
G01 X10.5040 Y-24.3866 F40.00
G01 X10.8454 Y-24.3966 F40.00
G01 X11.1858 Y-24.3668 F40.00
G01 X11.5204 Y-24.2977 F40.00
G01 X11.8447 Y-24.1903 F40.00
G01 X12.1543 Y-24.0459 F40.00
G01 X12.4451 Y-23.8665 F40.00
G01 X12.7131 Y-23.6546 F40.00
G01 X12.9546 Y-23.4131 F40.00
G01 X13.1665 Y-23.1451 F40.00
G01 X13.2219 Y-23.0553 F40.00
G01 X13.2267 Y-23.0489 F40.00
G01 X13.2322 Y-23.0430 F40.00
G01 X13.2866 Y-22.9941 F40.00
G01 X13.2933 Y-22.9890 F40.00
G01 X13.3021 Y-22.9841 F40.00
G01 X13.3099 Y-22.9811 F40.00
G01 X13.3180 Y-22.9790 F40.00
G01 X13.3887 Y-22.9675 F40.00
G01 X13.3953 Y-22.9667 F40.00
G01 X13.4004 Y-22.9666 F40.00
G01 X13.4071 Y-22.9670 F40.00
G01 X13.4137 Y-22.9681 F40.00
G01 X13.4202 Y-22.9698 F40.00
G01 X13.4265 Y-22.9722 F40.00
G01 X13.4936 Y-23.0015 F40.00
G01 X13.5035 Y-23.0075 F40.00
G01 X13.5123 Y-23.0151 F40.00
G01 X13.5355 Y-23.0404 F40.00
G01 X13.5401 Y-23.0459 F40.00
G01 X13.7055 Y-23.2821 F40.00
G01 X13.8758 Y-23.4735 F40.00
G01 X13.9007 Y-23.4984 F40.00
G01 X13.9100 Y-23.5086 F40.00
G01 X13.9331 Y-23.5361 F40.00
G01 X14.0243 Y-23.6221 F40.00
G01 X14.0565 Y-23.6542 F40.00
G01 X14.0897 Y-23.6838 F40.00
G01 X14.1816 Y-23.7705 F40.00
G01 X14.2104 Y-23.7919 F40.00
G01 X14.2199 Y-23.7997 F40.00
G01 X14.2479 Y-23.8245 F40.00
G01 X14.3543 Y-23.8990 F40.00
G01 X14.4556 Y-23.9745 F40.00
G01 X14.4867 Y-23.9925 F40.00
G01 X14.4971 Y-23.9991 F40.00
G01 X14.5277 Y-24.0204 F40.00
G01 X14.6420 Y-24.0821 F40.00
G01 X14.7515 Y-24.1453 F40.00
G01 X14.7844 Y-24.1596 F40.00
G01 X14.7955 Y-24.1649 F40.00
G01 X14.8284 Y-24.1826 F40.00
G01 X14.9492 Y-24.2306 F40.00
G01 X15.0652 Y-24.2806 F40.00
G01 X15.1010 Y-24.2914 F40.00
G01 X15.1125 Y-24.2955 F40.00
G01 X15.1459 Y-24.3087 F40.00
G01 X15.2714 Y-24.3424 F40.00
G01 X15.3925 Y-24.3786 F40.00
G01 X15.4278 Y-24.3849 F40.00
G01 X15.4398 Y-24.3875 F40.00
G01 X15.4759 Y-24.3971 F40.00
G01 X15.6010 Y-24.4155 F40.00
G01 X15.7289 Y-24.4380 F40.00
G01 X15.7647 Y-24.4401 F40.00
G01 X15.7770 Y-24.4413 F40.00
G01 X15.8140 Y-24.4466 F40.00
G01 X15.9393 Y-24.4503 F40.00
G01 X15.9847 Y-24.4529 F40.00
G01 X16.0301 Y-24.4529 F40.00
G01 X16.1554 Y-24.4566 F40.00
G01 X16.1912 Y-24.4535 F40.00
G01 X16.2064 Y-24.4529 F40.00
G01 X25.6253 Y-24.4529 F40.00
G01 X25.8811 Y-24.4380 F40.00
G01 X26.2175 Y-24.3786 F40.00
G01 X26.5448 Y-24.2806 F40.00
G01 X26.8585 Y-24.1453 F40.00
G01 X27.1544 Y-23.9745 F40.00
G01 X27.4284 Y-23.7705 F40.00
G01 X27.6769 Y-23.5361 F40.00
G01 X27.8965 Y-23.2743 F40.00
G01 X28.0026 Y-23.1131 F40.00
G01 X28.0074 Y-23.1066 F40.00
G01 X28.0129 Y-23.1008 F40.00
G01 X28.0699 Y-23.0524 F40.00
G01 X28.0782 Y-23.0467 F40.00
G01 X28.0857 Y-23.0429 F40.00
G01 X28.0936 Y-23.0400 F40.00
G01 X28.1018 Y-23.0382 F40.00
G01 X28.1727 Y-23.0288 F40.00
G01 X28.1828 Y-23.0282 F40.00
G01 X28.1895 Y-23.0286 F40.00
G01 X28.1961 Y-23.0297 F40.00
G01 X28.2026 Y-23.0315 F40.00
G01 X28.2089 Y-23.0339 F40.00
G01 X28.2766 Y-23.0658 F40.00
G01 X28.2852 Y-23.0712 F40.00
G01 X28.2928 Y-23.0777 F40.00
G01 X28.2973 Y-23.0827 F40.00
G01 X28.3244 Y-23.1160 F40.00
G01 X28.3279 Y-23.1212 F40.00
G01 X28.3355 Y-23.1344 F40.00
G01 X28.5395 Y-23.4084 F40.00
G01 X28.7739 Y-23.6569 F40.00
G01 X29.0357 Y-23.8765 F40.00
G01 X29.3211 Y-24.0642 F40.00
G01 X29.6264 Y-24.2176 F40.00
G01 X29.9474 Y-24.3344 F40.00
G01 X30.2799 Y-24.4132 F40.00
G01 X30.6192 Y-24.4529 F40.00
G01 X30.9608 Y-24.4529 F40.00
G01 X31.3001 Y-24.4132 F40.00
G01 X31.6326 Y-24.3344 F40.00
G01 X31.9536 Y-24.2176 F40.00
G01 X32.2589 Y-24.0642 F40.00
G01 X32.5443 Y-23.8765 F40.00
G01 X32.8061 Y-23.6569 F40.00
G01 X33.0405 Y-23.4084 F40.00
G01 X33.2445 Y-23.1344 F40.00
G01 X33.4153 Y-22.8385 F40.00
G01 X33.5506 Y-22.5248 F40.00
G01 X33.6486 Y-22.1975 F40.00
G01 X33.7080 Y-21.8611 F40.00
G01 X33.7229 Y-21.6053 F40.00
G01 X33.7229 Y-18.3364 F40.00
G01 X33.7235 Y-18.3212 F40.00
G01 X33.7266 Y-18.2854 F40.00
G01 X33.7229 Y-18.1601 F40.00
G01 X33.7229 Y-18.1147 F40.00
G01 X33.7203 Y-18.0703 F40.00
G01 X33.7166 Y-17.9440 F40.00
G01 X33.7113 Y-17.9070 F40.00
G01 X33.7101 Y-17.8947 F40.00
G01 X33.7080 Y-17.8589 F40.00
G01 X33.6860 Y-17.7345 F40.00
G01 X33.6671 Y-17.6059 F40.00
G01 X33.6579 Y-17.5713 F40.00
G01 X33.6552 Y-17.5593 F40.00
G01 X33.6486 Y-17.5225 F40.00
G01 X33.6114 Y-17.3979 F40.00
G01 X33.6007 Y-17.3579 F40.00
G01 X33.5995 Y-17.3499 F40.00
G01 X33.5992 Y-17.3435 F40.00
G01 X33.6010 Y-17.2687 F40.00
G01 X33.6016 Y-17.2637 F40.00
G01 X33.6029 Y-17.2571 F40.00
G01 X33.6061 Y-17.2475 F40.00
G01 X33.6090 Y-17.2415 F40.00
G01 X33.6116 Y-17.2371 F40.00
G01 X33.6546 Y-17.1738 F40.00
G01 X33.6590 Y-17.1688 F40.00
G01 X33.6652 Y-17.1631 F40.00
G01 X33.6721 Y-17.1583 F40.00
G01 X33.6795 Y-17.1543 F40.00
G01 X33.7484 Y-17.1249 F40.00
G01 X33.7581 Y-17.1221 F40.00
G01 X33.7681 Y-17.1208 F40.00
G01 X33.7748 Y-17.1207 F40.00
G01 X33.7815 Y-17.1213 F40.00
G01 X33.8537 Y-17.1335 F40.00
G01 X33.8586 Y-17.1346 F40.00
G01 X33.8651 Y-17.1367 F40.00
G01 X33.8712 Y-17.1395 F40.00
G01 X33.8771 Y-17.1428 F40.00
G01 X33.9085 Y-17.1639 F40.00
G01 X33.9147 Y-17.1688 F40.00
G01 X34.6537 Y-17.8324 F40.00
G01 X34.6742 Y-17.8496 F40.00
G01 X34.7896 Y-17.9158 F40.00
G01 X34.7926 Y-17.9170 F40.00
G01 X34.8169 Y-17.9257 F40.00
G01 X34.9481 Y-17.9479 F40.00
G01 X44.8078 Y-18.1942 F40.00
G01 X44.8174 Y-18.1951 F40.00
G01 X44.8268 Y-18.1974 F40.00
G01 X44.8949 Y-18.2193 F40.00
G01 X44.9011 Y-18.2218 F40.00
G01 X44.9071 Y-18.2249 F40.00
G01 X44.9153 Y-18.2307 F40.00
G01 X44.9226 Y-18.2376 F40.00
G01 X44.9593 Y-18.2820 F40.00
G01 X44.9593 Y-17.8130 F40.00
G01 X44.9510 Y-17.8174 F40.00
G01 X44.9353 Y-17.8236 F40.00
G01 X44.9242 Y-17.8260 F40.00
G01 X44.9135 Y-17.8265 F40.00
G01 X34.9526 Y-17.5777 F40.00
G01 X34.9441 Y-17.5770 F40.00
G01 X34.9374 Y-17.5756 F40.00
G01 X34.9293 Y-17.5730 F40.00
G01 X34.9157 Y-17.5672 F40.00
G01 X34.9083 Y-17.5628 F40.00
G01 X34.9016 Y-17.5575 F40.00
G01 X30.1233 Y-13.2670 F40.00
G01 X29.5329 Y-13.2517 F40.00
G01 X29.5208 Y-13.2497 F40.00
G01 X29.4405 Y-13.2282 F40.00
G01 X29.3172 Y-13.1913 F40.00
G01 X29.2759 Y-13.1840 F40.00
G01 X29.2338 Y-13.1728 F40.00
G01 X29.1072 Y-13.1543 F40.00
G01 X28.9807 Y-13.1320 F40.00
G01 X28.9389 Y-13.1295 F40.00
G01 X28.8957 Y-13.1233 F40.00
G01 X28.7682 Y-13.1196 F40.00
G01 X28.7253 Y-13.1171 F40.00
G01 X28.6825 Y-13.1171 F40.00
G01 X28.5542 Y-13.1135 F40.00
G01 X28.5154 Y-13.1168 F40.00
G01 X28.5085 Y-13.1171 F40.00
G01 X24.2900 Y-13.1171 F40.00
G01 X23.9211 Y-13.1077 F40.00
G01 X23.9110 Y-13.1064 F40.00
G01 X23.9013 Y-13.1037 F40.00
G01 X23.8873 Y-13.0977 F40.00
G01 X23.8786 Y-13.0927 F40.00
G01 X23.8732 Y-13.0886 F40.00
G01 X23.8694 Y-13.0852 F40.00
G01 X15.3561 Y-4.7517 F40.00
G01 X15.3516 Y-4.7468 F40.00
G01 X15.3476 Y-4.7415 F40.00
G01 X15.3419 Y-4.7314 F40.00
G01 X15.3371 Y-4.7202 F40.00
G01 X15.3344 Y-4.7121 F40.00
G01 X15.3328 Y-4.7037 F40.00
G01 X15.3323 Y-4.6959 F40.00
G01 X15.2230 Y6.2419 F40.00
G01 X8.9866 Y6.2028 F40.00
G01 X8.9178 Y2.0305 F40.00
G01 X8.9174 Y2.0239 F40.00
G01 X8.9163 Y2.0173 F40.00
G01 X8.9129 Y2.0062 F40.00
G01 X8.9058 Y1.9907 F40.00
G01 X8.9023 Y1.9850 F40.00
G01 X8.8972 Y1.9785 F40.00
G01 X8.8925 Y1.9738 F40.00
G01 X8.8861 Y1.9685 F40.00
G01 X8.8791 Y1.9641 F40.00
G01 X8.8731 Y1.9612 F40.00
G01 X8.8618 Y1.9568 F40.00
G01 X8.8538 Y1.9544 F40.00
G01 X8.8455 Y1.9530 F40.00
G01 X8.8371 Y1.9527 F40.00
G01 X5.2995 Y2.0421 F40.00
G01 X5.2880 Y2.0434 F40.00
G01 X5.2768 Y2.0466 F40.00
G01 X5.2612 Y2.0537 F40.00
G01 X5.2515 Y2.0600 F40.00
G01 X5.3464 Y1.9462 F40.00
G01 X5.3467 Y1.7538 F40.00
G01 X5.3880 Y1.7619 F40.00
G01 X5.4019 Y1.7634 F40.00
G01 X5.4154 Y1.7636 F40.00
G01 X8.3839 Y1.6883 F40.00
G01 X8.3992 Y1.6863 F40.00
G01 X8.4143 Y1.6829 F40.00
G01 X8.4936 Y1.6574 F40.00
G01 X8.5070 Y1.6518 F40.00
G01 X8.5191 Y1.6454 F40.00
G01 X8.5294 Y1.6389 F40.00
G01 X8.5409 Y1.6302 F40.00
G01 X8.5511 Y1.6210 F40.00
G01 X8.5610 Y1.6105 F40.00
G01 X8.6080 Y1.5534 F40.00
G01 X8.6175 Y1.5404 F40.00
G01 X8.6257 Y1.5265 F40.00
G01 X8.6331 Y1.5103 F40.00
G01 X8.6382 Y1.4950 F40.00
G01 X8.6402 Y1.4872 F40.00
G01 X8.6422 Y1.4770 F40.00
G01 X8.6513 Y1.4008 F40.00
G01 X8.6521 Y1.3916 F40.00
G01 X8.6522 Y1.3738 F40.00
G01 X8.6516 Y1.3657 F40.00
G01 X8.6503 Y1.3554 F40.00
G01 X8.6464 Y1.3380 F40.00
G01 X8.6433 Y1.3281 F40.00
G01 X8.6398 Y1.3190 F40.00
G01 X8.6049 Y1.2468 F40.00
G01 X8.6005 Y1.2385 F40.00
G01 X8.5952 Y1.2299 F40.00
G01 X8.5898 Y1.2222 F40.00
G01 X8.5836 Y1.2143 F40.00
G01 X8.5566 Y1.1848 F40.00
G01 X8.5347 Y1.1626 F40.00
G01 X8.5143 Y1.1389 F40.00
G01 X8.4604 Y1.0803 F40.00
G01 X8.4517 Y1.0671 F40.00
G01 X8.4400 Y1.0513 F40.00
G01 X8.4272 Y1.0358 F40.00
G01 X8.3859 Y0.9665 F40.00
G01 X8.3391 Y0.8946 F40.00
G01 X8.3327 Y0.8802 F40.00
G01 X8.3237 Y0.8627 F40.00
G01 X8.3137 Y0.8453 F40.00
G01 X8.2824 Y0.7654 F40.00
G01 X8.2500 Y0.6915 F40.00
G01 X8.2448 Y0.6721 F40.00
G01 X8.2387 Y0.6534 F40.00
G01 X8.2331 Y0.6387 F40.00
G01 X8.2154 Y0.5547 F40.00
G01 X8.1956 Y0.4765 F40.00
G01 X8.1942 Y0.4608 F40.00
G01 X8.1914 Y0.4414 F40.00
G01 X8.1876 Y0.4216 F40.00
G01 X8.1843 Y0.3420 F40.00
G01 X8.1819 Y0.3109 F40.00
G01 X8.1817 Y0.2783 F40.00
G01 X8.1784 Y0.2000 F40.00
G01 X8.1804 Y0.1824 F40.00
G01 X8.1819 Y0.1547 F40.00
G01 X8.1819 Y-8.7334 F40.00
G01 X8.1815 Y-8.7439 F40.00
G01 X8.1804 Y-8.7554 F40.00
G01 X8.1784 Y-8.7668 F40.00
G01 X8.1760 Y-8.7765 F40.00
G01 X8.1556 Y-8.8462 F40.00
G01 X8.1514 Y-8.8587 F40.00
G01 X8.1459 Y-8.8713 F40.00
G01 X8.1391 Y-8.8839 F40.00
G01 X8.1315 Y-8.8954 F40.00
G01 X8.1226 Y-8.9067 F40.00
G01 X8.1152 Y-8.9146 F40.00
G01 X8.0791 Y-8.9512 F40.00
G01 X8.0688 Y-8.9607 F40.00
G01 X8.0582 Y-8.9690 F40.00
G01 X8.0423 Y-8.9796 F40.00
G01 X7.7890 Y-9.1921 F40.00
G01 X7.5622 Y-9.4326 F40.00
G01 X7.3647 Y-9.6978 F40.00
G01 X7.1994 Y-9.9841 F40.00
G01 X7.0685 Y-10.2877 F40.00
G01 X6.9737 Y-10.6044 F40.00
G01 X6.9163 Y-10.9300 F40.00
G01 X6.9019 Y-11.1774 F40.00
G01 X6.9019 Y-20.3036 F40.00
G01 X6.9010 Y-20.3260 F40.00
G01 X6.8983 Y-20.3573 F40.00
G01 X6.9018 Y-20.4778 F40.00
G01 X6.9019 Y-20.5226 F40.00
G01 X6.9044 Y-20.5672 F40.00
G01 X6.9079 Y-20.6878 F40.00
G01 X6.9129 Y-20.7234 F40.00
G01 X6.9144 Y-20.7387 F40.00
G01 X6.9163 Y-20.7700 F40.00
G01 X6.9380 Y-20.8939 F40.00
G01 X6.9558 Y-21.0149 F40.00
G01 X6.9649 Y-21.0497 F40.00
G01 X6.9682 Y-21.0647 F40.00
G01 X6.9737 Y-21.0956 F40.00
G01 X7.0087 Y-21.2127 F40.00
G01 X7.0413 Y-21.3342 F40.00
G01 X7.0529 Y-21.3634 F40.00
G01 X7.0580 Y-21.3779 F40.00
G01 X7.0685 Y-21.4124 F40.00
G01 X7.1183 Y-21.5279 F40.00
G01 X7.1634 Y-21.6415 F40.00
G01 X7.1803 Y-21.6732 F40.00
G01 X7.1870 Y-21.6871 F40.00
G01 X7.1994 Y-21.7159 F40.00
G01 X7.2623 Y-21.8249 F40.00
G01 X7.3203 Y-21.9325 F40.00
G01 X7.3408 Y-21.9620 F40.00
G01 X7.3490 Y-21.9750 F40.00
G01 X7.3647 Y-22.0022 F40.00
G01 X7.4377 Y-22.1003 F40.00
G01 X7.5099 Y-22.2033 F40.00
G01 X7.5308 Y-22.2268 F40.00
G01 X7.5406 Y-22.2386 F40.00
G01 X7.5622 Y-22.2674 F40.00
G01 X7.6456 Y-22.3558 F40.00
G01 X7.6747 Y-22.3885 F40.00
G01 X7.7063 Y-22.4202 F40.00
G01 X7.7890 Y-22.5079 F40.00
G01 X7.8131 Y-22.5281 F40.00
G01 X7.8296 Y-22.5433 F40.00
G01 X8.8115 Y-23.5253 F40.00
G01 X8.9967 Y-23.6901 F40.00
G01 X9.2675 Y-23.8797 F40.00
G01 X9.5585 Y-24.0366 F40.00
G01 X9.8658 Y-24.1586 F40.00
G01 X10.1851 Y-24.2442 F40.00
G01 X10.5122 Y-24.2921 F40.00
G01 X10.8427 Y-24.3017 F40.00
G01 X11.1720 Y-24.2729 F40.00
G01 X11.4958 Y-24.2061 F40.00
G01 X11.8096 Y-24.1021 F40.00
G01 X12.1093 Y-23.9624 F40.00
G01 X12.3906 Y-23.7888 F40.00
G01 X12.6500 Y-23.5838 F40.00
G01 X12.8838 Y-23.3500 F40.00
G01 X13.0888 Y-23.0906 F40.00
G01 X13.1440 Y-23.0014 F40.00
G01 X13.1498 Y-22.9933 F40.00
G01 X13.1557 Y-22.9861 F40.00
G01 X13.1625 Y-22.9787 F40.00
G01 X13.1700 Y-22.9715 F40.00
G01 X13.2220 Y-22.9248 F40.00
G01 X13.2303 Y-22.9177 F40.00
G01 X13.2387 Y-22.9116 F40.00
G01 X13.2490 Y-22.9051 F40.00
G01 X13.2575 Y-22.9005 F40.00
G01 X13.2670 Y-22.8961 F40.00
G01 X13.2837 Y-22.8900 F40.00
G01 X13.2915 Y-22.8879 F40.00
G01 X13.3017 Y-22.8857 F40.00
G01 X13.3786 Y-22.8733 F40.00
G01 X13.3906 Y-22.8721 F40.00
G01 X13.4027 Y-22.8719 F40.00
G01 X13.4188 Y-22.8730 F40.00
G01 X13.4324 Y-22.8753 F40.00
G01 X13.4464 Y-22.8788 F40.00
G01 X13.4616 Y-22.8842 F40.00
G01 X13.5283 Y-22.9132 F40.00
G01 X13.5381 Y-22.9178 F40.00
G01 X13.5471 Y-22.9228 F40.00
G01 X13.5571 Y-22.9294 F40.00
G01 X13.5648 Y-22.9351 F40.00
G01 X13.5727 Y-22.9418 F40.00
G01 X13.5812 Y-22.9502 F40.00
G01 X13.6053 Y-22.9763 F40.00
G01 X13.6117 Y-22.9838 F40.00
G01 X13.6170 Y-22.9906 F40.00
G01 X13.7799 Y-23.2233 F40.00
G01 X13.9447 Y-23.4085 F40.00
G01 X13.9684 Y-23.4322 F40.00
G01 X13.9796 Y-23.4443 F40.00
G01 X14.0021 Y-23.4710 F40.00
G01 X14.0898 Y-23.5537 F40.00
G01 X14.1215 Y-23.5853 F40.00
G01 X14.1542 Y-23.6144 F40.00
G01 X14.2426 Y-23.6978 F40.00
G01 X14.2678 Y-23.7166 F40.00
G01 X14.2797 Y-23.7263 F40.00
G01 X14.3067 Y-23.7501 F40.00
G01 X14.4097 Y-23.8223 F40.00
G01 X14.5078 Y-23.8952 F40.00
G01 X14.5350 Y-23.9110 F40.00
G01 X14.5480 Y-23.9192 F40.00
G01 X14.5775 Y-23.9397 F40.00
G01 X14.6882 Y-23.9994 F40.00
G01 X14.7941 Y-24.0606 F40.00
G01 X14.8229 Y-24.0730 F40.00
G01 X14.8368 Y-24.0796 F40.00
G01 X14.8685 Y-24.0966 F40.00
G01 X14.9854 Y-24.1431 F40.00
G01 X15.0977 Y-24.1915 F40.00
G01 X15.1321 Y-24.2020 F40.00
G01 X15.1466 Y-24.2071 F40.00
G01 X15.1758 Y-24.2187 F40.00
G01 X15.2972 Y-24.2513 F40.00
G01 X15.4144 Y-24.2863 F40.00
G01 X15.4453 Y-24.2918 F40.00
G01 X15.4603 Y-24.2950 F40.00
G01 X15.4951 Y-24.3042 F40.00
G01 X15.6161 Y-24.3220 F40.00
G01 X15.7400 Y-24.3437 F40.00
G01 X15.7713 Y-24.3456 F40.00
G01 X15.7866 Y-24.3471 F40.00
G01 X15.8222 Y-24.3521 F40.00
G01 X15.9428 Y-24.3556 F40.00
G01 X15.9874 Y-24.3581 F40.00
G01 X16.0322 Y-24.3582 F40.00
G01 X16.1527 Y-24.3617 F40.00
G01 X16.1840 Y-24.3590 F40.00
G01 X16.2064 Y-24.3581 F40.00
G01 X25.6226 Y-24.3581 F40.00
G01 X25.8700 Y-24.3437 F40.00
G01 X26.1956 Y-24.2863 F40.00
G01 X26.5123 Y-24.1915 F40.00
G01 X26.8159 Y-24.0606 F40.00
G01 X27.1022 Y-23.8953 F40.00
G01 X27.3674 Y-23.6978 F40.00
G01 X27.6079 Y-23.4710 F40.00
G01 X27.8204 Y-23.2177 F40.00
G01 X27.9263 Y-23.0569 F40.00
G01 X27.9318 Y-23.0494 F40.00
G01 X27.9383 Y-23.0418 F40.00
G01 X27.9447 Y-23.0350 F40.00
G01 X27.9520 Y-23.0282 F40.00
G01 X28.0074 Y-22.9812 F40.00
G01 X28.0159 Y-22.9744 F40.00
G01 X28.0245 Y-22.9685 F40.00
G01 X28.0328 Y-22.9635 F40.00
G01 X28.0421 Y-22.9587 F40.00
G01 X28.0510 Y-22.9547 F40.00
G01 X28.0585 Y-22.9519 F40.00
G01 X28.0684 Y-22.9487 F40.00
G01 X28.0858 Y-22.9449 F40.00
G01 X28.1631 Y-22.9345 F40.00
G01 X28.1734 Y-22.9337 F40.00
G01 X28.1832 Y-22.9335 F40.00
G01 X28.1993 Y-22.9344 F40.00
G01 X28.2152 Y-22.9370 F40.00
G01 X28.2308 Y-22.9411 F40.00
G01 X28.2459 Y-22.9467 F40.00
G01 X28.3139 Y-22.9786 F40.00
G01 X28.3236 Y-22.9835 F40.00
G01 X28.3325 Y-22.9889 F40.00
G01 X28.3406 Y-22.9944 F40.00
G01 X28.3488 Y-23.0008 F40.00
G01 X28.3561 Y-23.0072 F40.00
G01 X28.3618 Y-23.0129 F40.00
G01 X28.3688 Y-23.0206 F40.00
G01 X28.3998 Y-23.0587 F40.00
G01 X28.4074 Y-23.0697 F40.00
G01 X28.4147 Y-23.0822 F40.00
G01 X28.6122 Y-23.3474 F40.00
G01 X28.8391 Y-23.5879 F40.00
G01 X29.0923 Y-23.8004 F40.00
G01 X29.3685 Y-23.9821 F40.00
G01 X29.6640 Y-24.1304 F40.00
G01 X29.9746 Y-24.2435 F40.00
G01 X30.2963 Y-24.3198 F40.00
G01 X30.6247 Y-24.3581 F40.00
G01 X30.9553 Y-24.3581 F40.00
G01 X31.2837 Y-24.3198 F40.00
G01 X31.6054 Y-24.2435 F40.00
G01 X31.9160 Y-24.1304 F40.00
G01 X32.2115 Y-23.9821 F40.00
G01 X32.4877 Y-23.8004 F40.00
G01 X32.7410 Y-23.5879 F40.00
G01 X32.9678 Y-23.3474 F40.00
G01 X33.1653 Y-23.0822 F40.00
G01 X33.3306 Y-22.7959 F40.00
G01 X33.4615 Y-22.4923 F40.00
G01 X33.5563 Y-22.1756 F40.00
G01 X33.6137 Y-21.8500 F40.00
G01 X33.6281 Y-21.6026 F40.00
G01 X33.6281 Y-18.3364 F40.00
G01 X33.6290 Y-18.3140 F40.00
G01 X33.6317 Y-18.2827 F40.00
G01 X33.6282 Y-18.1622 F40.00
G01 X33.6281 Y-18.1174 F40.00
G01 X33.6257 Y-18.0737 F40.00
G01 X33.6221 Y-17.9522 F40.00
G01 X33.6171 Y-17.9166 F40.00
G01 X33.6156 Y-17.9013 F40.00
G01 X33.6137 Y-17.8700 F40.00
G01 X33.5925 Y-17.7496 F40.00
G01 X33.5742 Y-17.6251 F40.00
G01 X33.5661 Y-17.5948 F40.00
G01 X33.5627 Y-17.5798 F40.00
G01 X33.5563 Y-17.5444 F40.00
G01 X33.5215 Y-17.4279 F40.00
G01 X33.5093 Y-17.3829 F40.00
G01 X33.5072 Y-17.3731 F40.00
G01 X33.5055 Y-17.3617 F40.00
G01 X33.5047 Y-17.3524 F40.00
G01 X33.5045 Y-17.3424 F40.00
G01 X33.5062 Y-17.2686 F40.00
G01 X33.5075 Y-17.2526 F40.00
G01 X33.5095 Y-17.2406 F40.00
G01 X33.5129 Y-17.2273 F40.00
G01 X33.5168 Y-17.2158 F40.00
G01 X33.5225 Y-17.2026 F40.00
G01 X33.5282 Y-17.1919 F40.00
G01 X33.5341 Y-17.1827 F40.00
G01 X33.5748 Y-17.1224 F40.00
G01 X33.5847 Y-17.1097 F40.00
G01 X33.5902 Y-17.1038 F40.00
G01 X33.5976 Y-17.0965 F40.00
G01 X33.6100 Y-17.0861 F40.00
G01 X33.6248 Y-17.0762 F40.00
G01 X33.6390 Y-17.0687 F40.00
G01 X33.7080 Y-17.0390 F40.00
G01 X33.7204 Y-17.0343 F40.00
G01 X33.7320 Y-17.0309 F40.00
G01 X33.7438 Y-17.0284 F40.00
G01 X33.7558 Y-17.0267 F40.00
G01 X33.7679 Y-17.0260 F40.00
G01 X33.7816 Y-17.0262 F40.00
G01 X33.7937 Y-17.0274 F40.00
G01 X33.8745 Y-17.0411 F40.00
G01 X33.8886 Y-17.0447 F40.00
G01 X33.9001 Y-17.0487 F40.00
G01 X33.9113 Y-17.0536 F40.00
G01 X33.9235 Y-17.0602 F40.00
G01 X33.9623 Y-17.0859 F40.00
G01 X33.9701 Y-17.0918 F40.00
G01 X33.9771 Y-17.0976 F40.00
G01 X34.7164 Y-17.7614 F40.00
G01 X34.7286 Y-17.7716 F40.00
G01 X34.8299 Y-17.8298 F40.00
G01 X34.8410 Y-17.8337 F40.00
G01 X34.9573 Y-17.8534 F40.00
G01 X44.8101 Y-18.0995 F40.00
G01 X44.8244 Y-18.1005 F40.00
G01 X44.8381 Y-18.1026 F40.00
G01 X44.8494 Y-18.1053 F40.00
G01 X44.8646 Y-18.1101 F40.00
G01 X44.8646 Y-17.9200 F40.00
G01 X34.9502 Y-17.6724 F40.00
G01 X34.9350 Y-17.6713 F40.00
G01 X34.9189 Y-17.6686 F40.00
G01 X34.9086 Y-17.6659 F40.00
G01 X34.8992 Y-17.6629 F40.00
G01 X34.8842 Y-17.6570 F40.00
G01 X34.8730 Y-17.6518 F40.00
G01 X34.8638 Y-17.6467 F40.00
G01 X34.8554 Y-17.6413 F40.00
G01 X34.8469 Y-17.6351 F40.00
G01 X34.8384 Y-17.6280 F40.00
G01 X30.0860 Y-13.3608 F40.00
G01 X29.5352 Y-13.3466 F40.00
G01 X29.5211 Y-13.3456 F40.00
G01 X29.5086 Y-13.3438 F40.00
G01 X29.4973 Y-13.3414 F40.00
G01 X29.4163 Y-13.3197 F40.00
G01 X29.2953 Y-13.2836 F40.00
G01 X29.2554 Y-13.2764 F40.00
G01 X29.2146 Y-13.2657 F40.00
G01 X29.0920 Y-13.2478 F40.00
G01 X28.9697 Y-13.2263 F40.00
G01 X28.9292 Y-13.2237 F40.00
G01 X28.8875 Y-13.2179 F40.00
G01 X28.7649 Y-13.2143 F40.00
G01 X28.7226 Y-13.2119 F40.00
G01 X28.6804 Y-13.2118 F40.00
G01 X28.5570 Y-13.2083 F40.00
G01 X28.5212 Y-13.2114 F40.00
G01 X28.5085 Y-13.2119 F40.00
G01 X24.2885 Y-13.2119 F40.00
G01 X23.9203 Y-13.2024 F40.00
G01 X23.9070 Y-13.2015 F40.00
G01 X23.8950 Y-13.1998 F40.00
G01 X23.8831 Y-13.1971 F40.00
G01 X23.8715 Y-13.1936 F40.00
G01 X23.8613 Y-13.1896 F40.00
G01 X23.8472 Y-13.1835 F40.00
G01 X23.8364 Y-13.1779 F40.00
G01 X23.8241 Y-13.1702 F40.00
G01 X23.8144 Y-13.1629 F40.00
G01 X23.8032 Y-13.1529 F40.00
G01 X15.2898 Y-4.8194 F40.00
G01 X15.2798 Y-4.8086 F40.00
G01 X15.2700 Y-4.7959 F40.00
G01 X15.2624 Y-4.7839 F40.00
G01 X15.2552 Y-4.7697 F40.00
G01 X15.2472 Y-4.7502 F40.00
G01 X15.2420 Y-4.7329 F40.00
G01 X15.2403 Y-4.7249 F40.00
G01 X15.2387 Y-4.7145 F40.00
G01 X15.2376 Y-4.6969 F40.00
G01 X15.1293 Y6.1466 F40.00
G01 X9.0797 Y6.1086 F40.00
G01 X9.0125 Y2.0278 F40.00
G01 X9.0116 Y2.0142 F40.00
G01 X9.0091 Y1.9985 F40.00
G01 X9.0056 Y1.9846 F40.00
G01 X9.0011 Y1.9718 F40.00
G01 X8.9935 Y1.9543 F40.00
G01 X8.9860 Y1.9402 F40.00
G01 X8.9772 Y1.9269 F40.00
G01 X8.9671 Y1.9146 F40.00
G01 X8.9558 Y1.9033 F40.00
G01 X8.9422 Y1.8922 F40.00
G01 X8.9356 Y1.8877 F40.00
G01 X8.9268 Y1.8823 F40.00
G01 X8.9111 Y1.8745 F40.00
G01 X8.8917 Y1.8669 F40.00
G01 X8.8818 Y1.8638 F40.00
G01 X8.8740 Y1.8619 F40.00
G01 X8.8645 Y1.8600 F40.00
G01 X8.8542 Y1.8587 F40.00
G01 X8.8365 Y1.8579 F40.00
G01 X5.3464 Y1.9462 F40.00
G00 Z1.0000
G00 X5.9541 Y3.1076
G01 F60.00
G01 Z-0.1001
G01 F40.00
G01 X6.1519 Y3.1076 F40.00
G01 X6.1844 Y3.0538 F40.00
G01 X6.2285 Y2.9941 F40.00
G01 X6.2379 Y2.9828 F40.00
G01 X6.2871 Y2.9287 F40.00
G01 X6.3428 Y2.8779 F40.00
G01 X6.3541 Y2.8685 F40.00
G01 X6.4138 Y2.8244 F40.00
G01 X6.4676 Y2.7919 F40.00
G01 X6.4676 Y2.5938 F40.00
G01 X6.4267 Y2.6096 F40.00
G01 X6.2671 Y2.7084 F40.00
G01 X6.1284 Y2.8349 F40.00
G01 X6.0153 Y2.9846 F40.00
G01 X5.9541 Y3.1076 F40.00
G01 X6.2096 Y3.2024 F40.00
G01 X6.2258 Y3.1685 F40.00
G01 X6.2634 Y3.1060 F40.00
G01 X6.3059 Y3.0489 F40.00
G01 X6.3549 Y2.9949 F40.00
G01 X6.4089 Y2.9459 F40.00
G01 X6.4660 Y2.9034 F40.00
G01 X6.5285 Y2.8658 F40.00
G01 X6.5623 Y2.8496 F40.00
G01 X6.5624 Y2.4555 F40.00
G01 X6.3843 Y2.5245 F40.00
G01 X6.2098 Y2.6325 F40.00
G01 X6.0582 Y2.7708 F40.00
G01 X5.9345 Y2.9346 F40.00
G01 X5.8430 Y3.1183 F40.00
G01 X5.8191 Y3.2023 F40.00
G01 X6.2096 Y3.2024 F40.00
G00 Z1.0000
G00 X6.2096 Y3.8377
G01 F60.00
G01 Z-0.1001
G01 F40.00
G01 X5.8191 Y3.8376 F40.00
G01 X5.8430 Y3.9217 F40.00
G01 X5.9345 Y4.1054 F40.00
G01 X6.0582 Y4.2692 F40.00
G01 X6.2098 Y4.4075 F40.00
G01 X6.3843 Y4.5155 F40.00
G01 X6.4854 Y4.5547 F40.00
G01 X6.4931 Y4.5585 F40.00
G01 X6.5003 Y4.5632 F40.00
G01 X6.5115 Y4.5729 F40.00
G01 X6.5173 Y4.5791 F40.00
G01 X6.5232 Y4.5873 F40.00
G01 X6.5271 Y4.5947 F40.00
G01 X6.5301 Y4.6026 F40.00
G01 X6.5323 Y4.6125 F40.00
G01 X6.5338 Y4.6279 F40.00
G01 X6.5337 Y4.6362 F40.00
G01 X6.5329 Y4.6428 F40.00
G01 X6.5310 Y4.6509 F40.00
G01 X6.5281 Y4.6586 F40.00
G01 X6.5251 Y4.6646 F40.00
G01 X6.5206 Y4.6715 F40.00
G01 X6.5119 Y4.6822 F40.00
G01 X6.5073 Y4.6870 F40.00
G01 X6.5023 Y4.6914 F40.00
G01 X6.4926 Y4.6977 F40.00
G01 X6.3732 Y4.7615 F40.00
G01 X6.2349 Y4.8749 F40.00
G01 X6.1215 Y5.0132 F40.00
G01 X6.0372 Y5.1709 F40.00
G01 X5.9853 Y5.3420 F40.00
G01 X5.9678 Y5.5200 F40.00
G01 X5.9853 Y5.6980 F40.00
G01 X6.0372 Y5.8691 F40.00
G01 X6.1215 Y6.0268 F40.00
G01 X6.2349 Y6.1651 F40.00
G01 X6.3732 Y6.2785 F40.00
G01 X6.5309 Y6.3628 F40.00
G01 X6.7020 Y6.4147 F40.00
G01 X6.8800 Y6.4322 F40.00
G01 X7.0580 Y6.4147 F40.00
G01 X7.2291 Y6.3628 F40.00
G01 X7.3868 Y6.2785 F40.00
G01 X7.5251 Y6.1651 F40.00
G01 X7.6385 Y6.0268 F40.00
G01 X7.7228 Y5.8691 F40.00
G01 X7.7747 Y5.6980 F40.00
G01 X7.7922 Y5.5200 F40.00
G01 X7.7747 Y5.3420 F40.00
G01 X7.7228 Y5.1709 F40.00
G01 X7.6385 Y5.0132 F40.00
G01 X7.5251 Y4.8749 F40.00
G01 X7.3868 Y4.7615 F40.00
G01 X7.2659 Y4.6969 F40.00
G01 X7.2587 Y4.6922 F40.00
G01 X7.2510 Y4.6854 F40.00
G01 X7.2423 Y4.6756 F40.00
G01 X7.2372 Y4.6688 F40.00
G01 X7.2324 Y4.6600 F40.00
G01 X7.2289 Y4.6505 F40.00
G01 X7.2271 Y4.6422 F40.00
G01 X7.2264 Y4.6322 F40.00
G01 X7.2269 Y4.6167 F40.00
G01 X7.2290 Y4.6053 F40.00
G01 X7.2311 Y4.5990 F40.00
G01 X7.2337 Y4.5929 F40.00
G01 X7.2370 Y4.5871 F40.00
G01 X7.2408 Y4.5817 F40.00
G01 X7.2463 Y4.5755 F40.00
G01 X7.2551 Y4.5671 F40.00
G01 X7.2602 Y4.5629 F40.00
G01 X7.2657 Y4.5592 F40.00
G01 X7.2761 Y4.5541 F40.00
G01 X7.3757 Y4.5155 F40.00
G01 X7.5502 Y4.4075 F40.00
G01 X7.7018 Y4.2692 F40.00
G01 X7.8255 Y4.1054 F40.00
G01 X7.9170 Y3.9217 F40.00
G01 X7.9409 Y3.8377 F40.00
G01 X7.5504 Y3.8377 F40.00
G01 X7.5342 Y3.8715 F40.00
G01 X7.4984 Y3.9312 F40.00
G01 X7.4530 Y3.9924 F40.00
G01 X7.4051 Y4.0451 F40.00
G01 X7.3536 Y4.0919 F40.00
G01 X7.3485 Y4.0961 F40.00
G01 X7.2912 Y4.1384 F40.00
G01 X7.2301 Y4.1750 F40.00
G01 X7.1672 Y4.2048 F40.00
G01 X7.1611 Y4.2073 F40.00
G01 X7.0956 Y4.2307 F40.00
G01 X7.0281 Y4.2477 F40.00
G01 X7.0216 Y4.2489 F40.00
G01 X6.9528 Y4.2591 F40.00
G01 X6.8833 Y4.2626 F40.00
G01 X6.8767 Y4.2626 F40.00
G01 X6.8105 Y4.2593 F40.00
G01 X6.8039 Y4.2587 F40.00
G01 X6.7351 Y4.2484 F40.00
G01 X6.6644 Y4.2307 F40.00
G01 X6.5989 Y4.2073 F40.00
G01 X6.5928 Y4.2048 F40.00
G01 X6.5299 Y4.1750 F40.00
G01 X6.4688 Y4.1384 F40.00
G01 X6.4115 Y4.0961 F40.00
G01 X6.4064 Y4.0919 F40.00
G01 X6.3549 Y4.0451 F40.00
G01 X6.3070 Y3.9924 F40.00
G01 X6.2616 Y3.9312 F40.00
G01 X6.2258 Y3.8715 F40.00
G01 X6.2096 Y3.8377 F40.00
G01 X5.9541 Y3.9324 F40.00
G01 X6.0153 Y4.0554 F40.00
G01 X6.1284 Y4.2051 F40.00
G01 X6.2671 Y4.3316 F40.00
G01 X6.4267 Y4.4304 F40.00
G01 X6.5208 Y4.4668 F40.00
G01 X6.5305 Y4.4712 F40.00
G01 X6.5414 Y4.4770 F40.00
G01 X6.5552 Y4.4860 F40.00
G01 X6.5670 Y4.4956 F40.00
G01 X6.5810 Y4.5084 F40.00
G01 X6.5881 Y4.5161 F40.00
G01 X6.5932 Y4.5224 F40.00
G01 X6.6013 Y4.5336 F40.00
G01 X6.6087 Y4.5461 F40.00
G01 X6.6147 Y4.5585 F40.00
G01 X6.6198 Y4.5721 F40.00
G01 X6.6235 Y4.5854 F40.00
G01 X6.6262 Y4.5997 F40.00
G01 X6.6281 Y4.6181 F40.00
G01 X6.6286 Y4.6324 F40.00
G01 X6.6280 Y4.6460 F40.00
G01 X6.6260 Y4.6601 F40.00
G01 X6.6230 Y4.6734 F40.00
G01 X6.6187 Y4.6870 F40.00
G01 X6.6135 Y4.6996 F40.00
G01 X6.6070 Y4.7123 F40.00
G01 X6.5997 Y4.7238 F40.00
G01 X6.5913 Y4.7348 F40.00
G01 X6.6305 Y4.7208 F40.00
G01 X6.6396 Y4.7179 F40.00
G01 X6.7089 Y4.7005 F40.00
G01 X6.7194 Y4.6982 F40.00
G01 X6.7991 Y4.6866 F40.00
G01 X6.8788 Y4.6826 F40.00
G01 X6.9609 Y4.6866 F40.00
G01 X7.0406 Y4.6982 F40.00
G01 X7.0511 Y4.7005 F40.00
G01 X7.1204 Y4.7179 F40.00
G01 X7.1295 Y4.7208 F40.00
G01 X7.1682 Y4.7346 F40.00
G01 X7.1607 Y4.7247 F40.00
G01 X7.1530 Y4.7124 F40.00
G01 X7.1466 Y4.7001 F40.00
G01 X7.1411 Y4.6867 F40.00
G01 X7.1375 Y4.6751 F40.00
G01 X7.1344 Y4.6617 F40.00
G01 X7.1324 Y4.6473 F40.00
G01 X7.1317 Y4.6335 F40.00
G01 X7.1321 Y4.6143 F40.00
G01 X7.1332 Y4.6024 F40.00
G01 X7.1355 Y4.5890 F40.00
G01 X7.1396 Y4.5736 F40.00
G01 X7.1446 Y4.5602 F40.00
G01 X7.1504 Y4.5479 F40.00
G01 X7.1575 Y4.5356 F40.00
G01 X7.1668 Y4.5226 F40.00
G01 X7.1773 Y4.5106 F40.00
G01 X7.1935 Y4.4951 F40.00
G01 X7.2060 Y4.4852 F40.00
G01 X7.2179 Y4.4774 F40.00
G01 X7.2284 Y4.4717 F40.00
G01 X7.2393 Y4.4668 F40.00
G01 X7.3333 Y4.4304 F40.00
G01 X7.4929 Y4.3316 F40.00
G01 X7.6316 Y4.2051 F40.00
G01 X7.7447 Y4.0554 F40.00
G01 X7.8059 Y3.9324 F40.00
G01 X7.6081 Y3.9324 F40.00
G01 X7.5756 Y3.9862 F40.00
G01 X7.5315 Y4.0459 F40.00
G01 X7.5221 Y4.0572 F40.00
G01 X7.4713 Y4.1129 F40.00
G01 X7.4164 Y4.1629 F40.00
G01 X7.4049 Y4.1722 F40.00
G01 X7.3442 Y4.2169 F40.00
G01 X7.2792 Y4.2560 F40.00
G01 X7.2676 Y4.2621 F40.00
G01 X7.1994 Y4.2941 F40.00
G01 X7.1295 Y4.3192 F40.00
G01 X7.1154 Y4.3234 F40.00
G01 X7.0422 Y4.3415 F40.00
G01 X6.9700 Y4.3524 F40.00
G01 X6.9541 Y4.3539 F40.00
G01 X6.8788 Y4.3574 F40.00
G01 X6.8047 Y4.3538 F40.00
G01 X6.7900 Y4.3524 F40.00
G01 X6.7178 Y4.3415 F40.00
G01 X6.6446 Y4.3234 F40.00
G01 X6.6305 Y4.3192 F40.00
G01 X6.5606 Y4.2941 F40.00
G01 X6.4924 Y4.2621 F40.00
G01 X6.4793 Y4.2551 F40.00
G01 X6.4158 Y4.2169 F40.00
G01 X6.3551 Y4.1722 F40.00
G01 X6.3436 Y4.1629 F40.00
G01 X6.2887 Y4.1129 F40.00
G01 X6.2379 Y4.0572 F40.00
G01 X6.2285 Y4.0459 F40.00
G01 X6.1844 Y3.9862 F40.00
G01 X6.1519 Y3.9324 F40.00
G01 X5.9541 Y3.9324 F40.00
G00 Z1.0000
G00 X6.6171 Y4.4141
G01 F60.00
G01 Z-0.1001
G01 F40.00
G01 X6.6267 Y4.4220 F40.00
G01 X6.6414 Y4.4351 F40.00
G01 X6.6505 Y4.4441 F40.00
G01 X6.6592 Y4.4536 F40.00
G01 X6.6681 Y4.4644 F40.00
G01 X6.6757 Y4.4747 F40.00
G01 X6.6837 Y4.4868 F40.00
G01 X6.6902 Y4.4978 F40.00
G01 X6.6962 Y4.5092 F40.00
G01 X6.7020 Y4.5219 F40.00
G01 X6.7067 Y4.5338 F40.00
G01 X6.7115 Y4.5482 F40.00
G01 X6.7152 Y4.5617 F40.00
G01 X6.7179 Y4.5742 F40.00
G01 X6.7200 Y4.5869 F40.00
G01 X6.7217 Y4.6020 F40.00
G01 X6.7778 Y4.5937 F40.00
G01 X6.7910 Y4.5922 F40.00
G01 X6.8674 Y4.5882 F40.00
G01 X6.8788 Y4.5879 F40.00
G01 X6.8926 Y4.5882 F40.00
G01 X6.9690 Y4.5922 F40.00
G01 X6.9822 Y4.5937 F40.00
G01 X7.0380 Y4.6020 F40.00
G01 X7.0395 Y4.5882 F40.00
G01 X7.0418 Y4.5746 F40.00
G01 X7.0445 Y4.5623 F40.00
G01 X7.0484 Y4.5479 F40.00
G01 X7.0528 Y4.5348 F40.00
G01 X7.0575 Y4.5231 F40.00
G01 X7.0634 Y4.5101 F40.00
G01 X7.0698 Y4.4979 F40.00
G01 X7.0775 Y4.4850 F40.00
G01 X7.0845 Y4.4746 F40.00
G01 X7.0928 Y4.4635 F40.00
G01 X7.1009 Y4.4538 F40.00
G01 X7.1106 Y4.4434 F40.00
G01 X7.1235 Y4.4308 F40.00
G01 X7.1333 Y4.4220 F40.00
G01 X7.1429 Y4.4141 F40.00
G01 X7.0630 Y4.4339 F40.00
G01 X7.0500 Y4.4362 F40.00
G01 X6.9833 Y4.4461 F40.00
G01 X6.9725 Y4.4475 F40.00
G01 X6.9605 Y4.4484 F40.00
G01 X6.8920 Y4.4518 F40.00
G01 X6.8788 Y4.4521 F40.00
G01 X6.7995 Y4.4484 F40.00
G01 X6.7875 Y4.4475 F40.00
G01 X6.7767 Y4.4461 F40.00
G01 X6.7100 Y4.4362 F40.00
G01 X6.6970 Y4.4339 F40.00
G01 X6.6171 Y4.4141 F40.00
G00 Z1.0000
G00 X6.2267 Y5.8730
G01 F60.00
G01 Z-0.1001
G01 F40.00
G01 X6.2235 Y5.8671 F40.00
G01 X6.1939 Y5.8042 F40.00
G01 X6.1693 Y5.7356 F40.00
G01 X6.1516 Y5.6649 F40.00
G01 X6.1409 Y5.5928 F40.00
G01 X6.1374 Y5.5200 F40.00
G01 X6.1409 Y5.4472 F40.00
G01 X6.1516 Y5.3751 F40.00
G01 X6.1693 Y5.3044 F40.00
G01 X6.1939 Y5.2358 F40.00
G01 X6.2250 Y5.1699 F40.00
G01 X6.2625 Y5.1074 F40.00
G01 X6.3059 Y5.0489 F40.00
G01 X6.3549 Y4.9949 F40.00
G01 X6.4089 Y4.9459 F40.00
G01 X6.4674 Y4.9025 F40.00
G01 X6.5299 Y4.8650 F40.00
G01 X6.5958 Y4.8339 F40.00
G01 X6.6644 Y4.8093 F40.00
G01 X6.7351 Y4.7916 F40.00
G01 X6.8072 Y4.7809 F40.00
G01 X6.8800 Y4.7774 F40.00
G01 X6.9528 Y4.7809 F40.00
G01 X7.0249 Y4.7916 F40.00
G01 X7.0956 Y4.8093 F40.00
G01 X7.1642 Y4.8339 F40.00
G01 X7.2301 Y4.8650 F40.00
G01 X7.2926 Y4.9025 F40.00
G01 X7.3511 Y4.9459 F40.00
G01 X7.4051 Y4.9949 F40.00
G01 X7.4541 Y5.0489 F40.00
G01 X7.4975 Y5.1074 F40.00
G01 X7.5350 Y5.1699 F40.00
G01 X7.5661 Y5.2358 F40.00
G01 X7.5907 Y5.3044 F40.00
G01 X7.6084 Y5.3751 F40.00
G01 X7.6191 Y5.4472 F40.00
G01 X7.6226 Y5.5200 F40.00
G01 X7.6191 Y5.5928 F40.00
G01 X7.6084 Y5.6649 F40.00
G01 X7.5907 Y5.7356 F40.00
G01 X7.5661 Y5.8042 F40.00
G01 X7.5350 Y5.8701 F40.00
G01 X7.4975 Y5.9326 F40.00
G01 X7.4541 Y5.9911 F40.00
G01 X7.4051 Y6.0451 F40.00
G01 X7.3511 Y6.0941 F40.00
G01 X7.2926 Y6.1375 F40.00
G01 X7.2301 Y6.1750 F40.00
G01 X7.1642 Y6.2061 F40.00
G01 X7.0956 Y6.2307 F40.00
G01 X7.0249 Y6.2484 F40.00
G01 X6.9528 Y6.2591 F40.00
G01 X6.8800 Y6.2626 F40.00
G01 X6.8072 Y6.2591 F40.00
G01 X6.7351 Y6.2484 F40.00
G01 X6.6644 Y6.2307 F40.00
G01 X6.5958 Y6.2061 F40.00
G01 X6.5299 Y6.1750 F40.00
G01 X6.4674 Y6.1375 F40.00
G01 X6.4089 Y6.0941 F40.00
G01 X6.3549 Y6.0451 F40.00
G01 X6.3059 Y5.9911 F40.00
G01 X6.2625 Y5.9326 F40.00
G01 X6.2267 Y5.8730 F40.00
G00 Z1.0000
G00 X5.9853 Y7.6980
G01 F60.00
G01 Z-0.1001
G01 F40.00
G01 X5.9678 Y7.5200 F40.00
G01 X5.9853 Y7.3420 F40.00
G01 X6.0372 Y7.1709 F40.00
G01 X6.1215 Y7.0132 F40.00
G01 X6.2349 Y6.8749 F40.00
G01 X6.3732 Y6.7615 F40.00
G01 X6.5309 Y6.6772 F40.00
G01 X6.7020 Y6.6253 F40.00
G01 X6.8800 Y6.6078 F40.00
G01 X7.0580 Y6.6253 F40.00
G01 X7.2291 Y6.6772 F40.00
G01 X7.3868 Y6.7615 F40.00
G01 X7.5251 Y6.8749 F40.00
G01 X7.6385 Y7.0132 F40.00
G01 X7.7228 Y7.1709 F40.00
G01 X7.7760 Y7.3460 F40.00
G01 X7.8173 Y7.4570 F40.00
G01 X7.8262 Y7.5812 F40.00
G01 X7.7997 Y7.7028 F40.00
G01 X7.7417 Y7.8095 F40.00
G01 X7.7378 Y7.8198 F40.00
G01 X7.7228 Y7.8691 F40.00
G01 X7.6385 Y8.0268 F40.00
G01 X7.5251 Y8.1651 F40.00
G01 X7.3868 Y8.2785 F40.00
G01 X7.2291 Y8.3628 F40.00
G01 X7.0580 Y8.4147 F40.00
G01 X6.8800 Y8.4322 F40.00
G01 X6.7020 Y8.4147 F40.00
G01 X6.5309 Y8.3628 F40.00
G01 X6.3732 Y8.2785 F40.00
G01 X6.2349 Y8.1651 F40.00
G01 X6.1215 Y8.0268 F40.00
G01 X6.0372 Y7.8691 F40.00
G01 X5.9853 Y7.6980 F40.00
G01 X6.2267 Y7.8730 F40.00
G01 X6.2625 Y7.9326 F40.00
G01 X6.3059 Y7.9911 F40.00
G01 X6.3549 Y8.0451 F40.00
G01 X6.4102 Y8.0951 F40.00
G01 X6.4674 Y8.1375 F40.00
G01 X6.5299 Y8.1750 F40.00
G01 X6.5958 Y8.2061 F40.00
G01 X6.6644 Y8.2307 F40.00
G01 X6.7319 Y8.2477 F40.00
G01 X6.7384 Y8.2489 F40.00
G01 X6.8072 Y8.2591 F40.00
G01 X6.8767 Y8.2626 F40.00
G01 X6.8833 Y8.2626 F40.00
G01 X6.9528 Y8.2591 F40.00
G01 X7.0249 Y8.2484 F40.00
G01 X7.0956 Y8.2307 F40.00
G01 X7.1611 Y8.2073 F40.00
G01 X7.1672 Y8.2048 F40.00
G01 X7.2301 Y8.1750 F40.00
G01 X7.2898 Y8.1393 F40.00
G01 X7.2953 Y8.1356 F40.00
G01 X7.3498 Y8.0951 F40.00
G01 X7.4051 Y8.0451 F40.00
G01 X7.4541 Y7.9911 F40.00
G01 X7.4975 Y7.9326 F40.00
G01 X7.5357 Y7.8686 F40.00
G01 X7.5661 Y7.8042 F40.00
G01 X7.5902 Y7.7372 F40.00
G01 X7.5938 Y7.7235 F40.00
G01 X7.5980 Y7.7186 F40.00
G01 X7.6126 Y7.6988 F40.00
G01 X7.6261 Y7.6762 F40.00
G01 X7.6374 Y7.6525 F40.00
G01 X7.6462 Y7.6277 F40.00
G01 X7.6526 Y7.6022 F40.00
G01 X7.6561 Y7.5795 F40.00
G01 X7.6567 Y7.5729 F40.00
G01 X7.6577 Y7.5500 F40.00
G01 X7.6567 Y7.5271 F40.00
G01 X7.6561 Y7.5205 F40.00
G01 X7.6526 Y7.4978 F40.00
G01 X7.6462 Y7.4723 F40.00
G01 X7.6374 Y7.4475 F40.00
G01 X7.6261 Y7.4238 F40.00
G01 X7.6123 Y7.4007 F40.00
G01 X7.6080 Y7.3735 F40.00
G01 X7.5911 Y7.3060 F40.00
G01 X7.5655 Y7.2343 F40.00
G01 X7.5350 Y7.1699 F40.00
G01 X7.4993 Y7.1102 F40.00
G01 X7.4956 Y7.1047 F40.00
G01 X7.4541 Y7.0489 F40.00
G01 X7.4074 Y6.9973 F40.00
G01 X7.4027 Y6.9926 F40.00
G01 X7.3511 Y6.9459 F40.00
G01 X7.2926 Y6.9025 F40.00
G01 X7.2330 Y6.8667 F40.00
G01 X7.2271 Y6.8635 F40.00
G01 X7.1642 Y6.8339 F40.00
G01 X7.0987 Y6.8104 F40.00
G01 X7.0924 Y6.8084 F40.00
G01 X7.0281 Y6.7923 F40.00
G01 X7.0216 Y6.7911 F40.00
G01 X6.9528 Y6.7809 F40.00
G01 X6.8800 Y6.7774 F40.00
G01 X6.8072 Y6.7809 F40.00
G01 X6.7384 Y6.7911 F40.00
G01 X6.7319 Y6.7923 F40.00
G01 X6.6644 Y6.8093 F40.00
G01 X6.5989 Y6.8327 F40.00
G01 X6.5928 Y6.8352 F40.00
G01 X6.5299 Y6.8650 F40.00
G01 X6.4674 Y6.9025 F40.00
G01 X6.4115 Y6.9439 F40.00
G01 X6.4064 Y6.9481 F40.00
G01 X6.3549 Y6.9949 F40.00
G01 X6.3059 Y7.0489 F40.00
G01 X6.2625 Y7.1074 F40.00
G01 X6.2267 Y7.1670 F40.00
G01 X6.2235 Y7.1729 F40.00
G01 X6.1939 Y7.2358 F40.00
G01 X6.1693 Y7.3044 F40.00
G01 X6.1523 Y7.3719 F40.00
G01 X6.1511 Y7.3784 F40.00
G01 X6.1409 Y7.4472 F40.00
G01 X6.1374 Y7.5167 F40.00
G01 X6.1374 Y7.5233 F40.00
G01 X6.1409 Y7.5928 F40.00
G01 X6.1516 Y7.6649 F40.00
G01 X6.1693 Y7.7356 F40.00
G01 X6.1927 Y7.8011 F40.00
G01 X6.1952 Y7.8072 F40.00
G01 X6.2235 Y7.8671 F40.00
G01 X6.2267 Y7.8730 F40.00
G00 Z1.0000
G00 X6.2267 Y9.8730
G01 F60.00
G01 Z-0.1001
G01 F40.00
G01 X6.2235 Y9.8671 F40.00
G01 X6.1939 Y9.8042 F40.00
G01 X6.1704 Y9.7387 F40.00
G01 X6.1684 Y9.7324 F40.00
G01 X6.1523 Y9.6681 F40.00
G01 X6.1511 Y9.6616 F40.00
G01 X6.1409 Y9.5928 F40.00
G01 X6.1374 Y9.5233 F40.00
G01 X6.1374 Y9.5167 F40.00
G01 X6.1409 Y9.4472 F40.00
G01 X6.1516 Y9.3751 F40.00
G01 X6.1693 Y9.3044 F40.00
G01 X6.1927 Y9.2389 F40.00
G01 X6.1952 Y9.2328 F40.00
G01 X6.2235 Y9.1729 F40.00
G01 X6.2267 Y9.1670 F40.00
G01 X6.2625 Y9.1074 F40.00
G01 X6.3039 Y9.0515 F40.00
G01 X6.3081 Y9.0464 F40.00
G01 X6.3549 Y8.9949 F40.00
G01 X6.4089 Y8.9459 F40.00
G01 X6.4647 Y8.9044 F40.00
G01 X6.4702 Y8.9007 F40.00
G01 X6.5299 Y8.8650 F40.00
G01 X6.5928 Y8.8352 F40.00
G01 X6.5989 Y8.8327 F40.00
G01 X6.6644 Y8.8093 F40.00
G01 X6.7367 Y8.7913 F40.00
G01 X6.8072 Y8.7809 F40.00
G01 X6.8800 Y8.7774 F40.00
G01 X6.9528 Y8.7809 F40.00
G01 X7.0216 Y8.7911 F40.00
G01 X7.0281 Y8.7923 F40.00
G01 X7.0924 Y8.8084 F40.00
G01 X7.0987 Y8.8104 F40.00
G01 X7.1642 Y8.8339 F40.00
G01 X7.2315 Y8.8658 F40.00
G01 X7.2926 Y8.9025 F40.00
G01 X7.3511 Y8.9459 F40.00
G01 X7.4051 Y8.9949 F40.00
G01 X7.4530 Y9.0476 F40.00
G01 X7.4975 Y9.1074 F40.00
G01 X7.5342 Y9.1685 F40.00
G01 X7.5655 Y9.2343 F40.00
G01 X7.5721 Y9.2522 F40.00
G01 X12.5191 Y9.2523 F40.00
G01 X13.2619 Y8.5095 F40.00
G01 X13.2776 Y8.4952 F40.00
G01 X13.2828 Y8.4910 F40.00
G01 X13.3012 Y8.4774 F40.00
G01 X13.3209 Y8.4655 F40.00
G01 X13.3267 Y8.4624 F40.00
G01 X13.3475 Y8.4526 F40.00
G01 X13.3739 Y8.4433 F40.00
G01 X13.3978 Y8.4374 F40.00
G01 X13.4205 Y8.4339 F40.00
G01 X13.4271 Y8.4333 F40.00
G01 X13.4500 Y8.4323 F40.00
G01 X14.6023 Y8.4323 F40.00
G01 X14.6024 Y8.2500 F40.00
G01 X14.6029 Y8.2417 F40.00
G01 X14.6044 Y8.2336 F40.00
G01 X14.6075 Y8.2241 F40.00
G01 X14.6128 Y8.2138 F40.00
G01 X14.6199 Y8.2046 F40.00
G01 X14.6271 Y8.1977 F40.00
G01 X14.6352 Y8.1920 F40.00
G01 X14.6441 Y8.1875 F40.00
G01 X14.6552 Y8.1840 F40.00
G01 X14.6650 Y8.1825 F40.00
G01 X16.1717 Y8.1824 F40.00
G01 X16.1832 Y8.1836 F40.00
G01 X16.1943 Y8.1869 F40.00
G01 X16.2048 Y8.1920 F40.00
G01 X16.2142 Y8.1988 F40.00
G01 X16.2223 Y8.2071 F40.00
G01 X16.2289 Y8.2167 F40.00
G01 X16.2337 Y8.2272 F40.00
G01 X16.2367 Y8.2384 F40.00
G01 X16.2376 Y8.2500 F40.00
G01 X16.2376 Y9.1533 F40.00
G01 X16.2360 Y9.1648 F40.00
G01 X16.2325 Y9.1759 F40.00
G01 X16.2272 Y9.1862 F40.00
G01 X16.2212 Y9.1942 F40.00
G01 X16.2129 Y9.2023 F40.00
G01 X16.2033 Y9.2089 F40.00
G01 X16.1928 Y9.2137 F40.00
G01 X16.1816 Y9.2167 F40.00
G01 X16.1700 Y9.2176 F40.00
G01 X14.6700 Y9.2176 F40.00
G01 X14.6634 Y9.2173 F40.00
G01 X14.6536 Y9.2156 F40.00
G01 X14.6426 Y9.2118 F40.00
G01 X14.6338 Y9.2072 F40.00
G01 X14.6258 Y9.2012 F40.00
G01 X14.6188 Y9.1942 F40.00
G01 X14.6128 Y9.1862 F40.00
G01 X14.6075 Y9.1759 F40.00
G01 X14.6044 Y9.1664 F40.00
G01 X14.6029 Y9.1583 F40.00
G01 X14.6024 Y9.1500 F40.00
G01 X14.6024 Y8.9678 F40.00
G01 X13.5609 Y8.9677 F40.00
G01 X12.8169 Y9.7116 F40.00
G01 X12.7999 Y9.7270 F40.00
G01 X12.7815 Y9.7407 F40.00
G01 X12.7759 Y9.7444 F40.00
G01 X12.7562 Y9.7561 F40.00
G01 X12.7325 Y9.7674 F40.00
G01 X12.7109 Y9.7752 F40.00
G01 X12.7045 Y9.7771 F40.00
G01 X12.6822 Y9.7826 F40.00
G01 X12.6562 Y9.7865 F40.00
G01 X12.6300 Y9.7877 F40.00
G01 X7.5721 Y9.7877 F40.00
G01 X7.5655 Y9.8057 F40.00
G01 X7.5357 Y9.8686 F40.00
G01 X7.4993 Y9.9298 F40.00
G01 X7.4956 Y9.9353 F40.00
G01 X7.4541 Y9.9911 F40.00
G01 X7.4074 Y10.0427 F40.00
G01 X7.4027 Y10.0474 F40.00
G01 X7.3536 Y10.0919 F40.00
G01 X7.3485 Y10.0961 F40.00
G01 X7.2926 Y10.1375 F40.00
G01 X7.2330 Y10.1733 F40.00
G01 X7.2271 Y10.1765 F40.00
G01 X7.1642 Y10.2061 F40.00
G01 X7.0956 Y10.2307 F40.00
G01 X7.0281 Y10.2477 F40.00
G01 X7.0216 Y10.2489 F40.00
G01 X6.9511 Y10.2592 F40.00
G01 X6.8800 Y10.2626 F40.00
G01 X6.8105 Y10.2593 F40.00
G01 X6.8039 Y10.2587 F40.00
G01 X6.7351 Y10.2484 F40.00
G01 X6.6644 Y10.2307 F40.00
G01 X6.5989 Y10.2073 F40.00
G01 X6.5928 Y10.2048 F40.00
G01 X6.5299 Y10.1750 F40.00
G01 X6.4674 Y10.1375 F40.00
G01 X6.4115 Y10.0961 F40.00
G01 X6.4064 Y10.0919 F40.00
G01 X6.3549 Y10.0451 F40.00
G01 X6.3081 Y9.9936 F40.00
G01 X6.3039 Y9.9885 F40.00
G01 X6.2625 Y9.9326 F40.00
G01 X6.2267 Y9.8730 F40.00
G00 Z1.0000
G00 X7.6326 Y9.8854
G01 F60.00
G01 Z-0.1001
G01 F40.00
G01 X7.6349 Y9.8840 F40.00
G01 X7.6376 Y9.8825 F40.00
G01 X7.6340 Y9.8825 F40.00
G01 X7.6326 Y9.8854 F40.00
G00 Z1.0000
G00 X7.6375 Y9.1575
G01 F60.00
G01 Z-0.1001
G01 F40.00
G01 X7.6343 Y9.1556 F40.00
G01 X7.6324 Y9.1543 F40.00
G01 X7.6340 Y9.1575 F40.00
G01 X7.6375 Y9.1575 F40.00
G00 Z1.0000
G00 X7.6375 Y11.1575
G01 F60.00
G01 Z-0.1001
G01 F40.00
G01 X7.6343 Y11.1556 F40.00
G01 X7.6324 Y11.1543 F40.00
G01 X7.6340 Y11.1575 F40.00
G01 X7.6375 Y11.1575 F40.00
G00 Z1.0000
G00 X7.6326 Y11.8854
G01 F60.00
G01 Z-0.1001
G01 F40.00
G01 X7.6349 Y11.8840 F40.00
G01 X7.6376 Y11.8825 F40.00
G01 X7.6340 Y11.8825 F40.00
G01 X7.6326 Y11.8854 F40.00
G00 Z1.0000
G00 X7.5550 Y12.7774
G01 F60.00
G01 Z-0.1001
G01 F40.00
G01 X7.5666 Y12.7783 F40.00
G01 X7.5730 Y12.7798 F40.00
G01 X7.5793 Y12.7819 F40.00
G01 X7.5854 Y12.7846 F40.00
G01 X7.5912 Y12.7878 F40.00
G01 X7.5966 Y12.7917 F40.00
G01 X7.6016 Y12.7960 F40.00
G01 X7.6062 Y12.8008 F40.00
G01 X7.6103 Y12.8060 F40.00
G01 X7.6139 Y12.8117 F40.00
G01 X7.6168 Y12.8176 F40.00
G01 X7.6192 Y12.8238 F40.00
G01 X7.6210 Y12.8302 F40.00
G01 X7.6226 Y12.8417 F40.00
G01 X7.6226 Y14.1540 F40.00
G01 X14.6009 Y21.1322 F40.00
G01 X14.6023 Y21.1322 F40.00
G01 X14.6024 Y20.9500 F40.00
G01 X14.6027 Y20.9434 F40.00
G01 X14.6040 Y20.9352 F40.00
G01 X14.6069 Y20.9257 F40.00
G01 X14.6111 Y20.9167 F40.00
G01 X14.6167 Y20.9084 F40.00
G01 X14.6246 Y20.8999 F40.00
G01 X14.6324 Y20.8938 F40.00
G01 X14.6411 Y20.8888 F40.00
G01 X14.6504 Y20.8853 F40.00
G01 X14.6601 Y20.8831 F40.00
G01 X14.6700 Y20.8824 F40.00
G01 X16.1700 Y20.8824 F40.00
G01 X16.1766 Y20.8827 F40.00
G01 X16.1832 Y20.8836 F40.00
G01 X16.1943 Y20.8869 F40.00
G01 X16.2004 Y20.8896 F40.00
G01 X16.2062 Y20.8928 F40.00
G01 X16.2154 Y20.8999 F40.00
G01 X16.2201 Y20.9046 F40.00
G01 X16.2243 Y20.9097 F40.00
G01 X16.2289 Y20.9167 F40.00
G01 X16.2318 Y20.9226 F40.00
G01 X16.2347 Y20.9304 F40.00
G01 X16.2364 Y20.9368 F40.00
G01 X16.2373 Y20.9434 F40.00
G01 X16.2376 Y20.9500 F40.00
G01 X16.2376 Y21.8517 F40.00
G01 X16.2371 Y21.8583 F40.00
G01 X16.2360 Y21.8648 F40.00
G01 X16.2342 Y21.8712 F40.00
G01 X16.2318 Y21.8774 F40.00
G01 X16.2289 Y21.8833 F40.00
G01 X16.2253 Y21.8890 F40.00
G01 X16.2212 Y21.8942 F40.00
G01 X16.2166 Y21.8990 F40.00
G01 X16.2076 Y21.9062 F40.00
G01 X16.2019 Y21.9097 F40.00
G01 X16.1959 Y21.9125 F40.00
G01 X16.1896 Y21.9147 F40.00
G01 X16.1832 Y21.9164 F40.00
G01 X16.1766 Y21.9173 F40.00
G01 X16.1700 Y21.9176 F40.00
G01 X14.6700 Y21.9176 F40.00
G01 X14.6584 Y21.9167 F40.00
G01 X14.6472 Y21.9137 F40.00
G01 X14.6367 Y21.9089 F40.00
G01 X14.6284 Y21.9033 F40.00
G01 X14.6234 Y21.8990 F40.00
G01 X14.6188 Y21.8942 F40.00
G01 X14.6147 Y21.8890 F40.00
G01 X14.6111 Y21.8833 F40.00
G01 X14.6075 Y21.8759 F40.00
G01 X14.6053 Y21.8696 F40.00
G01 X14.6036 Y21.8632 F40.00
G01 X14.6027 Y21.8566 F40.00
G01 X14.6024 Y21.8500 F40.00
G01 X14.6024 Y21.6678 F40.00
G01 X14.4900 Y21.6677 F40.00
G01 X14.4671 Y21.6667 F40.00
G01 X14.4605 Y21.6661 F40.00
G01 X14.4394 Y21.6629 F40.00
G01 X14.4155 Y21.6571 F40.00
G01 X14.4091 Y21.6552 F40.00
G01 X14.3875 Y21.6474 F40.00
G01 X14.3667 Y21.6376 F40.00
G01 X14.3609 Y21.6345 F40.00
G01 X14.3412 Y21.6226 F40.00
G01 X14.3228 Y21.6090 F40.00
G01 X14.3176 Y21.6048 F40.00
G01 X14.3019 Y21.5905 F40.00
G01 X6.9740 Y14.2626 F40.00
G01 X6.2033 Y14.2626 F40.00
G01 X6.1967 Y14.2621 F40.00
G01 X6.1902 Y14.2610 F40.00
G01 X6.1838 Y14.2592 F40.00
G01 X6.1776 Y14.2568 F40.00
G01 X6.1717 Y14.2539 F40.00
G01 X6.1660 Y14.2503 F40.00
G01 X6.1608 Y14.2462 F40.00
G01 X6.1560 Y14.2416 F40.00
G01 X6.1488 Y14.2326 F40.00
G01 X6.1453 Y14.2269 F40.00
G01 X6.1425 Y14.2209 F40.00
G01 X6.1403 Y14.2146 F40.00
G01 X6.1386 Y14.2082 F40.00
G01 X6.1374 Y14.1967 F40.00
G01 X6.1374 Y12.8450 F40.00
G01 X6.1377 Y12.8384 F40.00
G01 X6.1386 Y12.8318 F40.00
G01 X6.1419 Y12.8207 F40.00
G01 X6.1446 Y12.8146 F40.00
G01 X6.1478 Y12.8088 F40.00
G01 X6.1517 Y12.8034 F40.00
G01 X6.1560 Y12.7984 F40.00
G01 X6.1608 Y12.7938 F40.00
G01 X6.1660 Y12.7897 F40.00
G01 X6.1717 Y12.7861 F40.00
G01 X6.1776 Y12.7832 F40.00
G01 X6.1838 Y12.7808 F40.00
G01 X6.1902 Y12.7790 F40.00
G01 X6.1967 Y12.7779 F40.00
G01 X6.2033 Y12.7774 F40.00
G01 X7.5550 Y12.7774 F40.00
G00 Z1.0000
G00 X6.2267 Y11.8730
G01 F60.00
G01 Z-0.1001
G01 F40.00
G01 X6.2235 Y11.8671 F40.00
G01 X6.1939 Y11.8042 F40.00
G01 X6.1704 Y11.7387 F40.00
G01 X6.1684 Y11.7324 F40.00
G01 X6.1523 Y11.6681 F40.00
G01 X6.1511 Y11.6616 F40.00
G01 X6.1409 Y11.5928 F40.00
G01 X6.1374 Y11.5233 F40.00
G01 X6.1374 Y11.5167 F40.00
G01 X6.1409 Y11.4472 F40.00
G01 X6.1516 Y11.3751 F40.00
G01 X6.1693 Y11.3044 F40.00
G01 X6.1927 Y11.2389 F40.00
G01 X6.1952 Y11.2328 F40.00
G01 X6.2235 Y11.1729 F40.00
G01 X6.2267 Y11.1670 F40.00
G01 X6.2625 Y11.1074 F40.00
G01 X6.3039 Y11.0515 F40.00
G01 X6.3081 Y11.0464 F40.00
G01 X6.3549 Y10.9949 F40.00
G01 X6.4089 Y10.9459 F40.00
G01 X6.4674 Y10.9025 F40.00
G01 X6.5270 Y10.8667 F40.00
G01 X6.5329 Y10.8635 F40.00
G01 X6.5928 Y10.8352 F40.00
G01 X6.5989 Y10.8327 F40.00
G01 X6.6644 Y10.8093 F40.00
G01 X6.7319 Y10.7923 F40.00
G01 X6.7384 Y10.7911 F40.00
G01 X6.8072 Y10.7809 F40.00
G01 X6.8767 Y10.7774 F40.00
G01 X6.8833 Y10.7774 F40.00
G01 X6.9495 Y10.7807 F40.00
G01 X6.9561 Y10.7813 F40.00
G01 X7.0249 Y10.7916 F40.00
G01 X7.0956 Y10.8093 F40.00
G01 X7.1642 Y10.8339 F40.00
G01 X7.2301 Y10.8650 F40.00
G01 X7.2926 Y10.9025 F40.00
G01 X7.3511 Y10.9459 F40.00
G01 X7.4051 Y10.9949 F40.00
G01 X7.4530 Y11.0476 F40.00
G01 X7.4975 Y11.1074 F40.00
G01 X7.5342 Y11.1685 F40.00
G01 X7.5655 Y11.2343 F40.00
G01 X7.5721 Y11.2522 F40.00
G01 X8.2946 Y11.2523 F40.00
G01 X8.3192 Y11.2534 F40.00
G01 X8.3436 Y11.2568 F40.00
G01 X8.3501 Y11.2581 F40.00
G01 X8.3723 Y11.2638 F40.00
G01 X8.3971 Y11.2726 F40.00
G01 X8.4208 Y11.2839 F40.00
G01 X8.4405 Y11.2956 F40.00
G01 X8.4461 Y11.2993 F40.00
G01 X8.4657 Y11.3141 F40.00
G01 X8.4839 Y11.3307 F40.00
G01 X9.7990 Y12.6458 F40.00
G01 X9.8077 Y12.6501 F40.00
G01 X9.8301 Y12.6637 F40.00
G01 X9.8499 Y12.6784 F40.00
G01 X9.8693 Y12.6961 F40.00
G01 X9.8870 Y12.7155 F40.00
G01 X9.9026 Y12.7367 F40.00
G01 X9.9161 Y12.7592 F40.00
G01 X9.9280 Y12.7845 F40.00
G01 X9.9362 Y12.8077 F40.00
G01 X9.9426 Y12.8332 F40.00
G01 X9.9465 Y12.8592 F40.00
G01 X9.9477 Y12.8854 F40.00
G01 X9.9477 Y15.2091 F40.00
G01 X14.6009 Y19.8622 F40.00
G01 X14.6023 Y19.8622 F40.00
G01 X14.6024 Y19.6800 F40.00
G01 X14.6027 Y19.6734 F40.00
G01 X14.6040 Y19.6652 F40.00
G01 X14.6069 Y19.6557 F40.00
G01 X14.6111 Y19.6467 F40.00
G01 X14.6167 Y19.6384 F40.00
G01 X14.6246 Y19.6299 F40.00
G01 X14.6324 Y19.6238 F40.00
G01 X14.6411 Y19.6188 F40.00
G01 X14.6504 Y19.6153 F40.00
G01 X14.6601 Y19.6131 F40.00
G01 X14.6700 Y19.6124 F40.00
G01 X16.1700 Y19.6124 F40.00
G01 X16.1766 Y19.6127 F40.00
G01 X16.1832 Y19.6136 F40.00
G01 X16.1943 Y19.6169 F40.00
G01 X16.2048 Y19.6220 F40.00
G01 X16.2142 Y19.6288 F40.00
G01 X16.2190 Y19.6334 F40.00
G01 X16.2233 Y19.6384 F40.00
G01 X16.2280 Y19.6452 F40.00
G01 X16.2312 Y19.6511 F40.00
G01 X16.2342 Y19.6588 F40.00
G01 X16.2360 Y19.6652 F40.00
G01 X16.2373 Y19.6734 F40.00
G01 X16.2376 Y19.6800 F40.00
G01 X16.2376 Y20.5817 F40.00
G01 X16.2364 Y20.5932 F40.00
G01 X16.2331 Y20.6043 F40.00
G01 X16.2280 Y20.6148 F40.00
G01 X16.2212 Y20.6242 F40.00
G01 X16.2166 Y20.6290 F40.00
G01 X16.2103 Y20.6343 F40.00
G01 X16.2048 Y20.6380 F40.00
G01 X16.1989 Y20.6412 F40.00
G01 X16.1912 Y20.6442 F40.00
G01 X16.1848 Y20.6460 F40.00
G01 X16.1766 Y20.6473 F40.00
G01 X16.1700 Y20.6476 F40.00
G01 X14.6700 Y20.6476 F40.00
G01 X14.6584 Y20.6467 F40.00
G01 X14.6488 Y20.6442 F40.00
G01 X14.6381 Y20.6397 F40.00
G01 X14.6297 Y20.6343 F40.00
G01 X14.6246 Y20.6301 F40.00
G01 X14.6199 Y20.6254 F40.00
G01 X14.6157 Y20.6203 F40.00
G01 X14.6120 Y20.6148 F40.00
G01 X14.6088 Y20.6089 F40.00
G01 X14.6063 Y20.6028 F40.00
G01 X14.6040 Y20.5948 F40.00
G01 X14.6029 Y20.5883 F40.00
G01 X14.6024 Y20.5800 F40.00
G01 X14.6024 Y20.3978 F40.00
G01 X14.4900 Y20.3977 F40.00
G01 X14.4671 Y20.3967 F40.00
G01 X14.4605 Y20.3961 F40.00
G01 X14.4394 Y20.3929 F40.00
G01 X14.4155 Y20.3871 F40.00
G01 X14.4091 Y20.3852 F40.00
G01 X14.3875 Y20.3774 F40.00
G01 X14.3667 Y20.3676 F40.00
G01 X14.3609 Y20.3645 F40.00
G01 X14.3412 Y20.3526 F40.00
G01 X14.3228 Y20.3390 F40.00
G01 X14.3176 Y20.3348 F40.00
G01 X14.3019 Y20.3205 F40.00
G01 X9.4884 Y15.5069 F40.00
G01 X9.4730 Y15.4899 F40.00
G01 X9.4574 Y15.4688 F40.00
G01 X9.4439 Y15.4462 F40.00
G01 X9.4326 Y15.4225 F40.00
G01 X9.4238 Y15.3977 F40.00
G01 X9.4174 Y15.3722 F40.00
G01 X9.4135 Y15.3462 F40.00
G01 X9.4123 Y15.3217 F40.00
G01 X9.4123 Y13.0163 F40.00
G01 X8.1837 Y11.7878 F40.00
G01 X7.5721 Y11.7877 F40.00
G01 X7.5655 Y11.8057 F40.00
G01 X7.5342 Y11.8715 F40.00
G01 X7.4975 Y11.9326 F40.00
G01 X7.4551 Y11.9898 F40.00
G01 X7.4074 Y12.0427 F40.00
G01 X7.4027 Y12.0474 F40.00
G01 X7.3511 Y12.0941 F40.00
G01 X7.2940 Y12.1366 F40.00
G01 X7.2330 Y12.1733 F40.00
G01 X7.2271 Y12.1765 F40.00
G01 X7.1642 Y12.2061 F40.00
G01 X7.0956 Y12.2307 F40.00
G01 X7.0281 Y12.2477 F40.00
G01 X7.0216 Y12.2489 F40.00
G01 X6.9528 Y12.2591 F40.00
G01 X6.8833 Y12.2626 F40.00
G01 X6.8767 Y12.2626 F40.00
G01 X6.8072 Y12.2591 F40.00
G01 X6.7384 Y12.2489 F40.00
G01 X6.7319 Y12.2477 F40.00
G01 X6.6644 Y12.2307 F40.00
G01 X6.5989 Y12.2073 F40.00
G01 X6.5928 Y12.2048 F40.00
G01 X6.5329 Y12.1765 F40.00
G01 X6.5270 Y12.1733 F40.00
G01 X6.4674 Y12.1375 F40.00
G01 X6.4115 Y12.0961 F40.00
G01 X6.4064 Y12.0919 F40.00
G01 X6.3549 Y12.0451 F40.00
G01 X6.3081 Y11.9936 F40.00
G01 X6.3039 Y11.9885 F40.00
G01 X6.2625 Y11.9326 F40.00
G01 X6.2267 Y11.8730 F40.00
G00 Z1.0000
G00 X5.9722 Y14.2360
G01 F60.00
G01 Z-0.1001
G01 F40.00
G01 X5.9734 Y14.2470 F40.00
G01 X6.0096 Y14.3289 F40.00
G01 X6.0711 Y14.3904 F40.00
G01 X6.1530 Y14.4266 F40.00
G01 X6.1637 Y14.4278 F40.00
G01 X6.8746 Y14.4279 F40.00
G01 X6.8861 Y14.4292 F40.00
G01 X6.8957 Y14.4318 F40.00
G01 X6.9115 Y14.4384 F40.00
G01 X6.9172 Y14.4417 F40.00
G01 X6.9227 Y14.4455 F40.00
G01 X6.9289 Y14.4510 F40.00
G01 X9.6371 Y17.1593 F40.00
G01 X9.6414 Y17.1640 F40.00
G01 X9.6470 Y17.1713 F40.00
G01 X9.6512 Y17.1784 F40.00
G01 X9.6545 Y17.1859 F40.00
G01 X9.6572 Y17.1954 F40.00
G01 X9.6594 Y17.2090 F40.00
G01 X9.6600 Y17.2173 F40.00
G01 X9.6594 Y17.2272 F40.00
G01 X9.6573 Y17.2369 F40.00
G01 X9.6538 Y17.2463 F40.00
G01 X9.6499 Y17.2536 F40.00
G01 X9.6409 Y17.2661 F40.00
G01 X9.6343 Y17.2736 F40.00
G01 X9.6267 Y17.2800 F40.00
G01 X9.6196 Y17.2844 F40.00
G01 X9.6121 Y17.2879 F40.00
G01 X9.6026 Y17.2909 F40.00
G01 X9.5891 Y17.2932 F40.00
G01 X9.5825 Y17.2940 F40.00
G01 X9.5742 Y17.2939 F40.00
G01 X9.5659 Y17.2929 F40.00
G01 X9.3926 Y17.2514 F40.00
G01 X9.1600 Y17.2331 F40.00
G01 X8.9274 Y17.2514 F40.00
G01 X8.7005 Y17.3058 F40.00
G01 X8.4849 Y17.3951 F40.00
G01 X8.3606 Y17.4713 F40.00
G01 X8.6271 Y17.7379 F40.00
G01 X8.6361 Y17.7328 F40.00
G01 X8.7293 Y17.6888 F40.00
G01 X8.7354 Y17.6862 F40.00
G01 X8.8356 Y17.6505 F40.00
G01 X8.9420 Y17.6238 F40.00
G01 X9.0505 Y17.6077 F40.00
G01 X9.1567 Y17.6024 F40.00
G01 X9.1633 Y17.6024 F40.00
G01 X9.2662 Y17.6075 F40.00
G01 X9.2728 Y17.6081 F40.00
G01 X9.3780 Y17.6238 F40.00
G01 X9.4844 Y17.6505 F40.00
G01 X9.5877 Y17.6874 F40.00
G01 X9.6839 Y17.7328 F40.00
G01 X9.6897 Y17.7360 F40.00
G01 X9.7781 Y17.7889 F40.00
G01 X9.7836 Y17.7926 F40.00
G01 X9.8690 Y17.8560 F40.00
G01 X9.9503 Y17.9297 F40.00
G01 X10.0240 Y18.0110 F40.00
G01 X10.0874 Y18.0964 F40.00
G01 X10.0911 Y18.1019 F40.00
G01 X10.1440 Y18.1903 F40.00
G01 X10.1472 Y18.1961 F40.00
G01 X10.1926 Y18.2923 F40.00
G01 X10.2295 Y18.3956 F40.00
G01 X10.2562 Y18.5020 F40.00
G01 X10.2719 Y18.6072 F40.00
G01 X10.2725 Y18.6138 F40.00
G01 X10.2776 Y18.7167 F40.00
G01 X10.2776 Y18.7233 F40.00
G01 X10.2723 Y18.8295 F40.00
G01 X10.2562 Y18.9380 F40.00
G01 X10.2295 Y19.0444 F40.00
G01 X10.1938 Y19.1446 F40.00
G01 X10.1912 Y19.1507 F40.00
G01 X10.1472 Y19.2439 F40.00
G01 X10.1421 Y19.2529 F40.00
G01 X10.4087 Y19.5194 F40.00
G01 X10.4849 Y19.3951 F40.00
G01 X10.5742 Y19.1795 F40.00
G01 X10.6286 Y18.9526 F40.00
G01 X10.6469 Y18.7200 F40.00
G01 X10.6286 Y18.4874 F40.00
G01 X10.5874 Y18.3158 F40.00
G01 X10.5858 Y18.3035 F40.00
G01 X10.5858 Y18.2937 F40.00
G01 X10.5869 Y18.2855 F40.00
G01 X10.5885 Y18.2791 F40.00
G01 X10.5908 Y18.2730 F40.00
G01 X10.5962 Y18.2603 F40.00
G01 X10.5995 Y18.2545 F40.00
G01 X10.6043 Y18.2478 F40.00
G01 X10.6100 Y18.2417 F40.00
G01 X10.6150 Y18.2374 F40.00
G01 X10.6204 Y18.2336 F40.00
G01 X10.6277 Y18.2296 F40.00
G01 X10.6404 Y18.2242 F40.00
G01 X10.6483 Y18.2217 F40.00
G01 X10.6565 Y18.2202 F40.00
G01 X10.6631 Y18.2197 F40.00
G01 X10.6714 Y18.2200 F40.00
G01 X10.6780 Y18.2210 F40.00
G01 X10.6875 Y18.2236 F40.00
G01 X10.7033 Y18.2303 F40.00
G01 X10.7118 Y18.2354 F40.00
G01 X10.7207 Y18.2429 F40.00
G01 X14.1450 Y21.6671 F40.00
G01 X14.1525 Y21.6759 F40.00
G01 X14.1595 Y21.6864 F40.00
G01 X14.1927 Y21.7152 F40.00
G01 X14.2058 Y21.7280 F40.00
G01 X14.2204 Y21.7391 F40.00
G01 X14.2536 Y21.7679 F40.00
G01 X14.2618 Y21.7716 F40.00
G01 X14.2686 Y21.7755 F40.00
G01 X14.2804 Y21.7838 F40.00
G01 X14.3239 Y21.8001 F40.00
G01 X14.3668 Y21.8196 F40.00
G01 X14.3728 Y21.8205 F40.00
G01 X14.3791 Y21.8221 F40.00
G01 X14.3852 Y21.8242 F40.00
G01 X14.3937 Y21.8278 F40.00
G01 X14.4037 Y21.8335 F40.00
G01 X14.4089 Y21.8375 F40.00
G01 X14.4138 Y21.8420 F40.00
G01 X14.4181 Y21.8469 F40.00
G01 X14.4220 Y21.8522 F40.00
G01 X14.4288 Y21.8641 F40.00
G01 X14.4318 Y21.8700 F40.00
G01 X14.4341 Y21.8763 F40.00
G01 X14.4359 Y21.8827 F40.00
G01 X14.4384 Y21.9020 F40.00
G01 X14.4751 Y21.9851 F40.00
G01 X14.4799 Y21.9921 F40.00
G01 X14.4837 Y21.9995 F40.00
G01 X14.4890 Y22.0122 F40.00
G01 X14.4913 Y22.0202 F40.00
G01 X14.4926 Y22.0284 F40.00
G01 X14.4928 Y22.0383 F40.00
G01 X14.4919 Y22.0466 F40.00
G01 X14.4895 Y22.0562 F40.00
G01 X14.4823 Y22.0735 F40.00
G01 X14.4791 Y22.0793 F40.00
G01 X14.4751 Y22.0849 F40.00
G01 X14.4384 Y22.1680 F40.00
G01 X14.4372 Y22.1787 F40.00
G01 X14.4372 Y23.1610 F40.00
G01 X14.4384 Y23.1720 F40.00
G01 X14.4751 Y23.2551 F40.00
G01 X14.4781 Y23.2593 F40.00
G01 X14.4816 Y23.2650 F40.00
G01 X14.4884 Y23.2806 F40.00
G01 X14.4909 Y23.2886 F40.00
G01 X14.4922 Y23.2951 F40.00
G01 X14.4929 Y23.3033 F40.00
G01 X14.4927 Y23.3100 F40.00
G01 X14.4919 Y23.3166 F40.00
G01 X14.4905 Y23.3230 F40.00
G01 X14.4884 Y23.3293 F40.00
G01 X14.4844 Y23.3390 F40.00
G01 X14.4799 Y23.3479 F40.00
G01 X14.4751 Y23.3549 F40.00
G01 X14.4384 Y23.4380 F40.00
G01 X14.4367 Y23.4467 F40.00
G01 X14.4336 Y23.4558 F40.00
G01 X14.4282 Y23.4670 F40.00
G01 X14.4249 Y23.4727 F40.00
G01 X14.4201 Y23.4793 F40.00
G01 X14.4145 Y23.4853 F40.00
G01 X14.4082 Y23.4906 F40.00
G01 X14.4013 Y23.4950 F40.00
G01 X14.3954 Y23.4980 F40.00
G01 X14.3811 Y23.5037 F40.00
G01 X14.3731 Y23.5059 F40.00
G01 X14.3649 Y23.5070 F40.00
G01 X10.4918 Y23.5071 F40.00
G01 X10.4806 Y23.5062 F40.00
G01 X10.4685 Y23.5033 F40.00
G01 X10.4608 Y23.5007 F40.00
G01 X10.4534 Y23.4972 F40.00
G01 X10.4465 Y23.4928 F40.00
G01 X10.4401 Y23.4876 F40.00
G01 X10.4344 Y23.4817 F40.00
G01 X10.4260 Y23.4708 F40.00
G01 X10.4216 Y23.4638 F40.00
G01 X10.4180 Y23.4564 F40.00
G01 X10.4154 Y23.4485 F40.00
G01 X10.3701 Y23.2796 F40.00
G01 X10.2752 Y23.0761 F40.00
G01 X10.1465 Y22.8922 F40.00
G01 X9.9878 Y22.7335 F40.00
G01 X9.8039 Y22.6048 F40.00
G01 X9.6004 Y22.5099 F40.00
G01 X9.3836 Y22.4518 F40.00
G01 X9.1600 Y22.4322 F40.00
G01 X8.9364 Y22.4518 F40.00
G01 X8.7196 Y22.5099 F40.00
G01 X8.5161 Y22.6048 F40.00
G01 X8.3322 Y22.7335 F40.00
G01 X8.1735 Y22.8922 F40.00
G01 X8.1070 Y22.9872 F40.00
G01 X8.0448 Y23.0761 F40.00
G01 X7.9499 Y23.2796 F40.00
G01 X7.8918 Y23.4964 F40.00
G01 X7.8722 Y23.7200 F40.00
G01 X7.8918 Y23.9436 F40.00
G01 X7.9499 Y24.1604 F40.00
G01 X8.0448 Y24.3639 F40.00
G01 X8.1735 Y24.5477 F40.00
G01 X8.3323 Y24.7065 F40.00
G01 X8.5161 Y24.8352 F40.00
G01 X8.7196 Y24.9301 F40.00
G01 X8.9364 Y24.9882 F40.00
G01 X9.1600 Y25.0078 F40.00
G01 X9.3836 Y24.9882 F40.00
G01 X9.6004 Y24.9301 F40.00
G01 X9.8039 Y24.8352 F40.00
G01 X9.9878 Y24.7065 F40.00
G01 X10.1465 Y24.5478 F40.00
G01 X10.2453 Y24.4066 F40.00
G01 X10.2523 Y24.3980 F40.00
G01 X10.2607 Y24.3903 F40.00
G01 X10.2660 Y24.3866 F40.00
G01 X10.2717 Y24.3834 F40.00
G01 X10.2889 Y24.3763 F40.00
G01 X10.2953 Y24.3745 F40.00
G01 X10.3019 Y24.3734 F40.00
G01 X10.3101 Y24.3729 F40.00
G01 X14.2650 Y24.3729 F40.00
G01 X14.2716 Y24.3736 F40.00
G01 X14.2782 Y24.3749 F40.00
G01 X14.2899 Y24.3786 F40.00
G01 X14.2961 Y24.3810 F40.00
G01 X14.3020 Y24.3840 F40.00
G01 X14.3076 Y24.3876 F40.00
G01 X14.3129 Y24.3917 F40.00
G01 X14.3177 Y24.3963 F40.00
G01 X14.3220 Y24.4014 F40.00
G01 X14.3258 Y24.4069 F40.00
G01 X14.3320 Y24.4173 F40.00
G01 X14.3356 Y24.4248 F40.00
G01 X14.3383 Y24.4326 F40.00
G01 X14.3397 Y24.4391 F40.00
G01 X14.3406 Y24.4473 F40.00
G01 X14.3406 Y24.4540 F40.00
G01 X14.3393 Y24.4639 F40.00
G01 X14.3359 Y24.4772 F40.00
G01 X14.3332 Y24.4851 F40.00
G01 X14.3295 Y24.4925 F40.00
G01 X14.3250 Y24.4994 F40.00
G01 X14.2866 Y24.5507 F40.00
G01 X14.2428 Y24.6683 F40.00
G01 X14.2377 Y24.7155 F40.00
G01 X14.2377 Y24.8923 F40.00
G01 X14.6023 Y24.8923 F40.00
G01 X14.6024 Y24.7583 F40.00
G01 X14.6033 Y24.7484 F40.00
G01 X14.6053 Y24.7404 F40.00
G01 X14.6088 Y24.7311 F40.00
G01 X14.6138 Y24.7224 F40.00
G01 X14.6199 Y24.7146 F40.00
G01 X14.6271 Y24.7077 F40.00
G01 X14.6352 Y24.7020 F40.00
G01 X14.6441 Y24.6975 F40.00
G01 X14.6536 Y24.6944 F40.00
G01 X14.6634 Y24.6927 F40.00
G01 X14.6700 Y24.6924 F40.00
G01 X16.1700 Y24.6924 F40.00
G01 X16.1799 Y24.6931 F40.00
G01 X16.1896 Y24.6953 F40.00
G01 X16.1989 Y24.6988 F40.00
G01 X16.2090 Y24.7047 F40.00
G01 X16.2178 Y24.7122 F40.00
G01 X16.2243 Y24.7197 F40.00
G01 X16.2304 Y24.7296 F40.00
G01 X16.2342 Y24.7388 F40.00
G01 X16.2367 Y24.7484 F40.00
G01 X16.2376 Y24.7583 F40.00
G01 X16.2376 Y24.8923 F40.00
G01 X16.6023 Y24.8924 F40.00
G01 X16.6024 Y24.7161 F40.00
G01 X16.5972 Y24.6683 F40.00
G01 X16.5534 Y24.5507 F40.00
G01 X16.4789 Y24.4511 F40.00
G01 X16.4333 Y24.4170 F40.00
G01 X16.4271 Y24.4117 F40.00
G01 X16.4215 Y24.4056 F40.00
G01 X16.4158 Y24.3975 F40.00
G01 X16.4120 Y24.3902 F40.00
G01 X16.4063 Y24.3758 F40.00
G01 X16.4038 Y24.3662 F40.00
G01 X16.4028 Y24.3546 F40.00
G01 X16.4029 Y23.4490 F40.00
G01 X16.4016 Y23.4380 F40.00
G01 X16.3649 Y23.3549 F40.00
G01 X16.3619 Y23.3507 F40.00
G01 X16.3584 Y23.3450 F40.00
G01 X16.3516 Y23.3293 F40.00
G01 X16.3484 Y23.3182 F40.00
G01 X16.3471 Y23.3067 F40.00
G01 X16.3473 Y23.3000 F40.00
G01 X16.3481 Y23.2934 F40.00
G01 X16.3495 Y23.2870 F40.00
G01 X16.3516 Y23.2807 F40.00
G01 X16.3584 Y23.2650 F40.00
G01 X16.3619 Y23.2593 F40.00
G01 X16.3649 Y23.2551 F40.00
G01 X16.4016 Y23.1720 F40.00
G01 X16.4028 Y23.1610 F40.00
G01 X16.4029 Y22.1790 F40.00
G01 X16.4016 Y22.1680 F40.00
G01 X16.3649 Y22.0849 F40.00
G01 X16.3619 Y22.0807 F40.00
G01 X16.3584 Y22.0750 F40.00
G01 X16.3516 Y22.0593 F40.00
G01 X16.3484 Y22.0482 F40.00
G01 X16.3474 Y22.0416 F40.00
G01 X16.3471 Y22.0350 F40.00
G01 X16.3481 Y22.0234 F40.00
G01 X16.3495 Y22.0170 F40.00
G01 X16.3516 Y22.0107 F40.00
G01 X16.3584 Y21.9950 F40.00
G01 X16.3619 Y21.9893 F40.00
G01 X16.3649 Y21.9851 F40.00
G01 X16.4016 Y21.9020 F40.00
G01 X16.4028 Y21.8910 F40.00
G01 X16.4029 Y20.9090 F40.00
G01 X16.4016 Y20.8980 F40.00
G01 X16.3649 Y20.8149 F40.00
G01 X16.3619 Y20.8107 F40.00
G01 X16.3584 Y20.8050 F40.00
G01 X16.3516 Y20.7893 F40.00
G01 X16.3484 Y20.7782 F40.00
G01 X16.3474 Y20.7716 F40.00
G01 X16.3471 Y20.7650 F40.00
G01 X16.3474 Y20.7584 F40.00
G01 X16.3484 Y20.7518 F40.00
G01 X16.3516 Y20.7407 F40.00
G01 X16.3584 Y20.7250 F40.00
G01 X16.3619 Y20.7193 F40.00
G01 X16.3649 Y20.7151 F40.00
G01 X16.4016 Y20.6320 F40.00
G01 X16.4028 Y20.6210 F40.00
G01 X16.4029 Y19.6390 F40.00
G01 X16.4016 Y19.6280 F40.00
G01 X16.3649 Y19.5449 F40.00
G01 X16.3619 Y19.5407 F40.00
G01 X16.3584 Y19.5350 F40.00
G01 X16.3516 Y19.5193 F40.00
G01 X16.3484 Y19.5082 F40.00
G01 X16.3474 Y19.5016 F40.00
G01 X16.3471 Y19.4950 F40.00
G01 X16.3474 Y19.4884 F40.00
G01 X16.3484 Y19.4818 F40.00
G01 X16.3516 Y19.4707 F40.00
G01 X16.3584 Y19.4550 F40.00
G01 X16.3619 Y19.4493 F40.00
G01 X16.3649 Y19.4451 F40.00
G01 X16.4016 Y19.3620 F40.00
G01 X16.4028 Y19.3510 F40.00
G01 X16.4029 Y18.3690 F40.00
G01 X16.4016 Y18.3580 F40.00
G01 X16.3649 Y18.2749 F40.00
G01 X16.3619 Y18.2707 F40.00
G01 X16.3584 Y18.2650 F40.00
G01 X16.3516 Y18.2493 F40.00
G01 X16.3495 Y18.2430 F40.00
G01 X16.3481 Y18.2366 F40.00
G01 X16.3471 Y18.2250 F40.00
G01 X16.3474 Y18.2184 F40.00
G01 X16.3484 Y18.2118 F40.00
G01 X16.3516 Y18.2007 F40.00
G01 X16.3584 Y18.1850 F40.00
G01 X16.3619 Y18.1793 F40.00
G01 X16.3649 Y18.1751 F40.00
G01 X16.4016 Y18.0920 F40.00
G01 X16.4028 Y18.0810 F40.00
G01 X16.4029 Y17.0990 F40.00
G01 X16.4016 Y17.0880 F40.00
G01 X16.3649 Y17.0049 F40.00
G01 X16.3619 Y17.0007 F40.00
G01 X16.3584 Y16.9950 F40.00
G01 X16.3516 Y16.9793 F40.00
G01 X16.3495 Y16.9730 F40.00
G01 X16.3481 Y16.9666 F40.00
G01 X16.3473 Y16.9600 F40.00
G01 X16.3472 Y16.9517 F40.00
G01 X16.3487 Y16.9402 F40.00
G01 X16.3522 Y16.9291 F40.00
G01 X16.3584 Y16.9150 F40.00
G01 X16.3619 Y16.9093 F40.00
G01 X16.3649 Y16.9051 F40.00
G01 X16.4016 Y16.8220 F40.00
G01 X16.4037 Y16.8118 F40.00
G01 X16.4078 Y16.8012 F40.00
G01 X16.4134 Y16.7901 F40.00
G01 X16.4199 Y16.7807 F40.00
G01 X16.4280 Y16.7725 F40.00
G01 X16.4359 Y16.7666 F40.00
G01 X16.4431 Y16.7627 F40.00
G01 X16.4573 Y16.7568 F40.00
G01 X16.4653 Y16.7545 F40.00
G01 X16.4735 Y16.7532 F40.00
G01 X16.4801 Y16.7529 F40.00
G01 X16.5186 Y16.7529 F40.00
G01 X16.5282 Y16.7540 F40.00
G01 X16.5388 Y16.7562 F40.00
G01 X16.5826 Y16.7531 F40.00
G01 X16.6010 Y16.7529 F40.00
G01 X16.6191 Y16.7504 F40.00
G01 X16.6630 Y16.7473 F40.00
G01 X16.6714 Y16.7442 F40.00
G01 X16.6790 Y16.7420 F40.00
G01 X16.6932 Y16.7396 F40.00
G01 X16.7361 Y16.7201 F40.00
G01 X16.7796 Y16.7038 F40.00
G01 X16.7868 Y16.6984 F40.00
G01 X16.7935 Y16.6942 F40.00
G01 X16.8064 Y16.6879 F40.00
G01 X16.8396 Y16.6591 F40.00
G01 X16.8542 Y16.6480 F40.00
G01 X16.8673 Y16.6351 F40.00
G01 X16.9005 Y16.6064 F40.00
G01 X16.9075 Y16.5959 F40.00
G01 X16.9150 Y16.5872 F40.00
G01 X17.3771 Y16.1250 F40.00
G01 X17.3859 Y16.1175 F40.00
G01 X17.3964 Y16.1105 F40.00
G01 X17.4252 Y16.0773 F40.00
G01 X17.4380 Y16.0642 F40.00
G01 X17.4491 Y16.0496 F40.00
G01 X17.4779 Y16.0164 F40.00
G01 X17.4816 Y16.0083 F40.00
G01 X17.4855 Y16.0014 F40.00
G01 X17.4938 Y15.9896 F40.00
G01 X17.5104 Y15.9454 F40.00
G01 X17.5296 Y15.9032 F40.00
G01 X17.5309 Y15.8943 F40.00
G01 X17.5326 Y15.8866 F40.00
G01 X17.5373 Y15.8730 F40.00
G01 X17.5404 Y15.8291 F40.00
G01 X17.5429 Y15.8110 F40.00
G01 X17.5431 Y15.7926 F40.00
G01 X17.5462 Y15.7488 F40.00
G01 X17.5437 Y15.7364 F40.00
G01 X17.5429 Y15.7250 F40.00
G01 X17.5429 Y4.1496 F40.00
G01 X17.5438 Y4.1380 F40.00
G01 X17.5468 Y4.1268 F40.00
G01 X17.5520 Y4.1140 F40.00
G01 X17.5550 Y4.1081 F40.00
G01 X17.5595 Y4.1011 F40.00
G01 X17.5660 Y4.0936 F40.00
G01 X27.6748 Y-6.0151 F40.00
G01 X27.6798 Y-6.0195 F40.00
G01 X27.6853 Y-6.0233 F40.00
G01 X27.6956 Y-6.0286 F40.00
G01 X27.7052 Y-6.0326 F40.00
G01 X27.7115 Y-6.0347 F40.00
G01 X27.7197 Y-6.0364 F40.00
G01 X27.7263 Y-6.0371 F40.00
G01 X28.3191 Y-6.0371 F40.00
G01 X28.3948 Y-6.0463 F40.00
G01 X28.5189 Y-6.0952 F40.00
G01 X28.6246 Y-6.1754 F40.00
G01 X28.7048 Y-6.2811 F40.00
G01 X28.7537 Y-6.4052 F40.00
G01 X28.7629 Y-6.4809 F40.00
G01 X28.7629 Y-7.4591 F40.00
G01 X28.7537 Y-7.5348 F40.00
G01 X28.7048 Y-7.6589 F40.00
G01 X28.6246 Y-7.7646 F40.00
G01 X28.5189 Y-7.8448 F40.00
G01 X28.3948 Y-7.8937 F40.00
G01 X28.3191 Y-7.9029 F40.00
G01 X27.7159 Y-7.9029 F40.00
G01 X27.6402 Y-7.8937 F40.00
G01 X27.5161 Y-7.8448 F40.00
G01 X27.4104 Y-7.7646 F40.00
G01 X27.3302 Y-7.6589 F40.00
G01 X27.2813 Y-7.5348 F40.00
G01 X27.2721 Y-7.4591 F40.00
G01 X27.2721 Y-6.8663 F40.00
G01 X27.2714 Y-6.8597 F40.00
G01 X27.2697 Y-6.8515 F40.00
G01 X27.2676 Y-6.8452 F40.00
G01 X27.2636 Y-6.8356 F40.00
G01 X27.2608 Y-6.8296 F40.00
G01 X27.2574 Y-6.8239 F40.00
G01 X27.2501 Y-6.8148 F40.00
G01 X16.8428 Y3.5925 F40.00
G01 X16.8341 Y3.6000 F40.00
G01 X16.8236 Y3.6070 F40.00
G01 X16.7949 Y3.6402 F40.00
G01 X16.7820 Y3.6533 F40.00
G01 X16.7709 Y3.6679 F40.00
G01 X16.7421 Y3.7011 F40.00
G01 X16.7358 Y3.7140 F40.00
G01 X16.7316 Y3.7207 F40.00
G01 X16.7262 Y3.7279 F40.00
G01 X16.7099 Y3.7714 F40.00
G01 X16.6904 Y3.8143 F40.00
G01 X16.6880 Y3.8285 F40.00
G01 X16.6858 Y3.8361 F40.00
G01 X16.6827 Y3.8445 F40.00
G01 X16.6796 Y3.8884 F40.00
G01 X16.6771 Y3.9065 F40.00
G01 X16.6769 Y3.9249 F40.00
G01 X16.6738 Y3.9687 F40.00
G01 X16.6763 Y3.9811 F40.00
G01 X16.6771 Y3.9925 F40.00
G01 X16.6771 Y15.5696 F40.00
G01 X16.6759 Y15.5811 F40.00
G01 X16.6726 Y15.5923 F40.00
G01 X16.6658 Y15.6079 F40.00
G01 X16.6624 Y15.6136 F40.00
G01 X16.6574 Y15.6202 F40.00
G01 X16.5011 Y15.7767 F40.00
G01 X16.4941 Y15.7829 F40.00
G01 X16.4839 Y15.7897 F40.00
G01 X16.4736 Y15.7946 F40.00
G01 X16.4627 Y15.7977 F40.00
G01 X16.4530 Y15.7989 F40.00
G01 X16.4376 Y15.7990 F40.00
G01 X16.4261 Y15.7975 F40.00
G01 X16.4197 Y15.7957 F40.00
G01 X16.4135 Y15.7933 F40.00
G01 X16.4033 Y15.7877 F40.00
G01 X16.3967 Y15.7826 F40.00
G01 X16.3856 Y15.7720 F40.00
G01 X16.3802 Y15.7656 F40.00
G01 X16.3757 Y15.7587 F40.00
G01 X16.3649 Y15.7349 F40.00
G01 X16.3609 Y15.7293 F40.00
G01 X16.3577 Y15.7235 F40.00
G01 X16.3516 Y15.7093 F40.00
G01 X16.3484 Y15.6982 F40.00
G01 X16.3471 Y15.6867 F40.00
G01 X16.3473 Y15.6800 F40.00
G01 X16.3481 Y15.6734 F40.00
G01 X16.3495 Y15.6670 F40.00
G01 X16.3516 Y15.6607 F40.00
G01 X16.3584 Y15.6450 F40.00
G01 X16.3619 Y15.6393 F40.00
G01 X16.3649 Y15.6351 F40.00
G01 X16.4016 Y15.5520 F40.00
G01 X16.4028 Y15.5410 F40.00
G01 X16.4029 Y14.5590 F40.00
G01 X16.4016 Y14.5480 F40.00
G01 X16.3649 Y14.4649 F40.00
G01 X16.3619 Y14.4607 F40.00
G01 X16.3584 Y14.4550 F40.00
G01 X16.3516 Y14.4393 F40.00
G01 X16.3484 Y14.4282 F40.00
G01 X16.3474 Y14.4216 F40.00
G01 X16.3471 Y14.4150 F40.00
G01 X16.3474 Y14.4084 F40.00
G01 X16.3484 Y14.4018 F40.00
G01 X16.3516 Y14.3907 F40.00
G01 X16.3584 Y14.3750 F40.00
G01 X16.3619 Y14.3693 F40.00
G01 X16.3649 Y14.3651 F40.00
G01 X16.4016 Y14.2820 F40.00
G01 X16.4028 Y14.2710 F40.00
G01 X16.4029 Y13.2890 F40.00
G01 X16.4016 Y13.2780 F40.00
G01 X16.3649 Y13.1949 F40.00
G01 X16.3619 Y13.1907 F40.00
G01 X16.3584 Y13.1850 F40.00
G01 X16.3516 Y13.1693 F40.00
G01 X16.3484 Y13.1582 F40.00
G01 X16.3474 Y13.1516 F40.00
G01 X16.3471 Y13.1450 F40.00
G01 X16.3474 Y13.1384 F40.00
G01 X16.3484 Y13.1318 F40.00
G01 X16.3516 Y13.1207 F40.00
G01 X16.3584 Y13.1050 F40.00
G01 X16.3619 Y13.0993 F40.00
G01 X16.3649 Y13.0951 F40.00
G01 X16.4016 Y13.0120 F40.00
G01 X16.4028 Y13.0010 F40.00
G01 X16.4029 Y12.0190 F40.00
G01 X16.4016 Y12.0080 F40.00
G01 X16.3649 Y11.9249 F40.00
G01 X16.3619 Y11.9207 F40.00
G01 X16.3584 Y11.9150 F40.00
G01 X16.3516 Y11.8993 F40.00
G01 X16.3484 Y11.8882 F40.00
G01 X16.3474 Y11.8816 F40.00
G01 X16.3471 Y11.8750 F40.00
G01 X16.3474 Y11.8684 F40.00
G01 X16.3484 Y11.8618 F40.00
G01 X16.3516 Y11.8507 F40.00
G01 X16.3584 Y11.8350 F40.00
G01 X16.3619 Y11.8293 F40.00
G01 X16.3649 Y11.8251 F40.00
G01 X16.4016 Y11.7420 F40.00
G01 X16.4028 Y11.7310 F40.00
G01 X16.4029 Y10.7490 F40.00
G01 X16.4016 Y10.7380 F40.00
G01 X16.3649 Y10.6549 F40.00
G01 X16.3619 Y10.6507 F40.00
G01 X16.3584 Y10.6450 F40.00
G01 X16.3516 Y10.6293 F40.00
G01 X16.3484 Y10.6182 F40.00
G01 X16.3474 Y10.6116 F40.00
G01 X16.3471 Y10.6050 F40.00
G01 X16.3474 Y10.5984 F40.00
G01 X16.3484 Y10.5918 F40.00
G01 X16.3516 Y10.5807 F40.00
G01 X16.3584 Y10.5650 F40.00
G01 X16.3619 Y10.5593 F40.00
G01 X16.3649 Y10.5551 F40.00
G01 X16.4016 Y10.4720 F40.00
G01 X16.4028 Y10.4610 F40.00
G01 X16.4029 Y9.4790 F40.00
G01 X16.4016 Y9.4680 F40.00
G01 X16.3649 Y9.3849 F40.00
G01 X16.3619 Y9.3807 F40.00
G01 X16.3584 Y9.3750 F40.00
G01 X16.3516 Y9.3593 F40.00
G01 X16.3495 Y9.3530 F40.00
G01 X16.3481 Y9.3466 F40.00
G01 X16.3471 Y9.3350 F40.00
G01 X16.3474 Y9.3284 F40.00
G01 X16.3484 Y9.3218 F40.00
G01 X16.3516 Y9.3107 F40.00
G01 X16.3584 Y9.2950 F40.00
G01 X16.3619 Y9.2893 F40.00
G01 X16.3649 Y9.2851 F40.00
G01 X16.4016 Y9.2020 F40.00
G01 X16.4028 Y9.1910 F40.00
G01 X16.4029 Y8.2090 F40.00
G01 X16.4016 Y8.1980 F40.00
G01 X16.3654 Y8.1161 F40.00
G01 X16.3039 Y8.0546 F40.00
G01 X16.2220 Y8.0184 F40.00
G01 X16.2110 Y8.0172 F40.00
G01 X14.6290 Y8.0171 F40.00
G01 X14.6180 Y8.0184 F40.00
G01 X14.5361 Y8.0546 F40.00
G01 X14.4746 Y8.1161 F40.00
G01 X14.4384 Y8.1980 F40.00
G01 X14.4367 Y8.2067 F40.00
G01 X14.4336 Y8.2158 F40.00
G01 X14.4274 Y8.2285 F40.00
G01 X14.4211 Y8.2381 F40.00
G01 X14.4168 Y8.2430 F40.00
G01 X14.4120 Y8.2475 F40.00
G01 X14.4069 Y8.2515 F40.00
G01 X14.4013 Y8.2550 F40.00
G01 X14.3954 Y8.2580 F40.00
G01 X14.3843 Y8.2626 F40.00
G01 X14.3731 Y8.2659 F40.00
G01 X14.3665 Y8.2668 F40.00
G01 X14.3599 Y8.2671 F40.00
G01 X13.5050 Y8.2671 F40.00
G01 X13.4936 Y8.2663 F40.00
G01 X13.4812 Y8.2638 F40.00
G01 X13.4374 Y8.2669 F40.00
G01 X13.4190 Y8.2671 F40.00
G01 X13.4025 Y8.2694 F40.00
G01 X13.3570 Y8.2727 F40.00
G01 X13.3434 Y8.2774 F40.00
G01 X13.3357 Y8.2791 F40.00
G01 X13.3268 Y8.2804 F40.00
G01 X13.2846 Y8.2997 F40.00
G01 X13.2404 Y8.3162 F40.00
G01 X13.2286 Y8.3245 F40.00
G01 X13.2217 Y8.3284 F40.00
G01 X13.2136 Y8.3321 F40.00
G01 X13.1804 Y8.3609 F40.00
G01 X13.1658 Y8.3720 F40.00
G01 X13.1527 Y8.3849 F40.00
G01 X13.1195 Y8.4136 F40.00
G01 X13.1125 Y8.4241 F40.00
G01 X13.1050 Y8.4329 F40.00
G01 X12.4727 Y9.0651 F40.00
G01 X12.4636 Y9.0724 F40.00
G01 X12.4535 Y9.0780 F40.00
G01 X12.4376 Y9.0842 F40.00
G01 X12.4311 Y9.0859 F40.00
G01 X12.4246 Y9.0868 F40.00
G01 X12.4179 Y9.0871 F40.00
G01 X7.7255 Y9.0871 F40.00
G01 X7.7188 Y9.0868 F40.00
G01 X7.7106 Y9.0857 F40.00
G01 X7.7041 Y9.0842 F40.00
G01 X7.6978 Y9.0821 F40.00
G01 X7.6917 Y9.0794 F40.00
G01 X7.6818 Y9.0733 F40.00
G01 X7.6675 Y9.0613 F40.00
G01 X7.6620 Y9.0550 F40.00
G01 X7.6573 Y9.0482 F40.00
G01 X7.6385 Y9.0132 F40.00
G01 X7.5251 Y8.8749 F40.00
G01 X7.3868 Y8.7615 F40.00
G01 X7.2291 Y8.6772 F40.00
G01 X7.0580 Y8.6253 F40.00
G01 X6.8800 Y8.6078 F40.00
G01 X6.7020 Y8.6253 F40.00
G01 X6.5309 Y8.6772 F40.00
G01 X6.3732 Y8.7615 F40.00
G01 X6.2349 Y8.8749 F40.00
G01 X6.1215 Y9.0132 F40.00
G01 X6.0372 Y9.1709 F40.00
G01 X5.9853 Y9.3420 F40.00
G01 X5.9678 Y9.5200 F40.00
G01 X5.9853 Y9.6980 F40.00
G01 X6.0372 Y9.8691 F40.00
G01 X6.1215 Y10.0268 F40.00
G01 X6.2349 Y10.1651 F40.00
G01 X6.3732 Y10.2785 F40.00
G01 X6.5309 Y10.3628 F40.00
G01 X6.7020 Y10.4147 F40.00
G01 X6.8800 Y10.4322 F40.00
G01 X7.0580 Y10.4147 F40.00
G01 X7.2291 Y10.3628 F40.00
G01 X7.3868 Y10.2785 F40.00
G01 X7.5251 Y10.1651 F40.00
G01 X7.6385 Y10.0268 F40.00
G01 X7.6582 Y9.9904 F40.00
G01 X7.6650 Y9.9810 F40.00
G01 X7.6707 Y9.9749 F40.00
G01 X7.6798 Y9.9676 F40.00
G01 X7.6899 Y9.9620 F40.00
G01 X7.7058 Y9.9558 F40.00
G01 X7.7123 Y9.9541 F40.00
G01 X7.7205 Y9.9530 F40.00
G01 X12.5750 Y9.9529 F40.00
G01 X12.5864 Y9.9537 F40.00
G01 X12.5988 Y9.9562 F40.00
G01 X12.6426 Y9.9531 F40.00
G01 X12.6610 Y9.9529 F40.00
G01 X12.6791 Y9.9504 F40.00
G01 X12.7230 Y9.9473 F40.00
G01 X12.7314 Y9.9442 F40.00
G01 X12.7390 Y9.9420 F40.00
G01 X12.7532 Y9.9396 F40.00
G01 X12.7961 Y9.9201 F40.00
G01 X12.8396 Y9.9038 F40.00
G01 X12.8468 Y9.8984 F40.00
G01 X12.8535 Y9.8942 F40.00
G01 X12.8664 Y9.8879 F40.00
G01 X12.8996 Y9.8591 F40.00
G01 X12.9142 Y9.8480 F40.00
G01 X12.9273 Y9.8351 F40.00
G01 X12.9605 Y9.8064 F40.00
G01 X12.9675 Y9.7959 F40.00
G01 X12.9750 Y9.7872 F40.00
G01 X13.6061 Y9.1560 F40.00
G01 X13.6150 Y9.1486 F40.00
G01 X13.6250 Y9.1427 F40.00
G01 X13.6377 Y9.1374 F40.00
G01 X13.6440 Y9.1353 F40.00
G01 X13.6522 Y9.1336 F40.00
G01 X13.6604 Y9.1329 F40.00
G01 X14.3615 Y9.1329 F40.00
G01 X14.3696 Y9.1335 F40.00
G01 X14.3759 Y9.1348 F40.00
G01 X14.3893 Y9.1391 F40.00
G01 X14.3954 Y9.1416 F40.00
G01 X14.4026 Y9.1454 F40.00
G01 X14.4093 Y9.1502 F40.00
G01 X14.4154 Y9.1557 F40.00
G01 X14.4197 Y9.1606 F40.00
G01 X14.4253 Y9.1686 F40.00
G01 X14.4327 Y9.1822 F40.00
G01 X14.4362 Y9.1915 F40.00
G01 X14.4384 Y9.2020 F40.00
G01 X14.4751 Y9.2851 F40.00
G01 X14.4799 Y9.2921 F40.00
G01 X14.4844 Y9.3010 F40.00
G01 X14.4890 Y9.3122 F40.00
G01 X14.4909 Y9.3186 F40.00
G01 X14.4924 Y9.3267 F40.00
G01 X14.4929 Y9.3350 F40.00
G01 X14.4919 Y9.3466 F40.00
G01 X14.4905 Y9.3530 F40.00
G01 X14.4884 Y9.3593 F40.00
G01 X14.4816 Y9.3750 F40.00
G01 X14.4781 Y9.3807 F40.00
G01 X14.4751 Y9.3849 F40.00
G01 X14.4384 Y9.4680 F40.00
G01 X14.4372 Y9.4787 F40.00
G01 X14.4372 Y10.4610 F40.00
G01 X14.4384 Y10.4720 F40.00
G01 X14.4751 Y10.5551 F40.00
G01 X14.4781 Y10.5593 F40.00
G01 X14.4816 Y10.5650 F40.00
G01 X14.4884 Y10.5806 F40.00
G01 X14.4905 Y10.5870 F40.00
G01 X14.4919 Y10.5934 F40.00
G01 X14.4929 Y10.6050 F40.00
G01 X14.4919 Y10.6166 F40.00
G01 X14.4905 Y10.6230 F40.00
G01 X14.4884 Y10.6293 F40.00
G01 X14.4816 Y10.6450 F40.00
G01 X14.4781 Y10.6507 F40.00
G01 X14.4751 Y10.6549 F40.00
G01 X14.4384 Y10.7380 F40.00
G01 X14.4372 Y10.7487 F40.00
G01 X14.4372 Y11.7310 F40.00
G01 X14.4384 Y11.7420 F40.00
G01 X14.4751 Y11.8251 F40.00
G01 X14.4781 Y11.8293 F40.00
G01 X14.4816 Y11.8350 F40.00
G01 X14.4884 Y11.8506 F40.00
G01 X14.4905 Y11.8570 F40.00
G01 X14.4919 Y11.8634 F40.00
G01 X14.4929 Y11.8750 F40.00
G01 X14.4919 Y11.8866 F40.00
G01 X14.4905 Y11.8930 F40.00
G01 X14.4884 Y11.8993 F40.00
G01 X14.4816 Y11.9150 F40.00
G01 X14.4781 Y11.9207 F40.00
G01 X14.4751 Y11.9249 F40.00
G01 X14.4384 Y12.0080 F40.00
G01 X14.4372 Y12.0187 F40.00
G01 X14.4372 Y13.0010 F40.00
G01 X14.4384 Y13.0120 F40.00
G01 X14.4751 Y13.0951 F40.00
G01 X14.4781 Y13.0993 F40.00
G01 X14.4816 Y13.1050 F40.00
G01 X14.4884 Y13.1206 F40.00
G01 X14.4905 Y13.1270 F40.00
G01 X14.4919 Y13.1334 F40.00
G01 X14.4929 Y13.1450 F40.00
G01 X14.4919 Y13.1566 F40.00
G01 X14.4905 Y13.1630 F40.00
G01 X14.4884 Y13.1693 F40.00
G01 X14.4816 Y13.1850 F40.00
G01 X14.4781 Y13.1907 F40.00
G01 X14.4751 Y13.1949 F40.00
G01 X14.4384 Y13.2780 F40.00
G01 X14.4372 Y13.2887 F40.00
G01 X14.4372 Y14.2710 F40.00
G01 X14.4384 Y14.2820 F40.00
G01 X14.4751 Y14.3651 F40.00
G01 X14.4781 Y14.3693 F40.00
G01 X14.4816 Y14.3750 F40.00
G01 X14.4884 Y14.3906 F40.00
G01 X14.4905 Y14.3970 F40.00
G01 X14.4919 Y14.4034 F40.00
G01 X14.4929 Y14.4150 F40.00
G01 X14.4919 Y14.4266 F40.00
G01 X14.4905 Y14.4330 F40.00
G01 X14.4884 Y14.4393 F40.00
G01 X14.4816 Y14.4550 F40.00
G01 X14.4781 Y14.4607 F40.00
G01 X14.4751 Y14.4649 F40.00
G01 X14.4384 Y14.5480 F40.00
G01 X14.4372 Y14.5587 F40.00
G01 X14.4372 Y15.5410 F40.00
G01 X14.4384 Y15.5520 F40.00
G01 X14.4751 Y15.6351 F40.00
G01 X14.4781 Y15.6393 F40.00
G01 X14.4816 Y15.6450 F40.00
G01 X14.4884 Y15.6606 F40.00
G01 X14.4905 Y15.6670 F40.00
G01 X14.4919 Y15.6734 F40.00
G01 X14.4929 Y15.6850 F40.00
G01 X14.4919 Y15.6966 F40.00
G01 X14.4905 Y15.7030 F40.00
G01 X14.4884 Y15.7093 F40.00
G01 X14.4816 Y15.7250 F40.00
G01 X14.4781 Y15.7307 F40.00
G01 X14.4751 Y15.7349 F40.00
G01 X14.4384 Y15.8180 F40.00
G01 X14.4372 Y15.8287 F40.00
G01 X14.4372 Y16.8110 F40.00
G01 X14.4384 Y16.8220 F40.00
G01 X14.4751 Y16.9051 F40.00
G01 X14.4781 Y16.9093 F40.00
G01 X14.4816 Y16.9150 F40.00
G01 X14.4884 Y16.9306 F40.00
G01 X14.4916 Y16.9418 F40.00
G01 X14.4926 Y16.9484 F40.00
G01 X14.4929 Y16.9550 F40.00
G01 X14.4919 Y16.9666 F40.00
G01 X14.4905 Y16.9730 F40.00
G01 X14.4884 Y16.9793 F40.00
G01 X14.4816 Y16.9950 F40.00
G01 X14.4781 Y17.0007 F40.00
G01 X14.4751 Y17.0049 F40.00
G01 X14.4384 Y17.0880 F40.00
G01 X14.4372 Y17.0987 F40.00
G01 X14.4372 Y18.0810 F40.00
G01 X14.4384 Y18.0920 F40.00
G01 X14.4751 Y18.1751 F40.00
G01 X14.4781 Y18.1793 F40.00
G01 X14.4816 Y18.1850 F40.00
G01 X14.4884 Y18.2006 F40.00
G01 X14.4905 Y18.2070 F40.00
G01 X14.4919 Y18.2134 F40.00
G01 X14.4929 Y18.2250 F40.00
G01 X14.4919 Y18.2366 F40.00
G01 X14.4905 Y18.2430 F40.00
G01 X14.4884 Y18.2493 F40.00
G01 X14.4816 Y18.2650 F40.00
G01 X14.4781 Y18.2707 F40.00
G01 X14.4751 Y18.2749 F40.00
G01 X14.4384 Y18.3580 F40.00
G01 X14.4372 Y18.3687 F40.00
G01 X14.4371 Y19.2756 F40.00
G01 X14.4364 Y19.2839 F40.00
G01 X14.4347 Y19.2920 F40.00
G01 X14.4326 Y19.2983 F40.00
G01 X14.4280 Y19.3095 F40.00
G01 X14.4250 Y19.3154 F40.00
G01 X14.4214 Y19.3210 F40.00
G01 X14.4174 Y19.3262 F40.00
G01 X14.4128 Y19.3311 F40.00
G01 X14.4064 Y19.3364 F40.00
G01 X14.4009 Y19.3401 F40.00
G01 X14.3951 Y19.3432 F40.00
G01 X14.3839 Y19.3479 F40.00
G01 X14.3776 Y19.3502 F40.00
G01 X14.3712 Y19.3518 F40.00
G01 X14.3646 Y19.3527 F40.00
G01 X14.3580 Y19.3531 F40.00
G01 X14.3514 Y19.3527 F40.00
G01 X14.3448 Y19.3518 F40.00
G01 X14.3384 Y19.3502 F40.00
G01 X14.3321 Y19.3479 F40.00
G01 X14.3210 Y19.3432 F40.00
G01 X14.3151 Y19.3401 F40.00
G01 X14.3096 Y19.3364 F40.00
G01 X14.3032 Y19.3311 F40.00
G01 X10.1360 Y15.1639 F40.00
G01 X10.1286 Y15.1550 F40.00
G01 X10.1227 Y15.1450 F40.00
G01 X10.1163 Y15.1291 F40.00
G01 X10.1138 Y15.1195 F40.00
G01 X10.1128 Y15.1079 F40.00
G01 X10.1128 Y12.8232 F40.00
G01 X10.1041 Y12.7923 F40.00
G01 X10.0996 Y12.7622 F40.00
G01 X10.0865 Y12.7329 F40.00
G01 X10.0778 Y12.7037 F40.00
G01 X10.0615 Y12.6780 F40.00
G01 X10.0479 Y12.6490 F40.00
G01 X10.0271 Y12.6246 F40.00
G01 X10.0105 Y12.5990 F40.00
G01 X9.9876 Y12.5790 F40.00
G01 X9.9664 Y12.5549 F40.00
G01 X9.9408 Y12.5383 F40.00
G01 X9.9164 Y12.5175 F40.00
G01 X9.9055 Y12.5125 F40.00
G01 X9.8994 Y12.5092 F40.00
G01 X9.8904 Y12.5029 F40.00
G01 X9.8839 Y12.4972 F40.00
G01 X8.6396 Y11.2528 F40.00
G01 X8.6321 Y11.2441 F40.00
G01 X8.6251 Y11.2336 F40.00
G01 X8.5919 Y11.2048 F40.00
G01 X8.5788 Y11.1920 F40.00
G01 X8.5652 Y11.1817 F40.00
G01 X8.5310 Y11.1521 F40.00
G01 X8.5228 Y11.1484 F40.00
G01 X8.5160 Y11.1445 F40.00
G01 X8.5042 Y11.1362 F40.00
G01 X8.4600 Y11.1196 F40.00
G01 X8.4178 Y11.1004 F40.00
G01 X8.4089 Y11.0991 F40.00
G01 X8.4012 Y11.0974 F40.00
G01 X8.3875 Y11.0927 F40.00
G01 X8.3437 Y11.0896 F40.00
G01 X8.3256 Y11.0871 F40.00
G01 X8.3072 Y11.0869 F40.00
G01 X8.2634 Y11.0838 F40.00
G01 X8.2510 Y11.0863 F40.00
G01 X8.2395 Y11.0871 F40.00
G01 X7.7255 Y11.0871 F40.00
G01 X7.7156 Y11.0864 F40.00
G01 X7.7041 Y11.0842 F40.00
G01 X7.6932 Y11.0802 F40.00
G01 X7.6846 Y11.0753 F40.00
G01 X7.6712 Y11.0646 F40.00
G01 X7.6641 Y11.0576 F40.00
G01 X7.6600 Y11.0524 F40.00
G01 X7.6565 Y11.0468 F40.00
G01 X7.6385 Y11.0132 F40.00
G01 X7.5251 Y10.8749 F40.00
G01 X7.3868 Y10.7615 F40.00
G01 X7.2291 Y10.6772 F40.00
G01 X7.0580 Y10.6253 F40.00
G01 X6.8800 Y10.6078 F40.00
G01 X6.7020 Y10.6253 F40.00
G01 X6.5309 Y10.6772 F40.00
G01 X6.3732 Y10.7615 F40.00
G01 X6.2349 Y10.8749 F40.00
G01 X6.1215 Y11.0132 F40.00
G01 X6.0372 Y11.1709 F40.00
G01 X5.9853 Y11.3420 F40.00
G01 X5.9678 Y11.5200 F40.00
G01 X5.9853 Y11.6980 F40.00
G01 X6.0372 Y11.8691 F40.00
G01 X6.1215 Y12.0268 F40.00
G01 X6.2349 Y12.1651 F40.00
G01 X6.3732 Y12.2785 F40.00
G01 X6.5309 Y12.3628 F40.00
G01 X6.7020 Y12.4147 F40.00
G01 X6.8800 Y12.4322 F40.00
G01 X7.0580 Y12.4147 F40.00
G01 X7.2291 Y12.3628 F40.00
G01 X7.3868 Y12.2785 F40.00
G01 X7.5251 Y12.1651 F40.00
G01 X7.6385 Y12.0268 F40.00
G01 X7.6573 Y11.9918 F40.00
G01 X7.6610 Y11.9863 F40.00
G01 X7.6661 Y11.9797 F40.00
G01 X7.6744 Y11.9716 F40.00
G01 X7.6826 Y11.9658 F40.00
G01 X7.6899 Y11.9620 F40.00
G01 X7.7043 Y11.9563 F40.00
G01 X7.7139 Y11.9538 F40.00
G01 X7.7255 Y11.9529 F40.00
G01 X8.0842 Y11.9529 F40.00
G01 X8.0908 Y11.9534 F40.00
G01 X8.0990 Y11.9549 F40.00
G01 X8.1053 Y11.9568 F40.00
G01 X8.1165 Y11.9614 F40.00
G01 X8.1225 Y11.9642 F40.00
G01 X8.1282 Y11.9676 F40.00
G01 X8.1336 Y11.9716 F40.00
G01 X8.1385 Y11.9760 F40.00
G01 X9.2274 Y13.0652 F40.00
G01 X9.2314 Y13.0704 F40.00
G01 X9.2358 Y13.0775 F40.00
G01 X9.2426 Y13.0931 F40.00
G01 X9.2459 Y13.1043 F40.00
G01 X9.2468 Y13.1109 F40.00
G01 X9.2471 Y13.1175 F40.00
G01 X9.2471 Y15.2650 F40.00
G01 X9.2463 Y15.2764 F40.00
G01 X9.2438 Y15.2888 F40.00
G01 X9.2471 Y15.3351 F40.00
G01 X9.2471 Y15.3539 F40.00
G01 X9.2462 Y15.3655 F40.00
G01 X9.2432 Y15.3767 F40.00
G01 X9.2358 Y15.3939 F40.00
G01 X9.2324 Y15.3996 F40.00
G01 X9.2284 Y15.4050 F40.00
G01 X9.2240 Y15.4099 F40.00
G01 X9.2190 Y15.4144 F40.00
G01 X9.2123 Y15.4192 F40.00
G01 X9.2065 Y15.4225 F40.00
G01 X9.1939 Y15.4279 F40.00
G01 X9.1876 Y15.4302 F40.00
G01 X9.1796 Y15.4321 F40.00
G01 X9.1730 Y15.4329 F40.00
G01 X9.1647 Y15.4330 F40.00
G01 X9.1581 Y15.4323 F40.00
G01 X9.1516 Y15.4310 F40.00
G01 X9.1452 Y15.4291 F40.00
G01 X9.1325 Y15.4239 F40.00
G01 X9.1265 Y15.4209 F40.00
G01 X9.1209 Y15.4174 F40.00
G01 X9.1144 Y15.4122 F40.00
G01 X7.8110 Y14.1089 F40.00
G01 X7.8045 Y14.1014 F40.00
G01 X7.8000 Y14.0944 F40.00
G01 X7.7964 Y14.0869 F40.00
G01 X7.7908 Y14.0726 F40.00
G01 X7.7886 Y14.0628 F40.00
G01 X7.7878 Y14.0529 F40.00
G01 X7.7879 Y12.8040 F40.00
G01 X7.7866 Y12.7930 F40.00
G01 X7.7504 Y12.7111 F40.00
G01 X7.6889 Y12.6496 F40.00
G01 X7.6070 Y12.6134 F40.00
G01 X7.5960 Y12.6122 F40.00
G01 X6.1640 Y12.6121 F40.00
G01 X6.1530 Y12.6134 F40.00
G01 X6.0711 Y12.6496 F40.00
G01 X6.0096 Y12.7111 F40.00
G01 X5.9734 Y12.7930 F40.00
G01 X5.9722 Y12.8037 F40.00
G01 X5.9722 Y14.2360 F40.00
G00 Z1.0000
G00 X9.1244 Y15.5218
G01 F60.00
G01 Z-0.1001
G01 F40.00
G01 X14.5126 Y20.9100 F40.00
G01 X14.5162 Y20.8980 F40.00
G01 X14.5205 Y20.8868 F40.00
G01 X14.5263 Y20.8745 F40.00
G01 X14.5322 Y20.8641 F40.00
G01 X14.5389 Y20.8542 F40.00
G01 X14.5478 Y20.8431 F40.00
G01 X14.5560 Y20.8344 F40.00
G01 X14.5661 Y20.8252 F40.00
G01 X14.5756 Y20.8179 F40.00
G01 X14.5875 Y20.8101 F40.00
G01 X14.5995 Y20.8037 F40.00
G01 X14.6105 Y20.7989 F40.00
G01 X14.6218 Y20.7950 F40.00
G01 X14.6356 Y20.7913 F40.00
G01 X14.6490 Y20.7890 F40.00
G01 X14.6609 Y20.7879 F40.00
G01 X14.6700 Y20.7876 F40.00
G01 X16.1728 Y20.7877 F40.00
G01 X16.1848 Y20.7883 F40.00
G01 X16.1950 Y20.7896 F40.00
G01 X16.2067 Y20.7918 F40.00
G01 X16.2182 Y20.7950 F40.00
G01 X16.2295 Y20.7989 F40.00
G01 X16.2405 Y20.8037 F40.00
G01 X16.2510 Y20.8093 F40.00
G01 X16.2603 Y20.8151 F40.00
G01 X16.2570 Y20.8033 F40.00
G01 X16.2546 Y20.7916 F40.00
G01 X16.2530 Y20.7798 F40.00
G01 X16.2524 Y20.7662 F40.00
G01 X16.2529 Y20.7519 F40.00
G01 X16.2543 Y20.7400 F40.00
G01 X16.2570 Y20.7267 F40.00
G01 X16.2603 Y20.7149 F40.00
G01 X16.2510 Y20.7207 F40.00
G01 X16.2405 Y20.7263 F40.00
G01 X16.2295 Y20.7311 F40.00
G01 X16.2182 Y20.7350 F40.00
G01 X16.2067 Y20.7382 F40.00
G01 X16.1966 Y20.7402 F40.00
G01 X16.1848 Y20.7417 F40.00
G01 X16.1728 Y20.7423 F40.00
G01 X14.6700 Y20.7424 F40.00
G01 X14.6569 Y20.7418 F40.00
G01 X14.6434 Y20.7402 F40.00
G01 X14.6294 Y20.7372 F40.00
G01 X14.6180 Y20.7338 F40.00
G01 X14.6068 Y20.7295 F40.00
G01 X14.5945 Y20.7237 F40.00
G01 X14.5841 Y20.7178 F40.00
G01 X14.5724 Y20.7097 F40.00
G01 X14.5618 Y20.7011 F40.00
G01 X14.5532 Y20.6928 F40.00
G01 X14.5452 Y20.6839 F40.00
G01 X14.5366 Y20.6725 F40.00
G01 X14.5301 Y20.6625 F40.00
G01 X14.5237 Y20.6505 F40.00
G01 X14.5181 Y20.6373 F40.00
G01 X14.5143 Y20.6260 F40.00
G01 X14.5118 Y20.6167 F40.00
G01 X14.5098 Y20.6066 F40.00
G01 X14.5079 Y20.5891 F40.00
G01 X14.5076 Y20.4925 F40.00
G01 X14.4849 Y20.4924 F40.00
G01 X14.4596 Y20.4911 F40.00
G01 X14.4494 Y20.4901 F40.00
G01 X14.4244 Y20.4864 F40.00
G01 X14.4126 Y20.4840 F40.00
G01 X14.3875 Y20.4776 F40.00
G01 X14.3783 Y20.4747 F40.00
G01 X14.3561 Y20.4668 F40.00
G01 X14.3451 Y20.4621 F40.00
G01 X14.3202 Y20.4502 F40.00
G01 X14.2896 Y20.4320 F40.00
G01 X14.2610 Y20.4109 F40.00
G01 X14.2345 Y20.3871 F40.00
G01 X9.4229 Y15.5755 F40.00
G01 X9.4031 Y15.5539 F40.00
G01 X9.3949 Y15.5437 F40.00
G01 X9.3780 Y15.5204 F40.00
G01 X9.3628 Y15.4954 F40.00
G01 X9.3573 Y15.4848 F40.00
G01 X9.3447 Y15.4576 F40.00
G01 X9.3347 Y15.4301 F40.00
G01 X9.3302 Y15.4143 F40.00
G01 X9.3234 Y15.4304 F40.00
G01 X9.3168 Y15.4431 F40.00
G01 X9.3095 Y15.4546 F40.00
G01 X9.2998 Y15.4672 F40.00
G01 X9.2889 Y15.4788 F40.00
G01 X9.2782 Y15.4883 F40.00
G01 X9.2654 Y15.4977 F40.00
G01 X9.2516 Y15.5058 F40.00
G01 X9.2383 Y15.5121 F40.00
G01 X9.2275 Y15.5165 F40.00
G01 X9.2178 Y15.5199 F40.00
G01 X9.2047 Y15.5236 F40.00
G01 X9.1890 Y15.5264 F40.00
G01 X9.1731 Y15.5277 F40.00
G01 X9.1572 Y15.5274 F40.00
G01 X9.1414 Y15.5256 F40.00
G01 X9.1244 Y15.5218 F40.00
G00 Z1.0000
G00 X9.7489 Y17.1715
G01 F60.00
G01 Z-0.1001
G01 F40.00
G01 X9.7527 Y17.1925 F40.00
G01 X9.7543 Y17.2072 F40.00
G01 X9.7547 Y17.2215 F40.00
G01 X9.7535 Y17.2374 F40.00
G01 X9.7505 Y17.2547 F40.00
G01 X9.7461 Y17.2700 F40.00
G01 X9.7403 Y17.2848 F40.00
G01 X9.7330 Y17.2990 F40.00
G01 X9.7244 Y17.3124 F40.00
G01 X9.7168 Y17.3227 F40.00
G01 X9.7104 Y17.3308 F40.00
G01 X9.6994 Y17.3423 F40.00
G01 X9.6874 Y17.3528 F40.00
G01 X9.6730 Y17.3629 F40.00
G01 X9.6591 Y17.3706 F40.00
G01 X9.6518 Y17.3740 F40.00
G01 X9.6423 Y17.3778 F40.00
G01 X9.6385 Y17.3791 F40.00
G01 X9.6369 Y17.3796 F40.00
G01 X9.6347 Y17.3803 F40.00
G01 X9.6270 Y17.3824 F40.00
G01 X9.6126 Y17.3854 F40.00
G01 X9.6011 Y17.3872 F40.00
G01 X9.5909 Y17.3883 F40.00
G01 X9.5749 Y17.3887 F40.00
G01 X9.5590 Y17.3876 F40.00
G01 X9.5495 Y17.3862 F40.00
G01 X9.5406 Y17.3843 F40.00
G01 X9.3777 Y17.3452 F40.00
G01 X9.1600 Y17.3281 F40.00
G01 X8.9422 Y17.3452 F40.00
G01 X8.7299 Y17.3962 F40.00
G01 X8.5281 Y17.4798 F40.00
G01 X8.5125 Y17.4893 F40.00
G01 X8.6464 Y17.6232 F40.00
G01 X8.6898 Y17.6027 F40.00
G01 X8.6987 Y17.5989 F40.00
G01 X8.8005 Y17.5623 F40.00
G01 X8.8108 Y17.5591 F40.00
G01 X8.9223 Y17.5312 F40.00
G01 X9.0384 Y17.5138 F40.00
G01 X9.0491 Y17.5129 F40.00
G01 X9.1588 Y17.5076 F40.00
G01 X9.2709 Y17.5129 F40.00
G01 X9.2867 Y17.5145 F40.00
G01 X9.3898 Y17.5298 F40.00
G01 X9.4043 Y17.5327 F40.00
G01 X9.5108 Y17.5595 F40.00
G01 X9.6165 Y17.5971 F40.00
G01 X9.6312 Y17.6032 F40.00
G01 X9.7325 Y17.6513 F40.00
G01 X9.8326 Y17.7113 F40.00
G01 X9.9228 Y17.7779 F40.00
G01 X9.9351 Y17.7880 F40.00
G01 X10.0181 Y17.8636 F40.00
G01 X10.0920 Y17.9449 F40.00
G01 X10.1021 Y17.9572 F40.00
G01 X10.1687 Y18.0474 F40.00
G01 X10.2287 Y18.1475 F40.00
G01 X10.2768 Y18.2488 F40.00
G01 X10.2829 Y18.2635 F40.00
G01 X10.3205 Y18.3692 F40.00
G01 X10.3473 Y18.4757 F40.00
G01 X10.3502 Y18.4902 F40.00
G01 X10.3655 Y18.5933 F40.00
G01 X10.3671 Y18.6091 F40.00
G01 X10.3724 Y18.7212 F40.00
G01 X10.3671 Y18.8309 F40.00
G01 X10.3662 Y18.8416 F40.00
G01 X10.3488 Y18.9577 F40.00
G01 X10.3209 Y19.0692 F40.00
G01 X10.3177 Y19.0795 F40.00
G01 X10.2811 Y19.1813 F40.00
G01 X10.2773 Y19.1902 F40.00
G01 X10.2568 Y19.2336 F40.00
G01 X10.3907 Y19.3675 F40.00
G01 X10.4002 Y19.3519 F40.00
G01 X10.4838 Y19.1501 F40.00
G01 X10.5348 Y18.9378 F40.00
G01 X10.5519 Y18.7200 F40.00
G01 X10.5348 Y18.5023 F40.00
G01 X10.4954 Y18.3383 F40.00
G01 X10.4923 Y18.3206 F40.00
G01 X10.4910 Y18.3050 F40.00
G01 X10.4912 Y18.2892 F40.00
G01 X10.4929 Y18.2735 F40.00
G01 X10.4961 Y18.2581 F40.00
G01 X10.5008 Y18.2430 F40.00
G01 X10.5094 Y18.2223 F40.00
G01 X10.5168 Y18.2082 F40.00
G01 X10.5255 Y18.1949 F40.00
G01 X10.5355 Y18.1825 F40.00
G01 X10.5410 Y18.1767 F40.00
G01 X10.5485 Y18.1696 F40.00
G01 X10.5608 Y18.1596 F40.00
G01 X10.5742 Y18.1509 F40.00
G01 X10.5883 Y18.1434 F40.00
G01 X10.6090 Y18.1349 F40.00
G01 X10.6242 Y18.1301 F40.00
G01 X10.6398 Y18.1269 F40.00
G01 X10.6556 Y18.1252 F40.00
G01 X10.6659 Y18.1250 F40.00
G01 X10.6739 Y18.1252 F40.00
G01 X10.6914 Y18.1272 F40.00
G01 X10.7084 Y18.1309 F40.00
G01 X9.7489 Y17.1715 F40.00
G01 X9.5802 Y17.4835 F40.00
G01 X9.6490 Y17.5081 F40.00
G01 X9.6623 Y17.5133 F40.00
G01 X9.7670 Y17.5626 F40.00
G01 X9.7856 Y17.5726 F40.00
G01 X9.8789 Y17.6285 F40.00
G01 X9.8960 Y17.6401 F40.00
G01 X9.9883 Y17.7089 F40.00
G01 X9.9988 Y17.7179 F40.00
G01 X10.0834 Y17.7949 F40.00
G01 X10.0929 Y17.8049 F40.00
G01 X10.1625 Y17.8817 F40.00
G01 X10.1711 Y17.8917 F40.00
G01 X10.2399 Y17.9840 F40.00
G01 X10.2515 Y18.0011 F40.00
G01 X10.3074 Y18.0944 F40.00
G01 X10.3174 Y18.1130 F40.00
G01 X10.3667 Y18.2177 F40.00
G01 X10.3719 Y18.2310 F40.00
G01 X10.3962 Y18.2989 F40.00
G01 X10.3968 Y18.2815 F40.00
G01 X10.3984 Y18.2656 F40.00
G01 X10.4010 Y18.2494 F40.00
G01 X10.4046 Y18.2338 F40.00
G01 X10.4089 Y18.2191 F40.00
G01 X10.4143 Y18.2041 F40.00
G01 X10.4226 Y18.1844 F40.00
G01 X10.4305 Y18.1685 F40.00
G01 X10.4388 Y18.1542 F40.00
G01 X10.4478 Y18.1408 F40.00
G01 X10.4572 Y18.1285 F40.00
G01 X10.4677 Y18.1164 F40.00
G01 X10.4802 Y18.1037 F40.00
G01 X10.4918 Y18.0935 F40.00
G01 X10.5044 Y18.0835 F40.00
G01 X10.5178 Y18.0743 F40.00
G01 X9.8053 Y17.3619 F40.00
G01 X9.7928 Y17.3794 F40.00
G01 X9.7842 Y17.3901 F40.00
G01 X9.7735 Y17.4022 F40.00
G01 X9.7625 Y17.4130 F40.00
G01 X9.7491 Y17.4247 F40.00
G01 X9.7363 Y17.4344 F40.00
G01 X9.7235 Y17.4430 F40.00
G01 X9.7095 Y17.4511 F40.00
G01 X9.6947 Y17.4585 F40.00
G01 X9.6799 Y17.4648 F40.00
G01 X9.6653 Y17.4699 F40.00
G01 X9.6498 Y17.4744 F40.00
G01 X9.6325 Y17.4781 F40.00
G01 X9.6113 Y17.4814 F40.00
G01 X9.5959 Y17.4829 F40.00
G01 X9.5802 Y17.4835 F40.00
G00 Z1.0000
G00 X7.9113 Y17.9206
G01 F60.00
G01 Z-0.1001
G01 F40.00
G01 X8.1779 Y18.1871 F40.00
G01 X8.1728 Y18.1961 F40.00
G01 X8.1274 Y18.2923 F40.00
G01 X8.0915 Y18.3924 F40.00
G01 X8.0896 Y18.3988 F40.00
G01 X8.0638 Y18.5020 F40.00
G01 X8.0481 Y18.6072 F40.00
G01 X8.0475 Y18.6138 F40.00
G01 X8.0424 Y18.7200 F40.00
G01 X8.0475 Y18.8262 F40.00
G01 X8.0481 Y18.8328 F40.00
G01 X8.0638 Y18.9380 F40.00
G01 X8.0896 Y19.0412 F40.00
G01 X8.0915 Y19.0476 F40.00
G01 X8.1274 Y19.1477 F40.00
G01 X8.1728 Y19.2439 F40.00
G01 X8.1779 Y19.2529 F40.00
G01 X7.9113 Y19.5194 F40.00
G01 X7.8351 Y19.3951 F40.00
G01 X7.7458 Y19.1795 F40.00
G01 X7.6914 Y18.9526 F40.00
G01 X7.6731 Y18.7200 F40.00
G01 X7.6914 Y18.4874 F40.00
G01 X7.7458 Y18.2605 F40.00
G01 X7.8351 Y18.0449 F40.00
G01 X7.9113 Y17.9206 F40.00
G01 X7.9293 Y18.0725 F40.00
G01 X8.0632 Y18.2064 F40.00
G01 X8.0427 Y18.2498 F40.00
G01 X8.0389 Y18.2587 F40.00
G01 X8.0014 Y18.3632 F40.00
G01 X7.9977 Y18.3758 F40.00
G01 X7.9715 Y18.4807 F40.00
G01 X7.9696 Y18.4913 F40.00
G01 X7.9536 Y18.6000 F40.00
G01 X7.9478 Y18.7120 F40.00
G01 X7.9476 Y18.7212 F40.00
G01 X7.9529 Y18.8309 F40.00
G01 X7.9536 Y18.8400 F40.00
G01 X7.9696 Y18.9487 F40.00
G01 X7.9720 Y18.9616 F40.00
G01 X7.9977 Y19.0642 F40.00
G01 X8.0014 Y19.0768 F40.00
G01 X8.0389 Y19.1813 F40.00
G01 X8.0427 Y19.1902 F40.00
G01 X8.0632 Y19.2336 F40.00
G01 X7.9293 Y19.3675 F40.00
G01 X7.9198 Y19.3519 F40.00
G01 X7.8362 Y19.1501 F40.00
G01 X7.7852 Y18.9378 F40.00
G01 X7.7681 Y18.7200 F40.00
G01 X7.7852 Y18.5023 F40.00
G01 X7.8362 Y18.2899 F40.00
G01 X7.9198 Y18.0881 F40.00
G01 X7.9293 Y18.0725 F40.00
G00 Z1.0000
G00 X8.3606 Y19.9687
G01 F60.00
G01 Z-0.1001
G01 F40.00
G01 X8.4849 Y20.0449 F40.00
G01 X8.7005 Y20.1342 F40.00
G01 X8.9274 Y20.1886 F40.00
G01 X9.1600 Y20.2069 F40.00
G01 X9.3926 Y20.1886 F40.00
G01 X9.6195 Y20.1342 F40.00
G01 X9.8351 Y20.0449 F40.00
G01 X9.9594 Y19.9687 F40.00
G01 X9.6929 Y19.7021 F40.00
G01 X9.6839 Y19.7072 F40.00
G01 X9.5877 Y19.7526 F40.00
G01 X9.4876 Y19.7885 F40.00
G01 X9.4812 Y19.7904 F40.00
G01 X9.3780 Y19.8162 F40.00
G01 X9.2728 Y19.8319 F40.00
G01 X9.2662 Y19.8325 F40.00
G01 X9.1600 Y19.8376 F40.00
G01 X9.0538 Y19.8325 F40.00
G01 X9.0472 Y19.8319 F40.00
G01 X8.9420 Y19.8162 F40.00
G01 X8.8388 Y19.7904 F40.00
G01 X8.8324 Y19.7885 F40.00
G01 X8.7323 Y19.7526 F40.00
G01 X8.6361 Y19.7072 F40.00
G01 X8.6271 Y19.7021 F40.00
G01 X8.3606 Y19.9687 F40.00
G01 X8.5125 Y19.9507 F40.00
G01 X8.5281 Y19.9602 F40.00
G01 X8.7299 Y20.0438 F40.00
G01 X8.9422 Y20.0948 F40.00
G01 X9.1600 Y20.1119 F40.00
G01 X9.3777 Y20.0948 F40.00
G01 X9.5901 Y20.0438 F40.00
G01 X9.7919 Y19.9602 F40.00
G01 X9.8075 Y19.9507 F40.00
G01 X9.6736 Y19.8168 F40.00
G01 X9.6302 Y19.8373 F40.00
G01 X9.6213 Y19.8411 F40.00
G01 X9.5168 Y19.8786 F40.00
G01 X9.5042 Y19.8823 F40.00
G01 X9.3993 Y19.9085 F40.00
G01 X9.3887 Y19.9104 F40.00
G01 X9.2800 Y19.9264 F40.00
G01 X9.1680 Y19.9322 F40.00
G01 X9.1588 Y19.9324 F40.00
G01 X9.0491 Y19.9271 F40.00
G01 X9.0400 Y19.9264 F40.00
G01 X8.9313 Y19.9104 F40.00
G01 X8.9184 Y19.9080 F40.00
G01 X8.8158 Y19.8823 F40.00
G01 X8.8032 Y19.8786 F40.00
G01 X8.6987 Y19.8411 F40.00
G01 X8.6898 Y19.8373 F40.00
G01 X8.6464 Y19.8168 F40.00
G01 X8.5125 Y19.9507 F40.00
G00 Z1.0000
G00 X10.3572 Y23.5367
G01 F60.00
G01 Z-0.1001
G01 F40.00
G01 X10.3632 Y23.5775 F40.00
G01 X10.4031 Y23.5775 F40.00
G01 X10.3901 Y23.5689 F40.00
G01 X10.3779 Y23.5590 F40.00
G01 X10.3666 Y23.5480 F40.00
G01 X10.3572 Y23.5367 F40.00
G00 Z1.0000
G00 X8.1760 Y24.2497
G01 F60.00
G01 Z-0.1001
G01 F40.00
G01 X8.1728 Y24.2439 F40.00
G01 X8.1274 Y24.1477 F40.00
G01 X8.0915 Y24.0476 F40.00
G01 X8.0896 Y24.0412 F40.00
G01 X8.0638 Y23.9380 F40.00
G01 X8.0481 Y23.8328 F40.00
G01 X8.0475 Y23.8262 F40.00
G01 X8.0424 Y23.7200 F40.00
G01 X8.0475 Y23.6138 F40.00
G01 X8.0481 Y23.6072 F40.00
G01 X8.0638 Y23.5020 F40.00
G01 X8.0896 Y23.3988 F40.00
G01 X8.0915 Y23.3924 F40.00
G01 X8.1274 Y23.2923 F40.00
G01 X8.1743 Y23.1931 F40.00
G01 X8.2289 Y23.1019 F40.00
G01 X8.2326 Y23.0964 F40.00
G01 X8.2960 Y23.0110 F40.00
G01 X8.3674 Y22.9321 F40.00
G01 X8.3721 Y22.9274 F40.00
G01 X8.4510 Y22.8560 F40.00
G01 X8.5391 Y22.7907 F40.00
G01 X8.6331 Y22.7343 F40.00
G01 X8.7293 Y22.6888 F40.00
G01 X8.7354 Y22.6862 F40.00
G01 X8.8356 Y22.6505 F40.00
G01 X8.9387 Y22.6246 F40.00
G01 X8.9452 Y22.6233 F40.00
G01 X9.0505 Y22.6077 F40.00
G01 X9.1600 Y22.6024 F40.00
G01 X9.2695 Y22.6077 F40.00
G01 X9.3780 Y22.6238 F40.00
G01 X9.4844 Y22.6505 F40.00
G01 X9.5877 Y22.6874 F40.00
G01 X9.6869 Y22.7343 F40.00
G01 X9.7809 Y22.7907 F40.00
G01 X9.8703 Y22.8571 F40.00
G01 X9.9503 Y22.9297 F40.00
G01 X10.0240 Y23.0110 F40.00
G01 X10.0893 Y23.0991 F40.00
G01 X10.1464 Y23.1946 F40.00
G01 X10.1926 Y23.2923 F40.00
G01 X10.2300 Y23.3972 F40.00
G01 X10.2565 Y23.5036 F40.00
G01 X10.2721 Y23.6088 F40.00
G01 X10.2754 Y23.6722 F40.00
G01 X14.6023 Y23.6723 F40.00
G01 X14.6024 Y23.4900 F40.00
G01 X14.6029 Y23.4817 F40.00
G01 X14.6044 Y23.4736 F40.00
G01 X14.6075 Y23.4641 F40.00
G01 X14.6120 Y23.4552 F40.00
G01 X14.6177 Y23.4471 F40.00
G01 X14.6246 Y23.4399 F40.00
G01 X14.6324 Y23.4338 F40.00
G01 X14.6426 Y23.4282 F40.00
G01 X14.6520 Y23.4248 F40.00
G01 X14.6617 Y23.4229 F40.00
G01 X14.6700 Y23.4224 F40.00
G01 X16.1733 Y23.4224 F40.00
G01 X16.1848 Y23.4240 F40.00
G01 X16.1912 Y23.4258 F40.00
G01 X16.1974 Y23.4282 F40.00
G01 X16.2076 Y23.4338 F40.00
G01 X16.2166 Y23.4410 F40.00
G01 X16.2243 Y23.4497 F40.00
G01 X16.2280 Y23.4552 F40.00
G01 X16.2312 Y23.4611 F40.00
G01 X16.2352 Y23.4720 F40.00
G01 X16.2373 Y23.4834 F40.00
G01 X16.2376 Y23.4900 F40.00
G01 X16.2375 Y24.3950 F40.00
G01 X16.2356 Y24.4064 F40.00
G01 X16.2318 Y24.4174 F40.00
G01 X16.2262 Y24.4276 F40.00
G01 X16.2223 Y24.4329 F40.00
G01 X16.2178 Y24.4378 F40.00
G01 X16.2090 Y24.4453 F40.00
G01 X16.1989 Y24.4512 F40.00
G01 X16.1880 Y24.4552 F40.00
G01 X16.1766 Y24.4573 F40.00
G01 X16.1700 Y24.4576 F40.00
G01 X14.6700 Y24.4576 F40.00
G01 X14.6601 Y24.4569 F40.00
G01 X14.6504 Y24.4547 F40.00
G01 X14.6411 Y24.4512 F40.00
G01 X14.6310 Y24.4453 F40.00
G01 X14.6234 Y24.4390 F40.00
G01 X14.6167 Y24.4316 F40.00
G01 X14.6111 Y24.4233 F40.00
G01 X14.6069 Y24.4143 F40.00
G01 X14.6040 Y24.4048 F40.00
G01 X14.6029 Y24.3983 F40.00
G01 X14.6024 Y24.3900 F40.00
G01 X14.6024 Y24.2078 F40.00
G01 X10.1643 Y24.2077 F40.00
G01 X10.1449 Y24.2483 F40.00
G01 X10.0902 Y24.3395 F40.00
G01 X10.0229 Y24.4303 F40.00
G01 X9.9503 Y24.5103 F40.00
G01 X9.8715 Y24.5818 F40.00
G01 X9.8664 Y24.5860 F40.00
G01 X9.7795 Y24.6502 F40.00
G01 X9.6869 Y24.7057 F40.00
G01 X9.5907 Y24.7512 F40.00
G01 X9.5846 Y24.7538 F40.00
G01 X9.4844 Y24.7895 F40.00
G01 X9.3780 Y24.8162 F40.00
G01 X9.2728 Y24.8319 F40.00
G01 X9.2662 Y24.8325 F40.00
G01 X9.1583 Y24.8376 F40.00
G01 X9.0538 Y24.8325 F40.00
G01 X9.0472 Y24.8319 F40.00
G01 X8.9420 Y24.8162 F40.00
G01 X8.8388 Y24.7904 F40.00
G01 X8.8324 Y24.7885 F40.00
G01 X8.7323 Y24.7526 F40.00
G01 X8.6361 Y24.7072 F40.00
G01 X8.6303 Y24.7040 F40.00
G01 X8.5391 Y24.6493 F40.00
G01 X8.4536 Y24.5860 F40.00
G01 X8.4485 Y24.5818 F40.00
G01 X8.3697 Y24.5103 F40.00
G01 X8.2982 Y24.4315 F40.00
G01 X8.2940 Y24.4264 F40.00
G01 X8.2307 Y24.3409 F40.00
G01 X8.1760 Y24.2497 F40.00
G00 Z1.0000
G00 X14.4478 Y23.5775
G01 F60.00
G01 Z-0.1001
G01 F40.00
G01 X14.5076 Y23.5775 F40.00
G01 X14.5076 Y23.5190 F40.00
G01 X14.5018 Y23.5282 F40.00
G01 X14.4961 Y23.5359 F40.00
G01 X14.4896 Y23.5437 F40.00
G01 X14.4815 Y23.5523 F40.00
G01 X14.4745 Y23.5587 F40.00
G01 X14.4653 Y23.5661 F40.00
G01 X14.4570 Y23.5720 F40.00
G01 X14.4478 Y23.5775 F40.00
G00 Z1.0000
G00 X14.5797 Y21.9849
G01 F60.00
G01 Z-0.1001
G01 F40.00
G01 X14.5830 Y21.9967 F40.00
G01 X14.5857 Y22.0100 F40.00
G01 X14.5871 Y22.0219 F40.00
G01 X14.5876 Y22.0362 F40.00
G01 X14.5871 Y22.0481 F40.00
G01 X14.5854 Y22.0616 F40.00
G01 X14.5830 Y22.0733 F40.00
G01 X14.5797 Y22.0851 F40.00
G01 X14.5890 Y22.0793 F40.00
G01 X14.5995 Y22.0737 F40.00
G01 X14.6105 Y22.0689 F40.00
G01 X14.6218 Y22.0650 F40.00
G01 X14.6333 Y22.0618 F40.00
G01 X14.6450 Y22.0596 F40.00
G01 X14.6569 Y22.0582 F40.00
G01 X14.6700 Y22.0576 F40.00
G01 X16.1728 Y22.0577 F40.00
G01 X16.1848 Y22.0583 F40.00
G01 X16.1950 Y22.0596 F40.00
G01 X16.2067 Y22.0618 F40.00
G01 X16.2182 Y22.0650 F40.00
G01 X16.2295 Y22.0689 F40.00
G01 X16.2405 Y22.0737 F40.00
G01 X16.2510 Y22.0793 F40.00
G01 X16.2603 Y22.0851 F40.00
G01 X16.2570 Y22.0733 F40.00
G01 X16.2546 Y22.0616 F40.00
G01 X16.2529 Y22.0481 F40.00
G01 X16.2524 Y22.0362 F40.00
G01 X16.2529 Y22.0219 F40.00
G01 X16.2543 Y22.0100 F40.00
G01 X16.2570 Y21.9967 F40.00
G01 X16.2603 Y21.9849 F40.00
G01 X16.2510 Y21.9907 F40.00
G01 X16.2405 Y21.9963 F40.00
G01 X16.2295 Y22.0011 F40.00
G01 X16.2182 Y22.0050 F40.00
G01 X16.2067 Y22.0082 F40.00
G01 X16.1966 Y22.0102 F40.00
G01 X16.1848 Y22.0117 F40.00
G01 X16.1728 Y22.0123 F40.00
G01 X14.6700 Y22.0124 F40.00
G01 X14.6552 Y22.0117 F40.00
G01 X14.6411 Y22.0098 F40.00
G01 X14.6256 Y22.0062 F40.00
G01 X14.6089 Y22.0004 F40.00
G01 X14.5945 Y21.9937 F40.00
G01 X14.5797 Y21.9849 F40.00
G01 X14.4655 Y21.7615 F40.00
G01 X14.4778 Y21.7721 F40.00
G01 X14.4886 Y21.7835 F40.00
G01 X14.4983 Y21.7960 F40.00
G01 X14.5076 Y21.8109 F40.00
G01 X14.5076 Y21.7625 F40.00
G01 X14.4872 Y21.7624 F40.00
G01 X14.4655 Y21.7615 F40.00
G00 Z1.0000
G00 X14.2635 Y20.5270
G01 F60.00
G01 Z-0.1001
G01 F40.00
G01 X14.4508 Y20.7142 F40.00
G01 X14.4422 Y20.6991 F40.00
G01 X14.4345 Y20.6831 F40.00
G01 X14.4284 Y20.6677 F40.00
G01 X14.4226 Y20.6497 F40.00
G01 X14.4183 Y20.6324 F40.00
G01 X14.4154 Y20.6154 F40.00
G01 X14.4135 Y20.5978 F40.00
G01 X14.4129 Y20.5805 F40.00
G01 X14.3935 Y20.5768 F40.00
G01 X14.3645 Y20.5695 F40.00
G01 X14.3502 Y20.5652 F40.00
G01 X14.3268 Y20.5569 F40.00
G01 X14.3103 Y20.5503 F40.00
G01 X14.2858 Y20.5389 F40.00
G01 X14.2735 Y20.5326 F40.00
G01 X14.2635 Y20.5270 F40.00
G00 Z1.0000
G00 X16.2603 Y19.5451
G01 F60.00
G01 Z-0.1001
G01 F40.00
