(G-CODE GENERATED BY FLATCAM v8.994 - www.flatcam.org - Version Date: 2020/11/7)

(Name: Alignment Drills_1_edit_mill_slot_cnc)
(Type: G-code from Geometry)
(Units: MM)

(Created on Friday, 28 April 2023 at 23:53)

(This preprocessor is the default preprocessor used by FlatCAM.)
(It is made to work with MACH3 compatible motion controllers.)

(TOOL DIAMETER: 0.8 mm)
(Feedrate_XY: 20.0 mm/min)
(Feedrate_Z: 20.0 mm/min)
(Feedrate rapids 1500.0 mm/min)

(Z_Cut: -2.4 mm)
(Z_Move: 2.0 mm)
(Z Start: None mm)
(Z End: 5.0 mm)
(X,Y End: None mm)
(Steps per circle: 64)
(Preprocessor Geometry: default)

(X range:   23.6499 ...   26.3501  mm)
(Y range:   -2.0571 ...    2.0571  mm)

(Spindle Speed: 100.0 RPM)
G21
G90
G94

G01 F20.00

M5
G00 Z15.0000
G00 X0.0000 Y0.0000
T1
M6    
(MSG, Change to Tool Dia = 0.8000)
M0
G00 Z15.0000

M03 S100.0
G01 F20.00
G00 X25.9501 Y-0.7046
G01 F20.00
G01 Z-2.4000
G01 F20.00
G01 X25.9498 Y-0.7304
G01 X25.9489 Y-0.7537
G01 X25.9475 Y-0.7769
G01 X25.9455 Y-0.8002
G01 X25.9429 Y-0.8233
G01 X25.9398 Y-0.8464
G01 X25.9361 Y-0.8695
G01 X25.9318 Y-0.8924
G01 X25.9270 Y-0.9152
G01 X25.9216 Y-0.9379
G01 X25.9157 Y-0.9604
G01 X25.9092 Y-0.9828
G01 X25.9021 Y-1.0051
G01 X25.8945 Y-1.0271
G01 X25.8864 Y-1.0490
G01 X25.8778 Y-1.0706
G01 X25.8686 Y-1.0920
G01 X25.8589 Y-1.1132
G01 X25.8486 Y-1.1342
G01 X25.8379 Y-1.1549
G01 X25.8266 Y-1.1753
G01 X25.8149 Y-1.1955
G01 X25.8027 Y-1.2153
G01 X25.7900 Y-1.2349
G01 X25.7768 Y-1.2541
G01 X25.7631 Y-1.2730
G01 X25.7490 Y-1.2916
G01 X25.7344 Y-1.3098
G01 X25.7194 Y-1.3276
G01 X25.7040 Y-1.3451
G01 X25.6881 Y-1.3622
G01 X25.6718 Y-1.3788
G01 X25.6551 Y-1.3951
G01 X25.6380 Y-1.4110
G01 X25.6206 Y-1.4264
G01 X25.6027 Y-1.4415
G01 X25.5845 Y-1.4560
G01 X25.5660 Y-1.4701
G01 X25.5471 Y-1.4838
G01 X25.5278 Y-1.4970
G01 X25.5083 Y-1.5097
G01 X25.4884 Y-1.5219
G01 X25.4683 Y-1.5337
G01 X25.4479 Y-1.5449
G01 X25.4272 Y-1.5557
G01 X25.4062 Y-1.5659
G01 X25.3850 Y-1.5756
G01 X25.3636 Y-1.5848
G01 X25.3419 Y-1.5935
G01 X25.3201 Y-1.6016
G01 X25.2980 Y-1.6092
G01 X25.2758 Y-1.6162
G01 X25.2534 Y-1.6227
G01 X25.2308 Y-1.6286
G01 X25.2082 Y-1.6340
G01 X25.1853 Y-1.6389
G01 X25.1624 Y-1.6431
G01 X25.1394 Y-1.6468
G01 X25.1163 Y-1.6500
G01 X25.0931 Y-1.6525
G01 X25.0699 Y-1.6545
G01 X25.0466 Y-1.6560
G01 X25.0233 Y-1.6568
G01 X25.0000 Y-1.6571
G01 X24.9767 Y-1.6568
G01 X24.9534 Y-1.6560
G01 X24.9301 Y-1.6545
G01 X24.9069 Y-1.6525
G01 X24.8837 Y-1.6500
G01 X24.8606 Y-1.6468
G01 X24.8376 Y-1.6431
G01 X24.8147 Y-1.6389
G01 X24.7918 Y-1.6340
G01 X24.7692 Y-1.6286
G01 X24.7466 Y-1.6227
G01 X24.7242 Y-1.6162
G01 X24.7020 Y-1.6092
G01 X24.6799 Y-1.6016
G01 X24.6581 Y-1.5935
G01 X24.6364 Y-1.5848
G01 X24.6150 Y-1.5756
G01 X24.5938 Y-1.5659
G01 X24.5728 Y-1.5557
G01 X24.5521 Y-1.5449
G01 X24.5317 Y-1.5337
G01 X24.5116 Y-1.5219
G01 X24.4917 Y-1.5097
G01 X24.4722 Y-1.4970
G01 X24.4529 Y-1.4838
G01 X24.4340 Y-1.4701
G01 X24.4155 Y-1.4560
G01 X24.3973 Y-1.4415
G01 X24.3794 Y-1.4264
G01 X24.3620 Y-1.4110
G01 X24.3449 Y-1.3951
G01 X24.3282 Y-1.3788
G01 X24.3119 Y-1.3622
G01 X24.2960 Y-1.3451
G01 X24.2806 Y-1.3276
G01 X24.2656 Y-1.3098
G01 X24.2510 Y-1.2916
G01 X24.2369 Y-1.2730
G01 X24.2232 Y-1.2541
G01 X24.2100 Y-1.2349
G01 X24.1973 Y-1.2153
G01 X24.1851 Y-1.1955
G01 X24.1734 Y-1.1753
G01 X24.1621 Y-1.1549
G01 X24.1514 Y-1.1342
G01 X24.1411 Y-1.1132
G01 X24.1314 Y-1.0920
G01 X24.1223 Y-1.0706
G01 X24.1136 Y-1.0490
G01 X24.1055 Y-1.0271
G01 X24.0979 Y-1.0051
G01 X24.0908 Y-0.9828
G01 X24.0843 Y-0.9604
G01 X24.0784 Y-0.9379
G01 X24.0730 Y-0.9152
G01 X24.0682 Y-0.8924
G01 X24.0639 Y-0.8695
G01 X24.0602 Y-0.8464
G01 X24.0571 Y-0.8233
G01 X24.0545 Y-0.8002
G01 X24.0525 Y-0.7769
G01 X24.0511 Y-0.7537
G01 X24.0502 Y-0.7304
G01 X24.0499 Y-0.7046
G01 X24.0499 Y0.7046
G01 X24.0502 Y0.7304
G01 X24.0511 Y0.7537
G01 X24.0525 Y0.7769
G01 X24.0545 Y0.8002
G01 X24.0571 Y0.8233
G01 X24.0602 Y0.8464
G01 X24.0639 Y0.8695
G01 X24.0682 Y0.8924
G01 X24.0730 Y0.9152
G01 X24.0784 Y0.9379
G01 X24.0843 Y0.9604
G01 X24.0908 Y0.9828
G01 X24.0979 Y1.0051
G01 X24.1055 Y1.0271
G01 X24.1136 Y1.0490
G01 X24.1222 Y1.0706
G01 X24.1314 Y1.0920
G01 X24.1411 Y1.1132
G01 X24.1514 Y1.1342
G01 X24.1621 Y1.1549
G01 X24.1734 Y1.1753
G01 X24.1851 Y1.1955
G01 X24.1973 Y1.2153
G01 X24.2100 Y1.2349
G01 X24.2232 Y1.2541
G01 X24.2369 Y1.2730
G01 X24.2510 Y1.2916
G01 X24.2656 Y1.3098
G01 X24.2806 Y1.3276
G01 X24.2960 Y1.3451
G01 X24.3119 Y1.3622
G01 X24.3282 Y1.3788
G01 X24.3449 Y1.3951
G01 X24.3620 Y1.4110
G01 X24.3794 Y1.4264
G01 X24.3973 Y1.4415
G01 X24.4155 Y1.4560
G01 X24.4340 Y1.4701
G01 X24.4529 Y1.4838
G01 X24.4722 Y1.4970
G01 X24.4917 Y1.5097
G01 X24.5116 Y1.5219
G01 X24.5317 Y1.5337
G01 X24.5521 Y1.5449
G01 X24.5728 Y1.5557
G01 X24.5938 Y1.5659
G01 X24.6150 Y1.5756
G01 X24.6364 Y1.5848
G01 X24.6581 Y1.5935
G01 X24.6799 Y1.6016
G01 X24.7020 Y1.6092
G01 X24.7242 Y1.6162
G01 X24.7466 Y1.6227
G01 X24.7692 Y1.6286
G01 X24.7918 Y1.6340
G01 X24.8147 Y1.6389
G01 X24.8376 Y1.6431
G01 X24.8606 Y1.6468
G01 X24.8837 Y1.6500
G01 X24.9069 Y1.6525
G01 X24.9301 Y1.6545
G01 X24.9534 Y1.6560
G01 X24.9767 Y1.6568
G01 X25.0000 Y1.6571
G01 X25.0233 Y1.6568
G01 X25.0466 Y1.6560
G01 X25.0699 Y1.6545
G01 X25.0931 Y1.6525
G01 X25.1163 Y1.6500
G01 X25.1394 Y1.6468
G01 X25.1624 Y1.6431
G01 X25.1853 Y1.6389
G01 X25.2082 Y1.6340
G01 X25.2308 Y1.6286
G01 X25.2534 Y1.6227
G01 X25.2758 Y1.6162
G01 X25.2980 Y1.6092
G01 X25.3201 Y1.6016
G01 X25.3419 Y1.5935
G01 X25.3636 Y1.5848
G01 X25.3850 Y1.5756
G01 X25.4062 Y1.5659
G01 X25.4272 Y1.5557
G01 X25.4479 Y1.5449
G01 X25.4683 Y1.5337
G01 X25.4884 Y1.5219
G01 X25.5083 Y1.5097
G01 X25.5278 Y1.4970
G01 X25.5471 Y1.4838
G01 X25.5660 Y1.4701
G01 X25.5845 Y1.4560
G01 X25.6027 Y1.4415
G01 X25.6206 Y1.4264
G01 X25.6380 Y1.4110
G01 X25.6551 Y1.3951
G01 X25.6718 Y1.3788
G01 X25.6881 Y1.3622
G01 X25.7040 Y1.3451
G01 X25.7194 Y1.3276
G01 X25.7344 Y1.3098
G01 X25.7490 Y1.2916
G01 X25.7631 Y1.2730
G01 X25.7768 Y1.2541
G01 X25.7900 Y1.2349
G01 X25.8027 Y1.2153
G01 X25.8149 Y1.1955
G01 X25.8266 Y1.1753
G01 X25.8379 Y1.1549
G01 X25.8486 Y1.1342
G01 X25.8589 Y1.1132
G01 X25.8686 Y1.0920
G01 X25.8777 Y1.0706
G01 X25.8864 Y1.0490
G01 X25.8945 Y1.0271
G01 X25.9021 Y1.0051
G01 X25.9092 Y0.9828
G01 X25.9157 Y0.9604
G01 X25.9216 Y0.9379
G01 X25.9270 Y0.9152
G01 X25.9318 Y0.8924
G01 X25.9361 Y0.8695
G01 X25.9398 Y0.8464
G01 X25.9429 Y0.8233
G01 X25.9455 Y0.8002
G01 X25.9475 Y0.7769
G01 X25.9489 Y0.7537
G01 X25.9498 Y0.7304
G01 X25.9501 Y0.7046
G01 X25.9501 Y-0.7046
G00 Z2.0000
M05
G00 Z2.0000
G00 Z5.00


