(G-CODE GENERATED BY FLATCAM v8.994 - www.flatcam.org - Version Date: 2020/11/7)

(Name: new_exc_edit_mill_slot_cnc)
(Type: G-code from Geometry)
(Units: MM)

(Created on Saturday, 29 April 2023 at 14:01)

(This preprocessor is the default preprocessor used by FlatCAM.)
(It is made to work with MACH3 compatible motion controllers.)

(TOOL DIAMETER: 1.2 mm)
(Feedrate_XY: 10.0 mm/min)
(Feedrate_Z: 10.0 mm/min)
(Feedrate rapids 1500.0 mm/min)

(Z_Cut: -2.4 mm)
(Z_Move: 1.0 mm)
(Z Start: None mm)
(Z End: 5.0 mm)
(X,Y End: None mm)
(Steps per circle: 64)
(Preprocessor Geometry: default)

(X range:   18.8499 ...   21.1501  mm)
(Y range:   -4.3571 ...    4.3571  mm)

(Spindle Speed: 1000.0 RPM)
G21
G90
G94

G01 F10.00

M5
G00 Z15.0000
G00 X0.0000 Y0.0000
T1
M6    
(MSG, Change to Tool Dia = 1.2000)
M0
G00 Z15.0000

M03 S1000.0
G01 F10.00
G00 X21.1501 Y-3.2070
G01 F10.00
G01 Z-2.4000
G01 F10.00
G01 X21.1498 Y-3.2353
G01 X21.1487 Y-3.2635
G01 X21.1470 Y-3.2916
G01 X21.1446 Y-3.3198
G01 X21.1415 Y-3.3478
G01 X21.1377 Y-3.3758
G01 X21.1332 Y-3.4037
G01 X21.1280 Y-3.4314
G01 X21.1222 Y-3.4590
G01 X21.1156 Y-3.4865
G01 X21.1084 Y-3.5138
G01 X21.1006 Y-3.5409
G01 X21.0921 Y-3.5678
G01 X21.0829 Y-3.5945
G01 X21.0730 Y-3.6210
G01 X21.0626 Y-3.6472
G01 X21.0514 Y-3.6731
G01 X21.0397 Y-3.6988
G01 X21.0273 Y-3.7241
G01 X21.0143 Y-3.7492
G01 X21.0007 Y-3.7739
G01 X20.9865 Y-3.7983
G01 X20.9717 Y-3.8223
G01 X20.9563 Y-3.8460
G01 X20.9403 Y-3.8693
G01 X20.9238 Y-3.8922
G01 X20.9067 Y-3.9146
G01 X20.8890 Y-3.9367
G01 X20.8709 Y-3.9583
G01 X20.8522 Y-3.9794
G01 X20.8330 Y-4.0001
G01 X20.8132 Y-4.0203
G01 X20.7930 Y-4.0400
G01 X20.7724 Y-4.0592
G01 X20.7512 Y-4.0779
G01 X20.7296 Y-4.0961
G01 X20.7076 Y-4.1137
G01 X20.6851 Y-4.1308
G01 X20.6622 Y-4.1473
G01 X20.6390 Y-4.1633
G01 X20.6153 Y-4.1787
G01 X20.5913 Y-4.1935
G01 X20.5669 Y-4.2077
G01 X20.5422 Y-4.2213
G01 X20.5171 Y-4.2343
G01 X20.4917 Y-4.2467
G01 X20.4661 Y-4.2585
G01 X20.4401 Y-4.2696
G01 X20.4139 Y-4.2801
G01 X20.3875 Y-4.2899
G01 X20.3608 Y-4.2991
G01 X20.3339 Y-4.3076
G01 X20.3067 Y-4.3155
G01 X20.2795 Y-4.3227
G01 X20.2520 Y-4.3292
G01 X20.2244 Y-4.3350
G01 X20.1966 Y-4.3402
G01 X20.1688 Y-4.3447
G01 X20.1408 Y-4.3485
G01 X20.1127 Y-4.3516
G01 X20.0846 Y-4.3540
G01 X20.0564 Y-4.3558
G01 X20.0282 Y-4.3568
G01 X20.0000 Y-4.3571
G01 X19.9718 Y-4.3568
G01 X19.9436 Y-4.3558
G01 X19.9154 Y-4.3540
G01 X19.8873 Y-4.3516
G01 X19.8592 Y-4.3485
G01 X19.8312 Y-4.3447
G01 X19.8034 Y-4.3402
G01 X19.7756 Y-4.3350
G01 X19.7480 Y-4.3292
G01 X19.7205 Y-4.3227
G01 X19.6933 Y-4.3155
G01 X19.6661 Y-4.3076
G01 X19.6392 Y-4.2991
G01 X19.6125 Y-4.2899
G01 X19.5861 Y-4.2801
G01 X19.5599 Y-4.2696
G01 X19.5339 Y-4.2585
G01 X19.5083 Y-4.2467
G01 X19.4829 Y-4.2343
G01 X19.4578 Y-4.2213
G01 X19.4331 Y-4.2077
G01 X19.4087 Y-4.1935
G01 X19.3847 Y-4.1787
G01 X19.3610 Y-4.1633
G01 X19.3378 Y-4.1473
G01 X19.3149 Y-4.1308
G01 X19.2924 Y-4.1137
G01 X19.2704 Y-4.0961
G01 X19.2488 Y-4.0779
G01 X19.2276 Y-4.0592
G01 X19.2070 Y-4.0400
G01 X19.1868 Y-4.0203
G01 X19.1670 Y-4.0001
G01 X19.1478 Y-3.9794
G01 X19.1291 Y-3.9583
G01 X19.1110 Y-3.9367
G01 X19.0933 Y-3.9146
G01 X19.0762 Y-3.8922
G01 X19.0597 Y-3.8693
G01 X19.0437 Y-3.8460
G01 X19.0283 Y-3.8223
G01 X19.0135 Y-3.7983
G01 X18.9993 Y-3.7739
G01 X18.9857 Y-3.7492
G01 X18.9727 Y-3.7241
G01 X18.9603 Y-3.6988
G01 X18.9486 Y-3.6731
G01 X18.9374 Y-3.6472
G01 X18.9270 Y-3.6210
G01 X18.9171 Y-3.5945
G01 X18.9079 Y-3.5678
G01 X18.8994 Y-3.5409
G01 X18.8916 Y-3.5138
G01 X18.8844 Y-3.4865
G01 X18.8778 Y-3.4590
G01 X18.8720 Y-3.4314
G01 X18.8668 Y-3.4037
G01 X18.8623 Y-3.3758
G01 X18.8585 Y-3.3478
G01 X18.8554 Y-3.3198
G01 X18.8530 Y-3.2916
G01 X18.8513 Y-3.2635
G01 X18.8502 Y-3.2353
G01 X18.8499 Y-3.2070
G01 X18.8499 Y3.2070
G01 X18.8502 Y3.2353
G01 X18.8513 Y3.2635
G01 X18.8530 Y3.2916
G01 X18.8554 Y3.3198
G01 X18.8585 Y3.3478
G01 X18.8623 Y3.3758
G01 X18.8668 Y3.4037
G01 X18.8720 Y3.4314
G01 X18.8778 Y3.4590
G01 X18.8844 Y3.4865
G01 X18.8916 Y3.5138
G01 X18.8994 Y3.5409
G01 X18.9079 Y3.5678
G01 X18.9171 Y3.5945
G01 X18.9270 Y3.6210
G01 X18.9374 Y3.6472
G01 X18.9486 Y3.6731
G01 X18.9603 Y3.6988
G01 X18.9727 Y3.7241
G01 X18.9857 Y3.7492
G01 X18.9993 Y3.7739
G01 X19.0135 Y3.7983
G01 X19.0283 Y3.8223
G01 X19.0437 Y3.8460
G01 X19.0597 Y3.8693
G01 X19.0762 Y3.8922
G01 X19.0933 Y3.9146
G01 X19.1110 Y3.9367
G01 X19.1291 Y3.9583
G01 X19.1478 Y3.9794
G01 X19.1670 Y4.0001
G01 X19.1868 Y4.0203
G01 X19.2070 Y4.0400
G01 X19.2276 Y4.0592
G01 X19.2488 Y4.0779
G01 X19.2704 Y4.0961
G01 X19.2924 Y4.1137
G01 X19.3149 Y4.1308
G01 X19.3378 Y4.1473
G01 X19.3610 Y4.1633
G01 X19.3847 Y4.1787
G01 X19.4087 Y4.1935
G01 X19.4331 Y4.2077
G01 X19.4578 Y4.2213
G01 X19.4829 Y4.2343
G01 X19.5083 Y4.2467
G01 X19.5339 Y4.2585
G01 X19.5599 Y4.2696
G01 X19.5861 Y4.2801
G01 X19.6125 Y4.2899
G01 X19.6392 Y4.2991
G01 X19.6661 Y4.3076
G01 X19.6933 Y4.3155
G01 X19.7205 Y4.3227
G01 X19.7480 Y4.3292
G01 X19.7756 Y4.3350
G01 X19.8034 Y4.3402
G01 X19.8312 Y4.3447
G01 X19.8592 Y4.3485
G01 X19.8873 Y4.3516
G01 X19.9154 Y4.3540
G01 X19.9436 Y4.3558
G01 X19.9718 Y4.3568
G01 X20.0000 Y4.3571
G01 X20.0282 Y4.3568
G01 X20.0564 Y4.3558
G01 X20.0846 Y4.3540
G01 X20.1127 Y4.3516
G01 X20.1408 Y4.3485
G01 X20.1688 Y4.3447
G01 X20.1966 Y4.3402
G01 X20.2244 Y4.3350
G01 X20.2520 Y4.3292
G01 X20.2795 Y4.3227
G01 X20.3067 Y4.3155
G01 X20.3339 Y4.3076
G01 X20.3608 Y4.2991
G01 X20.3875 Y4.2899
G01 X20.4139 Y4.2801
G01 X20.4401 Y4.2696
G01 X20.4661 Y4.2585
G01 X20.4917 Y4.2467
G01 X20.5171 Y4.2343
G01 X20.5422 Y4.2213
G01 X20.5669 Y4.2077
G01 X20.5913 Y4.1935
G01 X20.6153 Y4.1787
G01 X20.6390 Y4.1633
G01 X20.6622 Y4.1473
G01 X20.6851 Y4.1308
G01 X20.7076 Y4.1137
G01 X20.7296 Y4.0961
G01 X20.7512 Y4.0779
G01 X20.7724 Y4.0592
G01 X20.7930 Y4.0400
G01 X20.8132 Y4.0203
G01 X20.8330 Y4.0001
G01 X20.8522 Y3.9794
G01 X20.8709 Y3.9583
G01 X20.8890 Y3.9367
G01 X20.9067 Y3.9146
G01 X20.9238 Y3.8922
G01 X20.9403 Y3.8693
G01 X20.9563 Y3.8460
G01 X20.9717 Y3.8223
G01 X20.9865 Y3.7983
G01 X21.0007 Y3.7739
G01 X21.0143 Y3.7492
G01 X21.0273 Y3.7241
G01 X21.0397 Y3.6988
G01 X21.0514 Y3.6731
G01 X21.0626 Y3.6472
G01 X21.0730 Y3.6210
G01 X21.0829 Y3.5945
G01 X21.0921 Y3.5678
G01 X21.1006 Y3.5409
G01 X21.1084 Y3.5138
G01 X21.1156 Y3.4865
G01 X21.1222 Y3.4590
G01 X21.1280 Y3.4314
G01 X21.1332 Y3.4037
G01 X21.1377 Y3.3758
G01 X21.1415 Y3.3478
G01 X21.1446 Y3.3198
G01 X21.1470 Y3.2916
G01 X21.1487 Y3.2635
G01 X21.1498 Y3.2353
G01 X21.1501 Y3.2070
G01 X21.1501 Y-3.2070
G00 Z1.0000
M05
G00 Z1.0000
G00 Z5.00


