(G-CODE GENERATED BY FLATCAM v8.994 - www.flatcam.org - Version Date: 2020/11/7)

(Name: new_exc_edit_copy_3_mill_slot_cnc)
(Type: G-code from Geometry)
(Units: MM)

(Created on Saturday, 29 April 2023 at 16:18)

(This preprocessor is used with a motion controller loaded with GRBL firmware.)
(It is configured to be compatible with almost any version of GRBL firmware.)

(TOOL DIAMETER: 1.2 mm)
(Feedrate_XY: 15.0 mm/min)
(Feedrate_Z: 15.0 mm/min)
(Feedrate rapids 1500.0 mm/min)

(Z_Cut: -2.5 mm)
(Z_Move: 1.0 mm)
(Z Start: None mm)
(Z End: 1.0 mm)
(X,Y End: None mm)
(Steps per circle: 64)
(Steps per circle: 64)
(Preprocessor Geometry: grbl_11)

(X range:  -21.1469 ...  -18.8531  mm)
(Y range:   -4.2707 ...    4.2707  mm)

(Spindle Speed: 1000.0 RPM)
G21
G90
G17
G94


G01 F15.00

M5             
G00 Z15.0000
G00 X0.0000 Y0.0000                
T1
M6
(MSG, Change to Tool Dia = 1.2000)
M0
G00 Z15.0000

M03 S1000.0
G01 F15.00
G00 X-18.8531 Y-3.1378
G01 F15.00
G01 Z-2.5000
G01 F15.00
G01 X-18.8532 Y-3.1654 F15.00
G01 X-18.8540 Y-3.1930 F15.00
G01 X-18.8555 Y-3.2206 F15.00
G01 X-18.8577 Y-3.2481 F15.00
G01 X-18.8606 Y-3.2756 F15.00
G01 X-18.8641 Y-3.3030 F15.00
G01 X-18.8683 Y-3.3303 F15.00
G01 X-18.8732 Y-3.3575 F15.00
G01 X-18.8787 Y-3.3845 F15.00
G01 X-18.8849 Y-3.4114 F15.00
G01 X-18.8917 Y-3.4382 F15.00
G01 X-18.8992 Y-3.4648 F15.00
G01 X-18.9074 Y-3.4911 F15.00
G01 X-18.9162 Y-3.5173 F15.00
G01 X-18.9256 Y-3.5433 F15.00
G01 X-18.9357 Y-3.5690 F15.00
G01 X-18.9464 Y-3.5944 F15.00
G01 X-18.9577 Y-3.6196 F15.00
G01 X-18.9697 Y-3.6445 F15.00
G01 X-18.9822 Y-3.6691 F15.00
G01 X-18.9954 Y-3.6934 F15.00
G01 X-19.0091 Y-3.7173 F15.00
G01 X-19.0234 Y-3.7410 F15.00
G01 X-19.0383 Y-3.7642 F15.00
G01 X-19.0538 Y-3.7871 F15.00
G01 X-19.0698 Y-3.8096 F15.00
G01 X-19.0864 Y-3.8317 F15.00
G01 X-19.1035 Y-3.8533 F15.00
G01 X-19.1211 Y-3.8746 F15.00
G01 X-19.1393 Y-3.8954 F15.00
G01 X-19.1579 Y-3.9158 F15.00
G01 X-19.1771 Y-3.9357 F15.00
G01 X-19.1967 Y-3.9551 F15.00
G01 X-19.2168 Y-3.9740 F15.00
G01 X-19.2373 Y-3.9925 F15.00
G01 X-19.2584 Y-4.0104 F15.00
G01 X-19.2798 Y-4.0278 F15.00
G01 X-19.3017 Y-4.0447 F15.00
G01 X-19.3239 Y-4.0610 F15.00
G01 X-19.3466 Y-4.0768 F15.00
G01 X-19.3696 Y-4.0920 F15.00
G01 X-19.3930 Y-4.1066 F15.00
G01 X-19.4168 Y-4.1207 F15.00
G01 X-19.4409 Y-4.1342 F15.00
G01 X-19.4653 Y-4.1471 F15.00
G01 X-19.4900 Y-4.1594 F15.00
G01 X-19.5151 Y-4.1710 F15.00
G01 X-19.5404 Y-4.1821 F15.00
G01 X-19.5659 Y-4.1925 F15.00
G01 X-19.5917 Y-4.2023 F15.00
G01 X-19.6178 Y-4.2115 F15.00
G01 X-19.6441 Y-4.2200 F15.00
G01 X-19.6705 Y-4.2279 F15.00
G01 X-19.6972 Y-4.2351 F15.00
G01 X-19.7240 Y-4.2417 F15.00
G01 X-19.7510 Y-4.2476 F15.00
G01 X-19.7781 Y-4.2528 F15.00
G01 X-19.8053 Y-4.2574 F15.00
G01 X-19.8327 Y-4.2613 F15.00
G01 X-19.8601 Y-4.2645 F15.00
G01 X-19.8876 Y-4.2671 F15.00
G01 X-19.9151 Y-4.2690 F15.00
G01 X-19.9427 Y-4.2702 F15.00
G01 X-19.9703 Y-4.2707 F15.00
G01 X-19.9979 Y-4.2706 F15.00
G01 X-20.0255 Y-4.2698 F15.00
G01 X-20.0531 Y-4.2683 F15.00
G01 X-20.0806 Y-4.2661 F15.00
G01 X-20.1081 Y-4.2632 F15.00
G01 X-20.1355 Y-4.2597 F15.00
G01 X-20.1628 Y-4.2555 F15.00
G01 X-20.1900 Y-4.2506 F15.00
G01 X-20.2170 Y-4.2451 F15.00
G01 X-20.2439 Y-4.2389 F15.00
G01 X-20.2707 Y-4.2321 F15.00
G01 X-20.2972 Y-4.2245 F15.00
G01 X-20.3236 Y-4.2164 F15.00
G01 X-20.3498 Y-4.2076 F15.00
G01 X-20.3758 Y-4.1982 F15.00
G01 X-20.4015 Y-4.1881 F15.00
G01 X-20.4269 Y-4.1774 F15.00
G01 X-20.4521 Y-4.1660 F15.00
G01 X-20.4770 Y-4.1541 F15.00
G01 X-20.5016 Y-4.1416 F15.00
G01 X-20.5259 Y-4.1284 F15.00
G01 X-20.5498 Y-4.1147 F15.00
G01 X-20.5734 Y-4.1004 F15.00
G01 X-20.5967 Y-4.0855 F15.00
G01 X-20.6196 Y-4.0700 F15.00
G01 X-20.6421 Y-4.0540 F15.00
G01 X-20.6642 Y-4.0374 F15.00
G01 X-20.6858 Y-4.0203 F15.00
G01 X-20.7071 Y-4.0027 F15.00
G01 X-20.7279 Y-3.9845 F15.00
G01 X-20.7483 Y-3.9659 F15.00
G01 X-20.7682 Y-3.9467 F15.00
G01 X-20.7876 Y-3.9271 F15.00
G01 X-20.8065 Y-3.9070 F15.00
G01 X-20.8249 Y-3.8864 F15.00
G01 X-20.8429 Y-3.8654 F15.00
G01 X-20.8603 Y-3.8440 F15.00
G01 X-20.8771 Y-3.8221 F15.00
G01 X-20.8935 Y-3.7999 F15.00
G01 X-20.9093 Y-3.7772 F15.00
G01 X-20.9245 Y-3.7542 F15.00
G01 X-20.9391 Y-3.7308 F15.00
G01 X-20.9532 Y-3.7070 F15.00
G01 X-20.9667 Y-3.6829 F15.00
G01 X-20.9796 Y-3.6585 F15.00
G01 X-20.9918 Y-3.6338 F15.00
G01 X-21.0035 Y-3.6087 F15.00
G01 X-21.0146 Y-3.5834 F15.00
G01 X-21.0250 Y-3.5579 F15.00
G01 X-21.0348 Y-3.5320 F15.00
G01 X-21.0440 Y-3.5060 F15.00
G01 X-21.0525 Y-3.4797 F15.00
G01 X-21.0604 Y-3.4533 F15.00
G01 X-21.0676 Y-3.4266 F15.00
G01 X-21.0742 Y-3.3998 F15.00
G01 X-21.0801 Y-3.3728 F15.00
G01 X-21.0853 Y-3.3457 F15.00
G01 X-21.0899 Y-3.3185 F15.00
G01 X-21.0938 Y-3.2911 F15.00
G01 X-21.0970 Y-3.2637 F15.00
G01 X-21.0996 Y-3.2362 F15.00
G01 X-21.1015 Y-3.2087 F15.00
G01 X-21.1027 Y-3.1811 F15.00
G01 X-21.1032 Y-3.1535 F15.00
G01 X-21.1469 Y3.1378 F15.00
G01 X-21.1468 Y3.1654 F15.00
G01 X-21.1460 Y3.1930 F15.00
G01 X-21.1445 Y3.2206 F15.00
G01 X-21.1423 Y3.2481 F15.00
G01 X-21.1394 Y3.2756 F15.00
G01 X-21.1359 Y3.3030 F15.00
G01 X-21.1317 Y3.3303 F15.00
G01 X-21.1268 Y3.3575 F15.00
G01 X-21.1213 Y3.3845 F15.00
G01 X-21.1151 Y3.4114 F15.00
G01 X-21.1083 Y3.4382 F15.00
G01 X-21.1008 Y3.4648 F15.00
G01 X-21.0926 Y3.4911 F15.00
G01 X-21.0838 Y3.5173 F15.00
G01 X-21.0744 Y3.5433 F15.00
G01 X-21.0643 Y3.5690 F15.00
G01 X-21.0536 Y3.5944 F15.00
G01 X-21.0423 Y3.6196 F15.00
G01 X-21.0303 Y3.6445 F15.00
G01 X-21.0178 Y3.6691 F15.00
G01 X-21.0046 Y3.6934 F15.00
G01 X-20.9909 Y3.7173 F15.00
G01 X-20.9766 Y3.7410 F15.00
G01 X-20.9617 Y3.7642 F15.00
G01 X-20.9462 Y3.7871 F15.00
G01 X-20.9302 Y3.8096 F15.00
G01 X-20.9136 Y3.8317 F15.00
G01 X-20.8965 Y3.8533 F15.00
G01 X-20.8789 Y3.8746 F15.00
G01 X-20.8607 Y3.8954 F15.00
G01 X-20.8421 Y3.9158 F15.00
G01 X-20.8229 Y3.9357 F15.00
G01 X-20.8033 Y3.9551 F15.00
G01 X-20.7832 Y3.9740 F15.00
G01 X-20.7627 Y3.9925 F15.00
G01 X-20.7416 Y4.0104 F15.00
G01 X-20.7202 Y4.0278 F15.00
G01 X-20.6983 Y4.0447 F15.00
G01 X-20.6761 Y4.0610 F15.00
G01 X-20.6534 Y4.0768 F15.00
G01 X-20.6304 Y4.0920 F15.00
G01 X-20.6070 Y4.1066 F15.00
G01 X-20.5832 Y4.1207 F15.00
G01 X-20.5591 Y4.1342 F15.00
G01 X-20.5347 Y4.1471 F15.00
G01 X-20.5100 Y4.1594 F15.00
G01 X-20.4849 Y4.1710 F15.00
G01 X-20.4596 Y4.1821 F15.00
G01 X-20.4341 Y4.1925 F15.00
G01 X-20.4083 Y4.2023 F15.00
G01 X-20.3822 Y4.2115 F15.00
G01 X-20.3559 Y4.2200 F15.00
G01 X-20.3295 Y4.2279 F15.00
G01 X-20.3028 Y4.2351 F15.00
G01 X-20.2760 Y4.2417 F15.00
G01 X-20.2490 Y4.2476 F15.00
G01 X-20.2219 Y4.2528 F15.00
G01 X-20.1947 Y4.2574 F15.00
G01 X-20.1673 Y4.2613 F15.00
G01 X-20.1399 Y4.2645 F15.00
G01 X-20.1124 Y4.2671 F15.00
G01 X-20.0849 Y4.2690 F15.00
G01 X-20.0573 Y4.2702 F15.00
G01 X-20.0297 Y4.2707 F15.00
G01 X-20.0021 Y4.2706 F15.00
G01 X-19.9745 Y4.2698 F15.00
G01 X-19.9469 Y4.2683 F15.00
G01 X-19.9194 Y4.2661 F15.00
G01 X-19.8919 Y4.2632 F15.00
G01 X-19.8645 Y4.2597 F15.00
G01 X-19.8372 Y4.2555 F15.00
G01 X-19.8100 Y4.2506 F15.00
G01 X-19.7830 Y4.2451 F15.00
G01 X-19.7561 Y4.2389 F15.00
G01 X-19.7293 Y4.2321 F15.00
G01 X-19.7028 Y4.2245 F15.00
G01 X-19.6764 Y4.2164 F15.00
G01 X-19.6502 Y4.2076 F15.00
G01 X-19.6242 Y4.1982 F15.00
G01 X-19.5985 Y4.1881 F15.00
G01 X-19.5731 Y4.1774 F15.00
G01 X-19.5479 Y4.1660 F15.00
G01 X-19.5230 Y4.1541 F15.00
G01 X-19.4984 Y4.1416 F15.00
G01 X-19.4741 Y4.1284 F15.00
G01 X-19.4502 Y4.1147 F15.00
G01 X-19.4266 Y4.1004 F15.00
G01 X-19.4033 Y4.0855 F15.00
G01 X-19.3804 Y4.0700 F15.00
G01 X-19.3579 Y4.0540 F15.00
G01 X-19.3358 Y4.0374 F15.00
G01 X-19.3142 Y4.0203 F15.00
G01 X-19.2929 Y4.0027 F15.00
G01 X-19.2721 Y3.9845 F15.00
G01 X-19.2517 Y3.9659 F15.00
G01 X-19.2318 Y3.9467 F15.00
G01 X-19.2124 Y3.9271 F15.00
G01 X-19.1935 Y3.9070 F15.00
G01 X-19.1751 Y3.8864 F15.00
G01 X-19.1571 Y3.8654 F15.00
G01 X-19.1397 Y3.8440 F15.00
G01 X-19.1229 Y3.8221 F15.00
G01 X-19.1065 Y3.7999 F15.00
G01 X-19.0907 Y3.7772 F15.00
G01 X-19.0755 Y3.7542 F15.00
G01 X-19.0609 Y3.7308 F15.00
G01 X-19.0468 Y3.7070 F15.00
G01 X-19.0333 Y3.6829 F15.00
G01 X-19.0204 Y3.6585 F15.00
G01 X-19.0082 Y3.6338 F15.00
G01 X-18.9965 Y3.6087 F15.00
G01 X-18.9854 Y3.5834 F15.00
G01 X-18.9750 Y3.5579 F15.00
G01 X-18.9652 Y3.5320 F15.00
G01 X-18.9560 Y3.5060 F15.00
G01 X-18.9475 Y3.4797 F15.00
G01 X-18.9396 Y3.4533 F15.00
G01 X-18.9324 Y3.4266 F15.00
G01 X-18.9258 Y3.3998 F15.00
G01 X-18.9199 Y3.3728 F15.00
G01 X-18.9147 Y3.3457 F15.00
G01 X-18.9101 Y3.3185 F15.00
G01 X-18.9062 Y3.2911 F15.00
G01 X-18.9030 Y3.2637 F15.00
G01 X-18.9004 Y3.2362 F15.00
G01 X-18.8985 Y3.2087 F15.00
G01 X-18.8973 Y3.1811 F15.00
G01 X-18.8968 Y3.1535 F15.00
G01 X-18.8531 Y-3.1378 F15.00
G00 Z1.0000
M05
G00 Z1.0000
G00 Z1.00


