(G-CODE GENERATED BY FLATCAM v8.994 - www.flatcam.org - Version Date: 2020/11/7)

(Name: PowerAndCommModule-B_Cu.gbr_ncc_cnc)
(Type: G-code from Geometry)
(Units: MM)

(Created on Friday, 21 April 2023 at 17:27)

(This preprocessor is the default preprocessor used by FlatCAM.)
(It is made to work with MACH3 compatible motion controllers.)

(TOOL DIAMETER: 0.1353 mm)
(Feedrate_XY: 45.0 mm/min)
(Feedrate_Z: 25.0 mm/min)
(Feedrate rapids 1500.0 mm/min)

(Z_Cut: -0.1001 mm)
(Z_Move: 1.0 mm)
(Z Start: None mm)
(Z End: 15.0 mm)
(X,Y End: None mm)
(Steps per circle: 64)
(Preprocessor Geometry: default)

(X range:   26.2515 ...   65.9593  mm)
(Y range:  -79.4566 ...  -28.8758  mm)

(Spindle Speed: 1000.0 RPM)
G21
G90
G94

G01 F45.00

M5
G00 Z15.0000
G00 X0.0000 Y0.0000
T1
M6    
(MSG, Change to Tool Dia = 0.1353)
M0
G00 Z15.0000

M03 S1000.0
G01 F45.00
G00 X29.1063 Y-30.7085
G01 F25.00
G01 Z-0.1001
G01 F45.00
G01 X29.0994 Y-30.7214
G01 X29.0528 Y-30.8203
G01 X29.0151 Y-30.9251
G01 X29.0108 Y-30.9390
G01 X28.9844 Y-31.0451
G01 X28.9678 Y-31.1552
G01 X28.9664 Y-31.1698
G01 X28.9612 Y-31.2790
G01 X28.9670 Y-31.3985
G01 X28.9830 Y-31.5067
G01 X28.9858 Y-31.5210
G01 X29.0125 Y-31.6270
G01 X29.0498 Y-31.7320
G01 X29.0554 Y-31.7455
G01 X29.1023 Y-31.8442
G01 X29.1638 Y-31.9469
G01 X29.2288 Y-32.0348
G01 X29.2381 Y-32.0461
G01 X29.3130 Y-32.1284
G01 X29.3939 Y-32.2019
G01 X29.4052 Y-32.2112
G01 X29.4931 Y-32.2762
G01 X29.5958 Y-32.3377
G01 X29.6945 Y-32.3846
G01 X29.7080 Y-32.3902
G01 X29.8130 Y-32.4275
G01 X29.9190 Y-32.4542
G01 X29.9333 Y-32.4570
G01 X30.0415 Y-32.4730
G01 X30.1590 Y-32.4788
G01 X30.2765 Y-32.4731
G01 X30.3929 Y-32.4560
G01 X30.5070 Y-32.4275
G01 X30.6178 Y-32.3880
G01 X30.7242 Y-32.3377
G01 X30.8252 Y-32.2773
G01 X30.9198 Y-32.2073
G01 X31.0070 Y-32.1284
G01 X31.0861 Y-32.0413
G01 X31.1562 Y-31.9469
G01 X31.2168 Y-31.8460
G01 X31.2672 Y-31.7397
G01 X31.3069 Y-31.6290
G01 X31.3356 Y-31.5149
G01 X31.3515 Y-31.4089
G01 X35.5212 Y-31.4089
G01 X35.5212 Y-31.5110
G01 X35.5222 Y-31.5272
G01 X35.5250 Y-31.5436
G01 X35.5290 Y-31.5576
G01 X35.5350 Y-31.5727
G01 X35.5418 Y-31.5857
G01 X35.5468 Y-31.5935
G01 X35.5521 Y-31.6008
G01 X35.5580 Y-31.6080
G01 X35.5641 Y-31.6145
G01 X35.5708 Y-31.6209
G01 X35.5792 Y-31.6279
G01 X35.5865 Y-31.6332
G01 X35.5943 Y-31.6382
G01 X35.6040 Y-31.6434
G01 X35.6121 Y-31.6471
G01 X35.6208 Y-31.6505
G01 X35.6293 Y-31.6532
G01 X35.6384 Y-31.6554
G01 X35.6491 Y-31.6574
G01 X35.6581 Y-31.6583
G01 X35.6673 Y-31.6588
G01 X37.1700 Y-31.6588
G01 X37.1819 Y-31.6583
G01 X37.1945 Y-31.6568
G01 X37.2071 Y-31.6541
G01 X37.2192 Y-31.6505
G01 X37.2312 Y-31.6457
G01 X37.2425 Y-31.6400
G01 X37.2535 Y-31.6332
G01 X37.2652 Y-31.6244
G01 X37.2745 Y-31.6159
G01 X37.2833 Y-31.6065
G01 X37.2911 Y-31.5965
G01 X37.2990 Y-31.5842
G01 X37.3050 Y-31.5727
G01 X37.3098 Y-31.5611
G01 X37.3137 Y-31.5487
G01 X37.3165 Y-31.5364
G01 X37.3182 Y-31.5236
G01 X37.3188 Y-31.5100
G01 X37.3188 Y-30.6100
G01 X37.3178 Y-30.5928
G01 X37.3158 Y-30.5800
G01 X37.3132 Y-30.5693
G01 X37.3092 Y-30.5574
G01 X37.3050 Y-30.5473
G01 X37.2990 Y-30.5358
G01 X37.2932 Y-30.5265
G01 X37.2857 Y-30.5164
G01 X37.2785 Y-30.5081
G01 X37.2692 Y-30.4991
G01 X37.2608 Y-30.4921
G01 X37.2519 Y-30.4857
G01 X37.2425 Y-30.4800
G01 X37.2312 Y-30.4743
G01 X37.2211 Y-30.4702
G01 X37.2087 Y-30.4663
G01 X37.1981 Y-30.4638
G01 X37.1836 Y-30.4618
G01 X37.1700 Y-30.4612
G01 X35.6700 Y-30.4612
G01 X35.6600 Y-30.4615
G01 X35.6491 Y-30.4626
G01 X35.6329 Y-30.4659
G01 X35.6243 Y-30.4684
G01 X35.6155 Y-30.4715
G01 X35.6073 Y-30.4750
G01 X35.5990 Y-30.4792
G01 X35.5912 Y-30.4837
G01 X35.5835 Y-30.4889
G01 X35.5764 Y-30.4943
G01 X35.5693 Y-30.5004
G01 X35.5629 Y-30.5067
G01 X35.5567 Y-30.5135
G01 X35.5511 Y-30.5205
G01 X35.5457 Y-30.5281
G01 X35.5375 Y-30.5422
G01 X35.5321 Y-30.5540
G01 X35.5273 Y-30.5678
G01 X35.5238 Y-30.5819
G01 X35.5218 Y-30.5964
G01 X35.5212 Y-30.6100
G01 X35.5212 Y-30.7111
G01 X31.2152 Y-30.7111
G01 X31.1573 Y-30.6148
G01 X31.0912 Y-30.5252
G01 X31.0819 Y-30.5139
G01 X31.0070 Y-30.4316
G01 X30.9213 Y-30.3539
G01 X30.8320 Y-30.2874
G01 X30.8199 Y-30.2793
G01 X30.7242 Y-30.2223
G01 X30.6197 Y-30.1728
G01 X30.5149 Y-30.1351
G01 X30.5010 Y-30.1308
G01 X30.3929 Y-30.1040
G01 X30.2785 Y-30.0870
G01 X30.1673 Y-30.0813
G01 X30.1527 Y-30.0813
G01 X30.0498 Y-30.0864
G01 X30.0399 Y-30.0872
G01 X29.9251 Y-30.1044
G01 X29.8110 Y-30.1331
G01 X29.7003 Y-30.1728
G01 X29.5940 Y-30.2232
G01 X29.4931 Y-30.2838
G01 X29.3987 Y-30.3539
G01 X29.3116 Y-30.4330
G01 X29.2339 Y-30.5187
G01 X29.1638 Y-30.6131
G01 X29.1063 Y-30.7085
G01 X29.1760 Y-30.7503
G01 X29.1728 Y-30.7561
G01 X29.1274 Y-30.8523
G01 X29.0915 Y-30.9524
G01 X29.0896 Y-30.9588
G01 X29.0638 Y-31.0620
G01 X29.0481 Y-31.1672
G01 X29.0475 Y-31.1738
G01 X29.0424 Y-31.2800
G01 X29.0477 Y-31.3895
G01 X29.0638 Y-31.4980
G01 X29.0905 Y-31.6044
G01 X29.1274 Y-31.7077
G01 X29.1743 Y-31.8069
G01 X29.2307 Y-31.9009
G01 X29.2960 Y-31.9890
G01 X29.3674 Y-32.0679
G01 X29.3721 Y-32.0726
G01 X29.4485 Y-32.1418
G01 X29.4536 Y-32.1460
G01 X29.5391 Y-32.2093
G01 X29.6303 Y-32.2640
G01 X29.6361 Y-32.2672
G01 X29.7323 Y-32.3126
G01 X29.8356 Y-32.3495
G01 X29.9420 Y-32.3762
G01 X30.0505 Y-32.3923
G01 X30.1600 Y-32.3976
G01 X30.2695 Y-32.3923
G01 X30.3780 Y-32.3762
G01 X30.4844 Y-32.3495
G01 X30.5877 Y-32.3126
G01 X30.6869 Y-32.2657
G01 X30.7809 Y-32.2093
G01 X30.8703 Y-32.1429
G01 X30.9503 Y-32.0703
G01 X31.0240 Y-31.9890
G01 X31.0893 Y-31.9009
G01 X31.1464 Y-31.8054
G01 X31.1926 Y-31.7077
G01 X31.2300 Y-31.6028
G01 X31.2565 Y-31.4964
G01 X31.2721 Y-31.3912
G01 X31.2754 Y-31.3278
G01 X35.6023 Y-31.3277
G01 X35.6024 Y-31.5100
G01 X35.6027 Y-31.5166
G01 X35.6040 Y-31.5248
G01 X35.6069 Y-31.5343
G01 X35.6111 Y-31.5433
G01 X35.6167 Y-31.5516
G01 X35.6246 Y-31.5601
G01 X35.6324 Y-31.5662
G01 X35.6411 Y-31.5712
G01 X35.6504 Y-31.5747
G01 X35.6601 Y-31.5769
G01 X35.6700 Y-31.5776
G01 X37.1700 Y-31.5776
G01 X37.1783 Y-31.5771
G01 X37.1864 Y-31.5756
G01 X37.1974 Y-31.5718
G01 X37.2062 Y-31.5672
G01 X37.2142 Y-31.5612
G01 X37.2223 Y-31.5529
G01 X37.2289 Y-31.5433
G01 X37.2331 Y-31.5343
G01 X37.2364 Y-31.5232
G01 X37.2376 Y-31.5133
G01 X37.2376 Y-30.6100
G01 X37.2371 Y-30.6017
G01 X37.2356 Y-30.5936
G01 X37.2318 Y-30.5826
G01 X37.2272 Y-30.5738
G01 X37.2212 Y-30.5658
G01 X37.2129 Y-30.5577
G01 X37.2048 Y-30.5520
G01 X37.1943 Y-30.5469
G01 X37.1832 Y-30.5436
G01 X37.1717 Y-30.5424
G01 X35.6700 Y-30.5424
G01 X35.6617 Y-30.5429
G01 X35.6520 Y-30.5448
G01 X35.6426 Y-30.5482
G01 X35.6338 Y-30.5528
G01 X35.6258 Y-30.5588
G01 X35.6188 Y-30.5658
G01 X35.6128 Y-30.5738
G01 X35.6075 Y-30.5841
G01 X35.6044 Y-30.5936
G01 X35.6029 Y-30.6017
G01 X35.6024 Y-30.6100
G01 X35.6024 Y-30.7922
G01 X31.1643 Y-30.7923
G01 X31.1449 Y-30.7517
G01 X31.0902 Y-30.6605
G01 X31.0229 Y-30.5697
G01 X30.9503 Y-30.4897
G01 X30.8715 Y-30.4182
G01 X30.8664 Y-30.4140
G01 X30.7795 Y-30.3498
G01 X30.6869 Y-30.2943
G01 X30.5907 Y-30.2488
G01 X30.5846 Y-30.2462
G01 X30.4844 Y-30.2105
G01 X30.3780 Y-30.1838
G01 X30.2728 Y-30.1681
G01 X30.2662 Y-30.1675
G01 X30.1583 Y-30.1624
G01 X30.0538 Y-30.1675
G01 X30.0472 Y-30.1681
G01 X29.9420 Y-30.1838
G01 X29.8388 Y-30.2096
G01 X29.8324 Y-30.2115
G01 X29.7323 Y-30.2474
G01 X29.6361 Y-30.2928
G01 X29.6303 Y-30.2960
G01 X29.5391 Y-30.3507
G01 X29.4536 Y-30.4140
G01 X29.4485 Y-30.4182
G01 X29.3697 Y-30.4897
G01 X29.2982 Y-30.5685
G01 X29.2940 Y-30.5736
G01 X29.2307 Y-30.6591
G01 X29.1760 Y-30.7503
G00 Z1.0000
G00 X29.3606 Y-35.0313
G01 F25.00
G01 Z-0.1001
G01 F45.00
G01 X29.4849 Y-34.9551
G01 X29.7005 Y-34.8658
G01 X29.9274 Y-34.8114
G01 X30.1600 Y-34.7931
G01 X30.3926 Y-34.8114
G01 X30.6195 Y-34.8658
G01 X30.8351 Y-34.9551
G01 X30.9594 Y-35.0313
G01 X30.6929 Y-35.2979
G01 X30.6839 Y-35.2928
G01 X30.5877 Y-35.2474
G01 X30.4876 Y-35.2115
G01 X30.4812 Y-35.2096
G01 X30.3780 Y-35.1838
G01 X30.2728 Y-35.1681
G01 X30.2662 Y-35.1675
G01 X30.1600 Y-35.1624
G01 X30.0538 Y-35.1675
G01 X30.0472 Y-35.1681
G01 X29.9420 Y-35.1838
G01 X29.8388 Y-35.2096
G01 X29.8324 Y-35.2115
G01 X29.7323 Y-35.2474
G01 X29.6361 Y-35.2928
G01 X29.6271 Y-35.2979
G01 X29.3606 Y-35.0313
G01 X29.4908 Y-35.0468
G01 X29.5219 Y-35.0277
G01 X29.7257 Y-34.9433
G01 X29.9401 Y-34.8918
G01 X30.1600 Y-34.8745
G01 X30.3799 Y-34.8918
G01 X30.5943 Y-34.9433
G01 X30.7981 Y-35.0277
G01 X30.8292 Y-35.0468
G01 X30.6765 Y-35.1995
G01 X30.6255 Y-35.1754
G01 X30.6163 Y-35.1714
G01 X30.5124 Y-35.1342
G01 X30.5010 Y-35.1308
G01 X30.3984 Y-35.1052
G01 X30.3867 Y-35.1030
G01 X30.2785 Y-35.0870
G01 X30.1590 Y-35.0812
G01 X30.0415 Y-35.0870
G01 X29.9333 Y-35.1030
G01 X29.9216 Y-35.1052
G01 X29.8190 Y-35.1308
G01 X29.8076 Y-35.1342
G01 X29.7037 Y-35.1714
G01 X29.6945 Y-35.1754
G01 X29.6435 Y-35.1995
G01 X29.4908 Y-35.0468
G01 X29.6297 Y-35.0709
G01 X29.7508 Y-35.0207
G01 X29.9529 Y-34.9722
G01 X30.1600 Y-34.9559
G01 X30.3671 Y-34.9722
G01 X30.5692 Y-35.0207
G01 X30.6903 Y-35.0709
G01 X30.6595 Y-35.1017
G01 X30.6398 Y-35.0935
G01 X30.5325 Y-35.0554
G01 X30.5207 Y-35.0521
G01 X30.4107 Y-35.0248
G01 X30.3986 Y-35.0227
G01 X30.2967 Y-35.0075
G01 X30.2845 Y-35.0061
G01 X30.1713 Y-35.0003
G01 X30.1590 Y-35.0000
G01 X30.0458 Y-35.0053
G01 X30.0335 Y-35.0063
G01 X29.9214 Y-35.0227
G01 X29.9093 Y-35.0248
G01 X29.7993 Y-35.0521
G01 X29.7875 Y-35.0554
G01 X29.6802 Y-35.0935
G01 X29.6605 Y-35.1017
G01 X29.6297 Y-35.0709
G00 Z1.0000
G00 X28.9509 Y-36.8103
G01 F25.00
G01 Z-0.1001
G01 F45.00
G01 X28.9007 Y-36.6892
G01 X28.8522 Y-36.4871
G01 X28.8359 Y-36.2800
G01 X28.8522 Y-36.0729
G01 X28.9007 Y-35.8708
G01 X28.9509 Y-35.7497
G01 X28.9817 Y-35.7805
G01 X28.9735 Y-35.8002
G01 X28.9354 Y-35.9075
G01 X28.9321 Y-35.9193
G01 X28.9050 Y-36.0283
G01 X28.9027 Y-36.0414
G01 X28.8863 Y-36.1535
G01 X28.8853 Y-36.1658
G01 X28.8800 Y-36.2754
G01 X28.8803 Y-36.2913
G01 X28.8861 Y-36.4045
G01 X28.8875 Y-36.4167
G01 X28.9027 Y-36.5186
G01 X28.9048 Y-36.5307
G01 X28.9321 Y-36.6407
G01 X28.9354 Y-36.6525
G01 X28.9735 Y-36.7598
G01 X28.9817 Y-36.7795
G01 X28.9509 Y-36.8103
G01 X28.9268 Y-36.9492
G01 X28.9077 Y-36.9181
G01 X28.8233 Y-36.7143
G01 X28.7718 Y-36.4999
G01 X28.7545 Y-36.2800
G01 X28.7718 Y-36.0601
G01 X28.8233 Y-35.8457
G01 X28.9077 Y-35.6419
G01 X28.9268 Y-35.6108
G01 X29.0795 Y-35.7635
G01 X29.0554 Y-35.8145
G01 X29.0514 Y-35.8237
G01 X29.0142 Y-35.9276
G01 X29.0108 Y-35.9390
G01 X28.9852 Y-36.0416
G01 X28.9830 Y-36.0533
G01 X28.9670 Y-36.1615
G01 X28.9612 Y-36.2790
G01 X28.9670 Y-36.3985
G01 X28.9830 Y-36.5067
G01 X28.9852 Y-36.5184
G01 X29.0108 Y-36.6210
G01 X29.0142 Y-36.6324
G01 X29.0514 Y-36.7363
G01 X29.0554 Y-36.7455
G01 X29.0795 Y-36.7965
G01 X28.9268 Y-36.9492
G01 X28.9113 Y-37.0794
G01 X28.8351 Y-36.9551
G01 X28.7458 Y-36.7395
G01 X28.6914 Y-36.5126
G01 X28.6731 Y-36.2800
G01 X28.6914 Y-36.0474
G01 X28.7458 Y-35.8205
G01 X28.8351 Y-35.6049
G01 X28.9113 Y-35.4806
G01 X29.1779 Y-35.7471
G01 X29.1728 Y-35.7561
G01 X29.1274 Y-35.8523
G01 X29.0915 Y-35.9524
G01 X29.0896 Y-35.9588
G01 X29.0638 Y-36.0620
G01 X29.0481 Y-36.1672
G01 X29.0475 Y-36.1738
G01 X29.0424 Y-36.2800
G01 X29.0475 Y-36.3862
G01 X29.0481 Y-36.3928
G01 X29.0638 Y-36.4980
G01 X29.0896 Y-36.6012
G01 X29.0915 Y-36.6076
G01 X29.1274 Y-36.7077
G01 X29.1728 Y-36.8039
G01 X29.1779 Y-36.8129
G01 X28.9113 Y-37.0794
G00 Z1.0000
G00 X30.7459 Y-37.5073
G01 F25.00
G01 Z-0.1001
G01 F45.00
G01 X30.7634 Y-37.5185
G01 X30.7791 Y-37.5300
G01 X30.7946 Y-37.5430
G01 X30.8096 Y-37.5573
G01 X31.4371 Y-36.9298
G01 X31.4230 Y-36.9148
G01 X31.4104 Y-36.8996
G01 X31.3984 Y-36.8830
G01 X31.3875 Y-36.8655
G01 X31.3660 Y-36.9107
G01 X31.3573 Y-36.9275
G01 X31.2994 Y-37.0242
G01 X31.2880 Y-37.0417
G01 X31.2215 Y-37.1317
G01 X31.2116 Y-37.1443
G01 X31.2024 Y-37.1549
G01 X31.1330 Y-37.2314
G01 X31.1232 Y-37.2418
G01 X31.1114 Y-37.2530
G01 X31.0349 Y-37.3224
G01 X31.0243 Y-37.3316
G01 X31.0117 Y-37.3415
G01 X30.9217 Y-37.4080
G01 X30.9042 Y-37.4194
G01 X30.8075 Y-37.4773
G01 X30.7907 Y-37.4860
G01 X30.7459 Y-37.5073
G01 X30.7995 Y-37.6822
G01 X31.5626 Y-36.9192
G01 X31.5491 Y-36.9126
G01 X31.5367 Y-36.9055
G01 X31.5250 Y-36.8979
G01 X31.5136 Y-36.8894
G01 X31.5014 Y-36.8790
G01 X31.4914 Y-36.8693
G01 X31.4818 Y-36.8588
G01 X31.4731 Y-36.8479
G01 X31.4648 Y-36.8362
G01 X31.4575 Y-36.8244
G01 X31.4507 Y-36.8118
G01 X31.4455 Y-36.8007
G01 X31.4383 Y-36.7831
G01 X31.4335 Y-36.7691
G01 X31.4294 Y-36.7538
G01 X31.4264 Y-36.7390
G01 X31.4240 Y-36.7197
G01 X31.4233 Y-36.7010
G01 X31.4241 Y-36.6816
G01 X31.4265 Y-36.6616
G01 X31.4298 Y-36.6452
G01 X31.4678 Y-36.4871
G01 X31.4841 Y-36.2800
G01 X31.4678 Y-36.0729
G01 X31.4193 Y-35.8708
G01 X31.3691 Y-35.7497
G01 X31.3383 Y-35.7805
G01 X31.3461 Y-35.7993
G01 X31.3814 Y-35.8977
G01 X31.3846 Y-35.9075
G01 X31.3879 Y-35.9193
G01 X31.4131 Y-36.0198
G01 X31.4158 Y-36.0322
G01 X31.4325 Y-36.1438
G01 X31.4346 Y-36.1638
G01 X31.4400 Y-36.2790
G01 X31.4397 Y-36.2913
G01 X31.4347 Y-36.3947
G01 X31.4325 Y-36.4162
G01 X31.4173 Y-36.5191
G01 X31.4150 Y-36.5317
G01 X31.3852 Y-36.6506
G01 X31.3814 Y-36.6623
G01 X31.3466 Y-36.7593
G01 X31.3430 Y-36.7689
G01 X31.3382 Y-36.7797
G01 X31.2939 Y-36.8733
G01 X31.2884 Y-36.8843
G01 X31.2248 Y-36.9903
G01 X31.2178 Y-37.0004
G01 X31.1564 Y-37.0831
G01 X31.1431 Y-37.0995
G01 X31.0658 Y-37.1844
G01 X31.0569 Y-37.1929
G01 X30.9802 Y-37.2624
G01 X30.9713 Y-37.2701
G01 X30.9631 Y-37.2764
G01 X30.8804 Y-37.3378
G01 X30.8703 Y-37.3448
G01 X30.7643 Y-37.4084
G01 X30.7533 Y-37.4139
G01 X30.6597 Y-37.4582
G01 X30.6489 Y-37.4630
G01 X30.6393 Y-37.4666
G01 X30.5423 Y-37.5014
G01 X30.5306 Y-37.5052
G01 X30.4133 Y-37.5347
G01 X30.3991 Y-37.5373
G01 X30.2962 Y-37.5525
G01 X30.2747 Y-37.5547
G01 X30.1713 Y-37.5597
G01 X30.1590 Y-37.5600
G01 X30.0443 Y-37.5546
G01 X30.0238 Y-37.5525
G01 X29.9122 Y-37.5358
G01 X29.8998 Y-37.5331
G01 X29.7993 Y-37.5079
G01 X29.7894 Y-37.5052
G01 X29.7777 Y-37.5014
G01 X29.6793 Y-37.4661
G01 X29.6605 Y-37.4583
G01 X29.6297 Y-37.4891
G01 X29.7508 Y-37.5393
G01 X29.9529 Y-37.5878
G01 X30.1600 Y-37.6041
G01 X30.3671 Y-37.5878
G01 X30.5262 Y-37.5496
G01 X30.5378 Y-37.5472
G01 X30.5506 Y-37.5453
G01 X30.5685 Y-37.5438
G01 X30.5874 Y-37.5437
G01 X30.6052 Y-37.5451
G01 X30.6246 Y-37.5480
G01 X30.6388 Y-37.5508
G01 X30.6526 Y-37.5544
G01 X30.6658 Y-37.5588
G01 X30.6791 Y-37.5641
G01 X30.6917 Y-37.5701
G01 X30.7042 Y-37.5770
G01 X30.7160 Y-37.5844
G01 X30.7276 Y-37.5928
G01 X30.7384 Y-37.6016
G01 X30.7481 Y-37.6106
G01 X30.7578 Y-37.6207
G01 X30.7658 Y-37.6300
G01 X30.7784 Y-37.6469
G01 X30.7854 Y-37.6570
G01 X30.7926 Y-37.6689
G01 X30.7995 Y-37.6822
G00 Z1.0000
G00 X30.3143 Y-39.4540
G01 F25.00
G01 Z-0.1001
G01 F45.00
G01 X30.3031 Y-39.4461
G01 X30.2927 Y-39.4396
G01 X30.2813 Y-39.4334
G01 X30.2702 Y-39.4281
G01 X35.4969 Y-34.2014
G01 X35.5048 Y-34.2100
G01 X35.5141 Y-34.2191
G01 X35.5233 Y-34.2272
G01 X35.5333 Y-34.2350
G01 X35.5213 Y-34.2445
G01 X35.5107 Y-34.2541
G01 X35.5002 Y-34.2648
G01 X35.4909 Y-34.2756
G01 X35.4814 Y-34.2884
G01 X35.4737 Y-34.3000
G01 X35.4667 Y-34.3125
G01 X35.4601 Y-34.3259
G01 X35.4547 Y-34.3391
G01 X35.4496 Y-34.3542
G01 X35.4460 Y-34.3677
G01 X35.4432 Y-34.3817
G01 X35.4415 Y-34.3938
G01 X35.4403 Y-34.4077
G01 X35.4400 Y-34.4429
G01 X35.4152 Y-34.4465
G01 X35.4041 Y-34.4486
G01 X35.3661 Y-34.4581
G01 X35.3549 Y-34.4618
G01 X35.3272 Y-34.4719
G01 X35.3169 Y-34.4764
G01 X35.2960 Y-34.4862
G01 X35.2779 Y-34.4960
G01 X35.2566 Y-34.5088
G01 X35.2448 Y-34.5167
G01 X35.2164 Y-34.5382
G01 X35.1873 Y-34.5645
G01 X30.3759 Y-39.3759
G01 X30.3546 Y-39.3990
G01 X30.3446 Y-39.4108
G01 X30.3250 Y-39.4372
G01 X30.3143 Y-39.4540
G00 Z1.0000
G00 X28.5550 Y-42.2226
G01 F25.00
G01 Z-0.1001
G01 F45.00
G01 X28.5666 Y-42.2217
G01 X28.5730 Y-42.2202
G01 X28.5793 Y-42.2181
G01 X28.5854 Y-42.2154
G01 X28.5912 Y-42.2122
G01 X28.5966 Y-42.2083
G01 X28.6016 Y-42.2040
G01 X28.6062 Y-42.1992
G01 X28.6103 Y-42.1940
G01 X28.6139 Y-42.1883
G01 X28.6168 Y-42.1824
G01 X28.6192 Y-42.1762
G01 X28.6210 Y-42.1698
G01 X28.6226 Y-42.1583
G01 X28.6226 Y-40.8460
G01 X35.6009 Y-33.8678
G01 X35.6023 Y-33.8678
G01 X35.6024 Y-34.0500
G01 X35.6027 Y-34.0566
G01 X35.6040 Y-34.0648
G01 X35.6069 Y-34.0743
G01 X35.6111 Y-34.0833
G01 X35.6167 Y-34.0916
G01 X35.6246 Y-34.1001
G01 X35.6324 Y-34.1062
G01 X35.6411 Y-34.1112
G01 X35.6504 Y-34.1147
G01 X35.6601 Y-34.1169
G01 X35.6700 Y-34.1176
G01 X37.1700 Y-34.1176
G01 X37.1766 Y-34.1173
G01 X37.1832 Y-34.1164
G01 X37.1943 Y-34.1131
G01 X37.2004 Y-34.1104
G01 X37.2062 Y-34.1072
G01 X37.2154 Y-34.1001
G01 X37.2201 Y-34.0954
G01 X37.2243 Y-34.0903
G01 X37.2289 Y-34.0833
G01 X37.2318 Y-34.0774
G01 X37.2347 Y-34.0696
G01 X37.2364 Y-34.0632
G01 X37.2373 Y-34.0566
G01 X37.2376 Y-34.0500
G01 X37.2376 Y-33.1483
G01 X37.2371 Y-33.1417
G01 X37.2360 Y-33.1352
G01 X37.2325 Y-33.1241
G01 X37.2272 Y-33.1138
G01 X37.2233 Y-33.1084
G01 X37.2190 Y-33.1034
G01 X37.2142 Y-33.0988
G01 X37.2076 Y-33.0938
G01 X37.2019 Y-33.0903
G01 X37.1959 Y-33.0875
G01 X37.1896 Y-33.0853
G01 X37.1832 Y-33.0836
G01 X37.1766 Y-33.0827
G01 X37.1700 Y-33.0824
G01 X35.6700 Y-33.0824
G01 X35.6584 Y-33.0833
G01 X35.6488 Y-33.0858
G01 X35.6381 Y-33.0903
G01 X35.6297 Y-33.0957
G01 X35.6246 Y-33.0999
G01 X35.6199 Y-33.1046
G01 X35.6157 Y-33.1097
G01 X35.6120 Y-33.1152
G01 X35.6088 Y-33.1211
G01 X35.6063 Y-33.1272
G01 X35.6040 Y-33.1352
G01 X35.6029 Y-33.1417
G01 X35.6024 Y-33.1500
G01 X35.6024 Y-33.3322
G01 X35.4900 Y-33.3323
G01 X35.4671 Y-33.3333
G01 X35.4605 Y-33.3339
G01 X35.4394 Y-33.3371
G01 X35.4155 Y-33.3429
G01 X35.4091 Y-33.3448
G01 X35.3875 Y-33.3526
G01 X35.3667 Y-33.3624
G01 X35.3609 Y-33.3655
G01 X35.3412 Y-33.3774
G01 X35.3228 Y-33.3910
G01 X35.3176 Y-33.3952
G01 X35.3019 Y-33.4095
G01 X27.9740 Y-40.7374
G01 X27.2033 Y-40.7374
G01 X27.1967 Y-40.7379
G01 X27.1902 Y-40.7390
G01 X27.1838 Y-40.7408
G01 X27.1776 Y-40.7432
G01 X27.1717 Y-40.7461
G01 X27.1660 Y-40.7497
G01 X27.1608 Y-40.7538
G01 X27.1560 Y-40.7584
G01 X27.1488 Y-40.7674
G01 X27.1453 Y-40.7731
G01 X27.1425 Y-40.7791
G01 X27.1403 Y-40.7854
G01 X27.1386 Y-40.7918
G01 X27.1374 Y-40.8033
G01 X27.1374 Y-42.1550
G01 X27.1377 Y-42.1616
G01 X27.1386 Y-42.1682
G01 X27.1403 Y-42.1746
G01 X27.1425 Y-42.1809
G01 X27.1453 Y-42.1869
G01 X27.1488 Y-42.1926
G01 X27.1527 Y-42.1979
G01 X27.1572 Y-42.2028
G01 X27.1621 Y-42.2073
G01 X27.1674 Y-42.2112
G01 X27.1776 Y-42.2168
G01 X27.1838 Y-42.2192
G01 X27.1902 Y-42.2210
G01 X27.1967 Y-42.2221
G01 X27.2033 Y-42.2226
G01 X28.5550 Y-42.2226
G01 X28.5550 Y-42.3038
G01 X28.5669 Y-42.3033
G01 X28.5795 Y-42.3018
G01 X28.5921 Y-42.2991
G01 X28.6026 Y-42.2960
G01 X28.6144 Y-42.2915
G01 X28.6260 Y-42.2858
G01 X28.6369 Y-42.2793
G01 X28.6458 Y-42.2729
G01 X28.6569 Y-42.2635
G01 X28.6683 Y-42.2515
G01 X28.6782 Y-42.2385
G01 X28.6867 Y-42.2243
G01 X28.6935 Y-42.2095
G01 X28.6987 Y-42.1937
G01 X28.7021 Y-42.1778
G01 X28.7037 Y-42.1613
G01 X28.7038 Y-40.8796
G01 X35.5216 Y-34.0618
G01 X35.5232 Y-34.0745
G01 X35.5259 Y-34.0871
G01 X35.5295 Y-34.0992
G01 X35.5350 Y-34.1127
G01 X35.5410 Y-34.1242
G01 X35.5478 Y-34.1349
G01 X35.5556 Y-34.1452
G01 X35.5655 Y-34.1559
G01 X35.5764 Y-34.1657
G01 X35.5865 Y-34.1732
G01 X35.5975 Y-34.1800
G01 X35.6106 Y-34.1865
G01 X35.6243 Y-34.1916
G01 X35.6364 Y-34.1950
G01 X35.6491 Y-34.1974
G01 X35.6617 Y-34.1986
G01 X37.1727 Y-34.1988
G01 X37.1856 Y-34.1980
G01 X37.2000 Y-34.1958
G01 X37.2142 Y-34.1921
G01 X37.2260 Y-34.1879
G01 X37.2393 Y-34.1817
G01 X37.2505 Y-34.1752
G01 X37.2608 Y-34.1679
G01 X37.2707 Y-34.1596
G01 X37.2820 Y-34.1480
G01 X37.2911 Y-34.1365
G01 X37.3000 Y-34.1225
G01 X37.3065 Y-34.1094
G01 X37.3121 Y-34.0942
G01 X37.3158 Y-34.0800
G01 X37.3180 Y-34.0656
G01 X37.3188 Y-34.0500
G01 X37.3187 Y-33.1437
G01 X37.3174 Y-33.1291
G01 X37.3146 Y-33.1148
G01 X37.3105 Y-33.1008
G01 X37.3050 Y-33.0873
G01 X37.2982 Y-33.0743
G01 X37.2901 Y-33.0621
G01 X37.2820 Y-33.0520
G01 X37.2719 Y-33.0415
G01 X37.2623 Y-33.0333
G01 X37.2505 Y-33.0248
G01 X37.2378 Y-33.0175
G01 X37.2260 Y-33.0121
G01 X37.2122 Y-33.0073
G01 X37.1981 Y-33.0038
G01 X37.1856 Y-33.0020
G01 X37.1710 Y-33.0012
G01 X35.6673 Y-33.0012
G01 X35.6544 Y-33.0020
G01 X35.6436 Y-33.0035
G01 X35.6313 Y-33.0063
G01 X35.6208 Y-33.0095
G01 X35.6106 Y-33.0135
G01 X35.5990 Y-33.0192
G01 X35.5895 Y-33.0248
G01 X35.5805 Y-33.0311
G01 X35.5708 Y-33.0391
G01 X35.5629 Y-33.0467
G01 X35.5543 Y-33.0564
G01 X35.5468 Y-33.0665
G01 X35.5410 Y-33.0758
G01 X35.5350 Y-33.0873
G01 X35.5302 Y-33.0989
G01 X35.5263 Y-33.1113
G01 X35.5242 Y-33.1200
G01 X35.5226 Y-33.1291
G01 X35.5212 Y-33.1454
G01 X35.5212 Y-33.2511
G01 X35.4873 Y-33.2511
G01 X35.4621 Y-33.2523
G01 X35.4512 Y-33.2533
G01 X35.4291 Y-33.2565
G01 X35.4174 Y-33.2588
G01 X35.3913 Y-33.2653
G01 X35.3623 Y-33.2753
G01 X35.3522 Y-33.2795
G01 X35.3264 Y-33.2918
G01 X35.2970 Y-33.3093
G01 X35.2694 Y-33.3296
G01 X35.2440 Y-33.3526
G01 X27.9404 Y-40.6562
G01 X27.1967 Y-40.6564
G01 X27.1822 Y-40.6579
G01 X27.1698 Y-40.6604
G01 X27.1558 Y-40.6645
G01 X27.1423 Y-40.6700
G01 X27.1293 Y-40.6768
G01 X27.1171 Y-40.6849
G01 X27.1058 Y-40.6941
G01 X27.0965 Y-40.7031
G01 X27.0871 Y-40.7142
G01 X27.0787 Y-40.7262
G01 X27.0716 Y-40.7390
G01 X27.0665 Y-40.7505
G01 X27.0618 Y-40.7643
G01 X27.0588 Y-40.7769
G01 X27.0568 Y-40.7914
G01 X27.0562 Y-40.8050
G01 X27.0562 Y-42.1596
G01 X27.0572 Y-42.1722
G01 X27.0592 Y-42.1850
G01 X27.0623 Y-42.1972
G01 X27.0671 Y-42.2110
G01 X27.0733 Y-42.2243
G01 X27.0798 Y-42.2355
G01 X27.0871 Y-42.2458
G01 X27.0954 Y-42.2557
G01 X27.1070 Y-42.2670
G01 X27.1185 Y-42.2761
G01 X27.1308 Y-42.2840
G01 X27.1438 Y-42.2907
G01 X27.1574 Y-42.2960
G01 X27.1714 Y-42.3000
G01 X27.1858 Y-42.3026
G01 X27.2004 Y-42.3038
G01 X28.5550 Y-42.3038
G00 Z1.0000
G00 X27.2267 Y-43.1270
G01 F25.00
G01 Z-0.1001
G01 F45.00
G01 X27.2235 Y-43.1329
G01 X27.1939 Y-43.1958
G01 X27.1704 Y-43.2613
G01 X27.1684 Y-43.2676
G01 X27.1523 Y-43.3319
G01 X27.1511 Y-43.3384
G01 X27.1409 Y-43.4072
G01 X27.1374 Y-43.4767
G01 X27.1374 Y-43.4833
G01 X27.1409 Y-43.5528
G01 X27.1516 Y-43.6249
G01 X27.1693 Y-43.6956
G01 X27.1927 Y-43.7611
G01 X27.1952 Y-43.7672
G01 X27.2235 Y-43.8271
G01 X27.2267 Y-43.8330
G01 X27.2625 Y-43.8926
G01 X27.3039 Y-43.9485
G01 X27.3081 Y-43.9536
G01 X27.3549 Y-44.0051
G01 X27.4089 Y-44.0541
G01 X27.4674 Y-44.0975
G01 X27.5270 Y-44.1333
G01 X27.5329 Y-44.1365
G01 X27.5928 Y-44.1648
G01 X27.5989 Y-44.1673
G01 X27.6644 Y-44.1907
G01 X27.7319 Y-44.2077
G01 X27.7384 Y-44.2089
G01 X27.8072 Y-44.2191
G01 X27.8767 Y-44.2226
G01 X27.8833 Y-44.2226
G01 X27.9495 Y-44.2193
G01 X27.9561 Y-44.2187
G01 X28.0249 Y-44.2084
G01 X28.0956 Y-44.1907
G01 X28.1642 Y-44.1661
G01 X28.2301 Y-44.1350
G01 X28.2926 Y-44.0975
G01 X28.3511 Y-44.0541
G01 X28.4051 Y-44.0051
G01 X28.4530 Y-43.9524
G01 X28.4975 Y-43.8926
G01 X28.5342 Y-43.8315
G01 X28.5655 Y-43.7657
G01 X28.5721 Y-43.7478
G01 X29.2946 Y-43.7477
G01 X29.3192 Y-43.7466
G01 X29.3436 Y-43.7432
G01 X29.3501 Y-43.7419
G01 X29.3723 Y-43.7362
G01 X29.3971 Y-43.7274
G01 X29.4208 Y-43.7161
G01 X29.4405 Y-43.7044
G01 X29.4461 Y-43.7007
G01 X29.4657 Y-43.6859
G01 X29.4839 Y-43.6693
G01 X30.7990 Y-42.3542
G01 X30.8077 Y-42.3499
G01 X30.8301 Y-42.3363
G01 X30.8499 Y-42.3216
G01 X30.8693 Y-42.3039
G01 X30.8870 Y-42.2845
G01 X30.9026 Y-42.2633
G01 X30.9161 Y-42.2408
G01 X30.9280 Y-42.2155
G01 X30.9362 Y-42.1923
G01 X30.9426 Y-42.1668
G01 X30.9465 Y-42.1408
G01 X30.9477 Y-42.1146
G01 X30.9477 Y-39.7909
G01 X35.6009 Y-35.1378
G01 X35.6023 Y-35.1378
G01 X35.6024 Y-35.3200
G01 X35.6027 Y-35.3266
G01 X35.6040 Y-35.3348
G01 X35.6069 Y-35.3443
G01 X35.6111 Y-35.3533
G01 X35.6167 Y-35.3616
G01 X35.6246 Y-35.3701
G01 X35.6324 Y-35.3762
G01 X35.6411 Y-35.3812
G01 X35.6504 Y-35.3847
G01 X35.6601 Y-35.3869
G01 X35.6700 Y-35.3876
G01 X37.1700 Y-35.3876
G01 X37.1766 Y-35.3873
G01 X37.1832 Y-35.3864
G01 X37.1943 Y-35.3831
G01 X37.2048 Y-35.3780
G01 X37.2142 Y-35.3712
G01 X37.2190 Y-35.3666
G01 X37.2233 Y-35.3616
G01 X37.2280 Y-35.3548
G01 X37.2312 Y-35.3489
G01 X37.2337 Y-35.3428
G01 X37.2356 Y-35.3364
G01 X37.2369 Y-35.3299
G01 X37.2376 Y-35.3217
G01 X37.2376 Y-34.4200
G01 X37.2371 Y-34.4117
G01 X37.2360 Y-34.4052
G01 X37.2342 Y-34.3988
G01 X37.2312 Y-34.3911
G01 X37.2272 Y-34.3838
G01 X37.2233 Y-34.3784
G01 X37.2190 Y-34.3734
G01 X37.2129 Y-34.3677
G01 X37.2033 Y-34.3611
G01 X37.1928 Y-34.3563
G01 X37.1816 Y-34.3533
G01 X37.1700 Y-34.3524
G01 X35.6700 Y-34.3524
G01 X35.6584 Y-34.3533
G01 X35.6472 Y-34.3563
G01 X35.6367 Y-34.3611
G01 X35.6284 Y-34.3667
G01 X35.6234 Y-34.3710
G01 X35.6188 Y-34.3758
G01 X35.6147 Y-34.3810
G01 X35.6111 Y-34.3867
G01 X35.6075 Y-34.3941
G01 X35.6053 Y-34.4004
G01 X35.6036 Y-34.4068
G01 X35.6027 Y-34.4134
G01 X35.6024 Y-34.4200
G01 X35.6024 Y-34.6022
G01 X35.4900 Y-34.6023
G01 X35.4671 Y-34.6033
G01 X35.4605 Y-34.6039
G01 X35.4394 Y-34.6071
G01 X35.4155 Y-34.6129
G01 X35.4091 Y-34.6148
G01 X35.3875 Y-34.6226
G01 X35.3667 Y-34.6324
G01 X35.3609 Y-34.6355
G01 X35.3412 Y-34.6474
G01 X35.3228 Y-34.6610
G01 X35.3176 Y-34.6652
G01 X35.3019 Y-34.6795
G01 X30.4884 Y-39.4931
G01 X30.4730 Y-39.5101
G01 X30.4574 Y-39.5312
G01 X30.4439 Y-39.5538
G01 X30.4326 Y-39.5775
G01 X30.4238 Y-39.6023
G01 X30.4174 Y-39.6278
G01 X30.4135 Y-39.6538
G01 X30.4123 Y-39.6783
G01 X30.4123 Y-41.9837
G01 X29.1837 Y-43.2122
G01 X28.5721 Y-43.2123
G01 X28.5655 Y-43.1943
G01 X28.5342 Y-43.1285
G01 X28.4975 Y-43.0674
G01 X28.4541 Y-43.0089
G01 X28.4051 Y-42.9549
G01 X28.3536 Y-42.9081
G01 X28.3485 Y-42.9039
G01 X28.2912 Y-42.8616
G01 X28.2301 Y-42.8250
G01 X28.1672 Y-42.7952
G01 X28.1611 Y-42.7927
G01 X28.0987 Y-42.7704
G01 X28.0924 Y-42.7684
G01 X28.0249 Y-42.7516
G01 X27.9528 Y-42.7409
G01 X27.8800 Y-42.7374
G01 X27.8105 Y-42.7407
G01 X27.8039 Y-42.7413
G01 X27.7351 Y-42.7516
G01 X27.6676 Y-42.7684
G01 X27.6613 Y-42.7704
G01 X27.5958 Y-42.7939
G01 X27.5329 Y-42.8235
G01 X27.5270 Y-42.8267
G01 X27.4674 Y-42.8625
G01 X27.4089 Y-42.9059
G01 X27.3573 Y-42.9526
G01 X27.3526 Y-42.9573
G01 X27.3081 Y-43.0064
G01 X27.3039 Y-43.0115
G01 X27.2625 Y-43.0674
G01 X27.2267 Y-43.1270
G01 X27.1570 Y-43.0853
G01 X27.1506 Y-43.0973
G01 X27.1218 Y-43.1581
G01 X27.1163 Y-43.1715
G01 X27.0914 Y-43.2418
G01 X27.0736 Y-43.3122
G01 X27.0712 Y-43.3239
G01 X27.0600 Y-43.4002
G01 X27.0562 Y-43.4810
G01 X27.0602 Y-43.5617
G01 X27.0722 Y-43.6417
G01 X27.0919 Y-43.7201
G01 X27.1193 Y-43.7962
G01 X27.1539 Y-43.8692
G01 X27.1956 Y-43.9385
G01 X27.2438 Y-44.0034
G01 X27.2982 Y-44.0632
G01 X27.3581 Y-44.1175
G01 X27.4231 Y-44.1655
G01 X27.4925 Y-44.2070
G01 X27.5657 Y-44.2415
G01 X27.6418 Y-44.2686
G01 X27.7122 Y-44.2864
G01 X27.7239 Y-44.2888
G01 X27.8002 Y-44.3000
G01 X27.8790 Y-44.3038
G01 X27.9598 Y-44.3000
G01 X28.0335 Y-44.2892
G01 X28.0478 Y-44.2864
G01 X28.1131 Y-44.2701
G01 X28.1251 Y-44.2664
G01 X28.1962 Y-44.2407
G01 X28.2660 Y-44.2078
G01 X28.2747 Y-44.2030
G01 X28.3369 Y-44.1655
G01 X28.3969 Y-44.1213
G01 X28.4082 Y-44.1121
G01 X28.4580 Y-44.0669
G01 X28.4658 Y-44.0592
G01 X28.5175 Y-44.0019
G01 X28.5635 Y-43.9399
G01 X28.5689 Y-43.9315
G01 X28.6053 Y-43.8707
G01 X28.6094 Y-43.8627
G01 X28.6254 Y-43.8289
G01 X29.2946 Y-43.8289
G01 X29.3278 Y-43.8273
G01 X29.3617 Y-43.8224
G01 X29.3888 Y-43.8159
G01 X29.4019 Y-43.8119
G01 X29.4290 Y-43.8020
G01 X29.4582 Y-43.7882
G01 X29.4831 Y-43.7735
G01 X29.4944 Y-43.7659
G01 X29.5123 Y-43.7526
G01 X29.5195 Y-43.7467
G01 X29.5413 Y-43.7267
G01 X30.8473 Y-42.4208
G01 X30.8730 Y-42.4053
G01 X30.8956 Y-42.3888
G01 X30.9061 Y-42.3802
G01 X30.9274 Y-42.3606
G01 X30.9504 Y-42.3352
G01 X30.9707 Y-42.3076
G01 X30.9882 Y-42.2782
G01 X30.9998 Y-42.2539
G01 X31.0041 Y-42.2438
G01 X31.0142 Y-42.2149
G01 X31.0224 Y-42.1817
G01 X31.0273 Y-42.1478
G01 X31.0289 Y-42.1156
G01 X31.0289 Y-39.8245
G01 X35.5216 Y-35.3318
G01 X35.5232 Y-35.3445
G01 X35.5259 Y-35.3571
G01 X35.5295 Y-35.3692
G01 X35.5350 Y-35.3827
G01 X35.5410 Y-35.3942
G01 X35.5478 Y-35.4049
G01 X35.5556 Y-35.4152
G01 X35.5655 Y-35.4259
G01 X35.5764 Y-35.4357
G01 X35.5865 Y-35.4432
G01 X35.5975 Y-35.4500
G01 X35.6106 Y-35.4565
G01 X35.6243 Y-35.4616
G01 X35.6364 Y-35.4650
G01 X35.6491 Y-35.4674
G01 X35.6617 Y-35.4686
G01 X37.1727 Y-35.4688
G01 X37.1856 Y-35.4680
G01 X37.1981 Y-35.4662
G01 X37.2107 Y-35.4632
G01 X37.2226 Y-35.4592
G01 X37.2345 Y-35.4541
G01 X37.2457 Y-35.4482
G01 X37.2579 Y-35.4401
G01 X37.2680 Y-35.4320
G01 X37.2785 Y-35.4219
G01 X37.2889 Y-35.4095
G01 X37.2982 Y-35.3957
G01 X37.3050 Y-35.3827
G01 X37.3110 Y-35.3676
G01 X37.3150 Y-35.3536
G01 X37.3176 Y-35.3392
G01 X37.3188 Y-35.3227
G01 X37.3188 Y-34.4154
G01 X37.3178 Y-34.4028
G01 X37.3158 Y-34.3900
G01 X37.3127 Y-34.3778
G01 X37.3085 Y-34.3655
G01 X37.3034 Y-34.3540
G01 X37.2971 Y-34.3426
G01 X37.2901 Y-34.3321
G01 X37.2820 Y-34.3220
G01 X37.2719 Y-34.3115
G01 X37.2595 Y-34.3011
G01 X37.2474 Y-34.2929
G01 X37.2327 Y-34.2850
G01 X37.2176 Y-34.2790
G01 X37.2036 Y-34.2750
G01 X37.1892 Y-34.2724
G01 X37.1727 Y-34.2712
G01 X35.6673 Y-34.2712
G01 X35.6544 Y-34.2720
G01 X35.6436 Y-34.2735
G01 X35.6313 Y-34.2763
G01 X35.6208 Y-34.2795
G01 X35.6106 Y-34.2835
G01 X35.5990 Y-34.2892
G01 X35.5895 Y-34.2948
G01 X35.5805 Y-34.3011
G01 X35.5708 Y-34.3091
G01 X35.5629 Y-34.3167
G01 X35.5543 Y-34.3264
G01 X35.5468 Y-34.3365
G01 X35.5410 Y-34.3458
G01 X35.5350 Y-34.3573
G01 X35.5302 Y-34.3689
G01 X35.5263 Y-34.3813
G01 X35.5242 Y-34.3900
G01 X35.5226 Y-34.3991
G01 X35.5212 Y-34.4154
G01 X35.5212 Y-34.5211
G01 X35.4873 Y-34.5211
G01 X35.4621 Y-34.5223
G01 X35.4512 Y-34.5233
G01 X35.4291 Y-34.5265
G01 X35.4174 Y-34.5288
G01 X35.3913 Y-34.5353
G01 X35.3633 Y-34.5450
G01 X35.3522 Y-34.5495
G01 X35.3279 Y-34.5610
G01 X35.3200 Y-34.5654
G01 X35.2984 Y-34.5784
G01 X35.2902 Y-34.5841
G01 X35.2694 Y-34.5996
G01 X35.2452 Y-34.6214
G01 X30.4289 Y-39.4378
G01 X30.4096 Y-39.4594
G01 X30.3893 Y-39.4870
G01 X30.3727 Y-39.5146
G01 X30.3580 Y-39.5456
G01 X30.3464 Y-39.5778
G01 X30.3380 Y-39.6110
G01 X30.3329 Y-39.6448
G01 X30.3312 Y-39.6737
G01 X30.3311 Y-41.9501
G01 X29.1501 Y-43.1311
G01 X28.6254 Y-43.1311
G01 X28.6094 Y-43.0973
G01 X28.6053 Y-43.0893
G01 X28.5675 Y-43.0262
G01 X28.5608 Y-43.0163
G01 X28.5213 Y-42.9631
G01 X28.5151 Y-42.9553
G01 X28.4632 Y-42.8982
G01 X28.4082 Y-42.8479
G01 X28.3969 Y-42.8387
G01 X28.3437 Y-42.7992
G01 X28.3355 Y-42.7936
G01 X28.2692 Y-42.7539
G01 X28.2019 Y-42.7218
G01 X28.1885 Y-42.7163
G01 X28.1182 Y-42.6914
G01 X28.0469 Y-42.6734
G01 X28.0335 Y-42.6708
G01 X27.9598 Y-42.6600
G01 X27.8827 Y-42.6562
G01 X27.8727 Y-42.6563
G01 X27.8065 Y-42.6596
G01 X27.7920 Y-42.6610
G01 X27.7203 Y-42.6718
G01 X27.6479 Y-42.6897
G01 X27.6339 Y-42.6939
G01 X27.5638 Y-42.7193
G01 X27.4973 Y-42.7506
G01 X27.4853 Y-42.7570
G01 X27.4215 Y-42.7956
G01 X27.3631 Y-42.8387
G01 X27.3518 Y-42.8479
G01 X27.2968 Y-42.8982
G01 X27.2473 Y-42.9526
G01 X27.2387 Y-42.9631
G01 X27.1945 Y-43.0231
G01 X27.1570 Y-43.0853
G00 Z1.0000
G00 X27.1570 Y-45.0853
G01 F25.00
G01 Z-0.1001
G01 F45.00
G01 X27.1506 Y-45.0973
G01 X27.1193 Y-45.1638
G01 X27.0939 Y-45.2339
G01 X27.0899 Y-45.2469
G01 X27.0734 Y-45.3131
G01 X27.0708 Y-45.3265
G01 X27.0600 Y-45.4002
G01 X27.0563 Y-45.4727
G01 X27.0563 Y-45.4863
G01 X27.0600 Y-45.5598
G01 X27.0718 Y-45.6397
G01 X27.0919 Y-45.7201
G01 X27.1166 Y-45.7894
G01 X27.1218 Y-45.8019
G01 X27.1506 Y-45.8627
G01 X27.1570 Y-45.8747
G01 X27.1956 Y-45.9385
G01 X27.2387 Y-45.9969
G01 X27.2473 Y-46.0074
G01 X27.2968 Y-46.0618
G01 X27.3581 Y-46.1175
G01 X27.4171 Y-46.1614
G01 X27.4285 Y-46.1689
G01 X27.4925 Y-46.2070
G01 X27.5581 Y-46.2382
G01 X27.5706 Y-46.2434
G01 X27.6399 Y-46.2681
G01 X27.7122 Y-46.2864
G01 X27.7239 Y-46.2888
G01 X27.8002 Y-46.3000
G01 X27.8790 Y-46.3038
G01 X27.9598 Y-46.3000
G01 X28.0335 Y-46.2892
G01 X28.0478 Y-46.2864
G01 X28.1131 Y-46.2701
G01 X28.1251 Y-46.2664
G01 X28.1962 Y-46.2407
G01 X28.2660 Y-46.2078
G01 X28.2747 Y-46.2030
G01 X28.3369 Y-46.1655
G01 X28.3969 Y-46.1213
G01 X28.4082 Y-46.1121
G01 X28.4580 Y-46.0669
G01 X28.4658 Y-46.0592
G01 X28.5175 Y-46.0019
G01 X28.5635 Y-45.9399
G01 X28.5689 Y-45.9315
G01 X28.6053 Y-45.8707
G01 X28.6094 Y-45.8627
G01 X28.6254 Y-45.8289
G01 X33.4855 Y-45.8289
G01 X34.2086 Y-46.5518
G01 X34.2294 Y-46.5704
G01 X34.2510 Y-46.5865
G01 X34.2601 Y-46.5926
G01 X34.2846 Y-46.6073
G01 X34.3107 Y-46.6198
G01 X34.3223 Y-46.6247
G01 X34.3478 Y-46.6336
G01 X34.3748 Y-46.6406
G01 X34.3865 Y-46.6431
G01 X34.4132 Y-46.6470
G01 X34.4231 Y-46.6478
G01 X34.4490 Y-46.6489
G01 X35.5212 Y-46.6489
G01 X35.5212 Y-46.7510
G01 X35.5222 Y-46.7672
G01 X35.5246 Y-46.7816
G01 X35.5290 Y-46.7976
G01 X35.5343 Y-46.8112
G01 X35.5410 Y-46.8242
G01 X35.5457 Y-46.8319
G01 X35.5511 Y-46.8395
G01 X35.5567 Y-46.8465
G01 X35.5629 Y-46.8533
G01 X35.5693 Y-46.8596
G01 X35.5777 Y-46.8667
G01 X35.5851 Y-46.8722
G01 X35.5926 Y-46.8771
G01 X35.6007 Y-46.8817
G01 X35.6088 Y-46.8857
G01 X35.6174 Y-46.8892
G01 X35.6258 Y-46.8921
G01 X35.6364 Y-46.8950
G01 X35.6455 Y-46.8968
G01 X35.6544 Y-46.8980
G01 X35.6637 Y-46.8987
G01 X37.1700 Y-46.8988
G01 X37.1819 Y-46.8983
G01 X37.1928 Y-46.8971
G01 X37.2052 Y-46.8946
G01 X37.2176 Y-46.8910
G01 X37.2294 Y-46.8865
G01 X37.2410 Y-46.8808
G01 X37.2505 Y-46.8752
G01 X37.2608 Y-46.8679
G01 X37.2707 Y-46.8596
G01 X37.2796 Y-46.8507
G01 X37.2879 Y-46.8408
G01 X37.2952 Y-46.8305
G01 X37.3008 Y-46.8210
G01 X37.3065 Y-46.8094
G01 X37.3110 Y-46.7976
G01 X37.3141 Y-46.7871
G01 X37.3168 Y-46.7745
G01 X37.3183 Y-46.7619
G01 X37.3188 Y-46.7500
G01 X37.3188 Y-45.8500
G01 X37.3178 Y-45.8328
G01 X37.3158 Y-45.8200
G01 X37.3132 Y-45.8093
G01 X37.3092 Y-45.7974
G01 X37.3050 Y-45.7873
G01 X37.2990 Y-45.7758
G01 X37.2932 Y-45.7665
G01 X37.2867 Y-45.7577
G01 X37.2785 Y-45.7481
G01 X37.2692 Y-45.7391
G01 X37.2595 Y-45.7311
G01 X37.2505 Y-45.7248
G01 X37.2393 Y-45.7183
G01 X37.2279 Y-45.7129
G01 X37.2176 Y-45.7090
G01 X37.2071 Y-45.7059
G01 X37.1945 Y-45.7032
G01 X37.1819 Y-45.7017
G01 X37.1700 Y-45.7012
G01 X35.6700 Y-45.7012
G01 X35.6564 Y-45.7018
G01 X35.6472 Y-45.7029
G01 X35.6384 Y-45.7046
G01 X35.6293 Y-45.7068
G01 X35.6208 Y-45.7095
G01 X35.6121 Y-45.7129
G01 X35.6040 Y-45.7166
G01 X35.5958 Y-45.7210
G01 X35.5881 Y-45.7257
G01 X35.5805 Y-45.7311
G01 X35.5735 Y-45.7367
G01 X35.5667 Y-45.7429
G01 X35.5604 Y-45.7493
G01 X35.5543 Y-45.7564
G01 X35.5489 Y-45.7635
G01 X35.5437 Y-45.7712
G01 X35.5392 Y-45.7790
G01 X35.5329 Y-45.7921
G01 X35.5279 Y-45.8058
G01 X35.5242 Y-45.8200
G01 X35.5220 Y-45.8344
G01 X35.5212 Y-45.8490
G01 X35.5212 Y-45.9511
G01 X34.5945 Y-45.9511
G01 X33.8714 Y-45.2282
G01 X33.8506 Y-45.2096
G01 X33.8290 Y-45.1935
G01 X33.8185 Y-45.1865
G01 X33.7936 Y-45.1718
G01 X33.7644 Y-45.1580
G01 X33.7382 Y-45.1484
G01 X33.7252 Y-45.1444
G01 X33.6971 Y-45.1376
G01 X33.6632 Y-45.1327
G01 X33.6300 Y-45.1311
G01 X28.6254 Y-45.1311
G01 X28.6094 Y-45.0973
G01 X28.6053 Y-45.0893
G01 X28.5675 Y-45.0262
G01 X28.5608 Y-45.0163
G01 X28.5213 Y-44.9631
G01 X28.5151 Y-44.9553
G01 X28.4632 Y-44.8982
G01 X28.4082 Y-44.8479
G01 X28.3977 Y-44.8393
G01 X28.3399 Y-44.7965
G01 X28.3315 Y-44.7911
G01 X28.2747 Y-44.7570
G01 X28.2618 Y-44.7502
G01 X28.1962 Y-44.7193
G01 X28.1261 Y-44.6939
G01 X28.1131 Y-44.6899
G01 X28.0417 Y-44.6722
G01 X27.9680 Y-44.6610
G01 X27.9561 Y-44.6598
G01 X27.8810 Y-44.6562
G01 X27.8065 Y-44.6596
G01 X27.7920 Y-44.6610
G01 X27.7183 Y-44.6722
G01 X27.6418 Y-44.6914
G01 X27.5715 Y-44.7163
G01 X27.5590 Y-44.7214
G01 X27.4925 Y-44.7530
G01 X27.4285 Y-44.7911
G01 X27.4163 Y-44.7992
G01 X27.3566 Y-44.8438
G01 X27.2982 Y-44.8968
G01 X27.2479 Y-44.9518
G01 X27.2387 Y-44.9631
G01 X27.1945 Y-45.0231
G01 X27.1570 Y-45.0853
G01 X27.2267 Y-45.1270
G01 X27.2235 Y-45.1329
G01 X27.1939 Y-45.1958
G01 X27.1704 Y-45.2613
G01 X27.1684 Y-45.2676
G01 X27.1516 Y-45.3351
G01 X27.1413 Y-45.4039
G01 X27.1407 Y-45.4105
G01 X27.1374 Y-45.4800
G01 X27.1409 Y-45.5528
G01 X27.1511 Y-45.6216
G01 X27.1523 Y-45.6281
G01 X27.1693 Y-45.6956
G01 X27.1927 Y-45.7611
G01 X27.1952 Y-45.7672
G01 X27.2243 Y-45.8286
G01 X27.2625 Y-45.8926
G01 X27.3059 Y-45.9511
G01 X27.3549 Y-46.0051
G01 X27.4064 Y-46.0519
G01 X27.4115 Y-46.0561
G01 X27.4674 Y-46.0975
G01 X27.5270 Y-46.1333
G01 X27.5329 Y-46.1365
G01 X27.5928 Y-46.1648
G01 X27.5989 Y-46.1673
G01 X27.6644 Y-46.1907
G01 X27.7351 Y-46.2084
G01 X27.8072 Y-46.2191
G01 X27.8800 Y-46.2226
G01 X27.9528 Y-46.2191
G01 X28.0216 Y-46.2089
G01 X28.0281 Y-46.2077
G01 X28.0924 Y-46.1916
G01 X28.0987 Y-46.1896
G01 X28.1642 Y-46.1661
G01 X28.2301 Y-46.1350
G01 X28.2926 Y-46.0975
G01 X28.3511 Y-46.0541
G01 X28.4051 Y-46.0051
G01 X28.4530 Y-45.9524
G01 X28.4975 Y-45.8926
G01 X28.5342 Y-45.8315
G01 X28.5655 Y-45.7657
G01 X28.5721 Y-45.7478
G01 X33.5191 Y-45.7477
G01 X34.2607 Y-46.4893
G01 X34.2801 Y-46.5070
G01 X34.2985 Y-46.5207
G01 X34.3041 Y-46.5244
G01 X34.3253 Y-46.5369
G01 X34.3445 Y-46.5460
G01 X34.3506 Y-46.5486
G01 X34.3723 Y-46.5562
G01 X34.3945 Y-46.5619
G01 X34.4010 Y-46.5632
G01 X34.4238 Y-46.5665
G01 X34.4483 Y-46.5677
G01 X35.6023 Y-46.5677
G01 X35.6024 Y-46.7500
G01 X35.6029 Y-46.7583
G01 X35.6044 Y-46.7664
G01 X35.6075 Y-46.7759
G01 X35.6128 Y-46.7862
G01 X35.6199 Y-46.7954
G01 X35.6271 Y-46.8023
G01 X35.6367 Y-46.8089
G01 X35.6457 Y-46.8131
G01 X35.6552 Y-46.8160
G01 X35.6667 Y-46.8176
G01 X37.1700 Y-46.8176
G01 X37.1799 Y-46.8169
G01 X37.1896 Y-46.8147
G01 X37.1974 Y-46.8118
G01 X37.2062 Y-46.8072
G01 X37.2129 Y-46.8023
G01 X37.2190 Y-46.7966
G01 X37.2243 Y-46.7903
G01 X37.2289 Y-46.7833
G01 X37.2325 Y-46.7759
G01 X37.2352 Y-46.7680
G01 X37.2369 Y-46.7599
G01 X37.2376 Y-46.7517
G01 X37.2376 Y-45.8500
G01 X37.2369 Y-45.8401
G01 X37.2352 Y-45.8320
G01 X37.2318 Y-45.8226
G01 X37.2272 Y-45.8138
G01 X37.2223 Y-45.8071
G01 X37.2166 Y-45.8010
G01 X37.2103 Y-45.7957
G01 X37.2033 Y-45.7911
G01 X37.1959 Y-45.7875
G01 X37.1880 Y-45.7848
G01 X37.1799 Y-45.7831
G01 X37.1717 Y-45.7824
G01 X35.6650 Y-45.7825
G01 X35.6536 Y-45.7844
G01 X35.6441 Y-45.7875
G01 X35.6338 Y-45.7928
G01 X35.6258 Y-45.7988
G01 X35.6188 Y-45.8058
G01 X35.6128 Y-45.8138
G01 X35.6075 Y-45.8241
G01 X35.6044 Y-45.8336
G01 X35.6029 Y-45.8417
G01 X35.6024 Y-45.8500
G01 X35.6024 Y-46.0322
G01 X34.5609 Y-46.0323
G01 X33.8169 Y-45.2884
G01 X33.7999 Y-45.2730
G01 X33.7815 Y-45.2593
G01 X33.7759 Y-45.2556
G01 X33.7562 Y-45.2439
G01 X33.7325 Y-45.2326
G01 X33.7109 Y-45.2248
G01 X33.7045 Y-45.2229
G01 X33.6822 Y-45.2174
G01 X33.6562 Y-45.2135
G01 X33.6300 Y-45.2123
G01 X28.5721 Y-45.2123
G01 X28.5655 Y-45.1943
G01 X28.5357 Y-45.1314
G01 X28.4993 Y-45.0702
G01 X28.4956 Y-45.0647
G01 X28.4541 Y-45.0089
G01 X28.4074 Y-44.9573
G01 X28.4027 Y-44.9526
G01 X28.3536 Y-44.9081
G01 X28.3485 Y-44.9039
G01 X28.2926 Y-44.8625
G01 X28.2330 Y-44.8267
G01 X28.2271 Y-44.8235
G01 X28.1642 Y-44.7939
G01 X28.0956 Y-44.7693
G01 X28.0281 Y-44.7523
G01 X28.0216 Y-44.7511
G01 X27.9511 Y-44.7408
G01 X27.8800 Y-44.7374
G01 X27.8105 Y-44.7407
G01 X27.8039 Y-44.7413
G01 X27.7351 Y-44.7516
G01 X27.6644 Y-44.7693
G01 X27.5989 Y-44.7927
G01 X27.5928 Y-44.7952
G01 X27.5299 Y-44.8250
G01 X27.4674 Y-44.8625
G01 X27.4115 Y-44.9039
G01 X27.4064 Y-44.9081
G01 X27.3549 Y-44.9549
G01 X27.3081 Y-45.0064
G01 X27.3039 Y-45.0115
G01 X27.2625 Y-45.0674
G01 X27.2267 Y-45.1270
G00 Z1.0000
G00 X27.1570 Y-47.0853
G01 F25.00
G01 Z-0.1001
G01 F45.00
G01 X27.1506 Y-47.0973
G01 X27.1193 Y-47.1638
G01 X27.0939 Y-47.2339
G01 X27.0897 Y-47.2479
G01 X27.0736 Y-47.3122
G01 X27.0718 Y-47.3203
G01 X27.0610 Y-47.3920
G01 X27.0596 Y-47.4065
G01 X27.0562 Y-47.4810
G01 X27.0597 Y-47.5545
G01 X27.0610 Y-47.5680
G01 X27.0718 Y-47.6397
G01 X27.0897 Y-47.7121
G01 X27.0939 Y-47.7261
G01 X27.1193 Y-47.7962
G01 X27.1506 Y-47.8627
G01 X27.1570 Y-47.8747
G01 X27.1956 Y-47.9385
G01 X27.2387 Y-47.9969
G01 X27.2479 Y-48.0082
G01 X27.2982 Y-48.0632
G01 X27.3526 Y-48.1127
G01 X27.3631 Y-48.1213
G01 X27.4231 Y-48.1655
G01 X27.4862 Y-48.2035
G01 X27.4973 Y-48.2094
G01 X27.5581 Y-48.2382
G01 X27.5706 Y-48.2434
G01 X27.6399 Y-48.2681
G01 X27.7122 Y-48.2864
G01 X27.7255 Y-48.2891
G01 X27.7983 Y-48.2998
G01 X27.8727 Y-48.3037
G01 X27.8873 Y-48.3037
G01 X27.9598 Y-48.3000
G01 X28.0335 Y-48.2892
G01 X28.0469 Y-48.2866
G01 X28.1182 Y-48.2686
G01 X28.1885 Y-48.2437
G01 X28.2019 Y-48.2382
G01 X28.2675 Y-48.2070
G01 X28.3315 Y-48.1689
G01 X28.3437 Y-48.1608
G01 X28.4034 Y-48.1162
G01 X28.4580 Y-48.0669
G01 X28.4676 Y-48.0572
G01 X28.5162 Y-48.0034
G01 X28.5608 Y-47.9437
G01 X28.5689 Y-47.9315
G01 X28.6070 Y-47.8675
G01 X28.6382 Y-47.8019
G01 X28.6434 Y-47.7894
G01 X28.6661 Y-47.7261
G01 X28.6691 Y-47.7166
G01 X28.6870 Y-47.6453
G01 X28.6901 Y-47.6275
G01 X28.6990 Y-47.6121
G01 X28.7113 Y-47.5860
G01 X28.7150 Y-47.5767
G01 X28.7242 Y-47.5503
G01 X28.7320 Y-47.5190
G01 X28.7371 Y-47.4852
G01 X28.7389 Y-47.4510
G01 X28.7378 Y-47.4231
G01 X28.7364 Y-47.4085
G01 X28.7331 Y-47.3865
G01 X28.7309 Y-47.3758
G01 X28.7236 Y-47.3478
G01 X28.7150 Y-47.3233
G01 X28.7113 Y-47.3140
G01 X28.7006 Y-47.2911
G01 X28.6955 Y-47.2815
G01 X28.6807 Y-47.2570
G01 X28.6679 Y-47.2393
G01 X28.6415 Y-47.1657
G01 X28.6087 Y-47.0958
G01 X28.6030 Y-47.0853
G01 X28.5644 Y-47.0215
G01 X28.5207 Y-46.9623
G01 X28.5121 Y-46.9518
G01 X28.4618 Y-46.8968
G01 X28.4082 Y-46.8479
G01 X28.3977 Y-46.8393
G01 X28.3385 Y-46.7956
G01 X28.2675 Y-46.7530
G01 X28.2010 Y-46.7214
G01 X28.1885 Y-46.7163
G01 X28.1201 Y-46.6919
G01 X28.0478 Y-46.6736
G01 X28.0345 Y-46.6709
G01 X27.9617 Y-46.6602
G01 X27.8873 Y-46.6563
G01 X27.8727 Y-46.6563
G01 X27.8002 Y-46.6600
G01 X27.7265 Y-46.6708
G01 X27.7131 Y-46.6734
G01 X27.6469 Y-46.6899
G01 X27.6339 Y-46.6939
G01 X27.5638 Y-46.7193
G01 X27.4973 Y-46.7506
G01 X27.4853 Y-46.7570
G01 X27.4215 Y-46.7956
G01 X27.3631 Y-46.8387
G01 X27.3518 Y-46.8479
G01 X27.2968 Y-46.8982
G01 X27.2473 Y-46.9526
G01 X27.2387 Y-46.9631
G01 X27.1945 Y-47.0231
G01 X27.1570 Y-47.0853
G01 X27.2267 Y-47.1270
G01 X27.2235 Y-47.1329
G01 X27.1952 Y-47.1928
G01 X27.1927 Y-47.1989
G01 X27.1693 Y-47.2644
G01 X27.1516 Y-47.3351
G01 X27.1409 Y-47.4072
G01 X27.1374 Y-47.4767
G01 X27.1374 Y-47.4833
G01 X27.1411 Y-47.5544
G01 X27.1511 Y-47.6216
G01 X27.1523 Y-47.6281
G01 X27.1693 Y-47.6956
G01 X27.1927 Y-47.7611
G01 X27.1952 Y-47.7672
G01 X27.2250 Y-47.8301
G01 X27.2634 Y-47.8940
G01 X27.3059 Y-47.9511
G01 X27.3526 Y-48.0027
G01 X27.3573 Y-48.0074
G01 X27.4089 Y-48.0541
G01 X27.4647 Y-48.0956
G01 X27.4702 Y-48.0993
G01 X27.5299 Y-48.1350
G01 X27.5928 Y-48.1648
G01 X27.5989 Y-48.1673
G01 X27.6644 Y-48.1907
G01 X27.7319 Y-48.2077
G01 X27.7384 Y-48.2089
G01 X27.8072 Y-48.2191
G01 X27.8767 Y-48.2226
G01 X27.8833 Y-48.2226
G01 X27.9528 Y-48.2191
G01 X28.0216 Y-48.2089
G01 X28.0281 Y-48.2077
G01 X28.0956 Y-48.1907
G01 X28.1642 Y-48.1661
G01 X28.2271 Y-48.1365
G01 X28.2330 Y-48.1333
G01 X28.2926 Y-48.0975
G01 X28.3485 Y-48.0561
G01 X28.3536 Y-48.0519
G01 X28.4051 Y-48.0051
G01 X28.4519 Y-47.9536
G01 X28.4561 Y-47.9485
G01 X28.4975 Y-47.8926
G01 X28.5333 Y-47.8330
G01 X28.5365 Y-47.8271
G01 X28.5661 Y-47.7642
G01 X28.5911 Y-47.6940
G01 X28.6080 Y-47.6265
G01 X28.6123 Y-47.5993
G01 X28.6261 Y-47.5762
G01 X28.6360 Y-47.5555
G01 X28.6452 Y-47.5309
G01 X28.6471 Y-47.5245
G01 X28.6526 Y-47.5022
G01 X28.6566 Y-47.4746
G01 X28.6577 Y-47.4500
G01 X28.6567 Y-47.4271
G01 X28.6561 Y-47.4205
G01 X28.6526 Y-47.3978
G01 X28.6471 Y-47.3755
G01 X28.6452 Y-47.3691
G01 X28.6374 Y-47.3475
G01 X28.6261 Y-47.3238
G01 X28.6144 Y-47.3041
G01 X28.5990 Y-47.2828
G01 X28.5938 Y-47.2765
G01 X28.5902 Y-47.2628
G01 X28.5661 Y-47.1958
G01 X28.5357 Y-47.1314
G01 X28.4975 Y-47.0674
G01 X28.4551 Y-47.0102
G01 X28.4051 Y-46.9549
G01 X28.3536 Y-46.9081
G01 X28.3485 Y-46.9039
G01 X28.2926 Y-46.8625
G01 X28.2330 Y-46.8267
G01 X28.2271 Y-46.8235
G01 X28.1642 Y-46.7939
G01 X28.0987 Y-46.7704
G01 X28.0924 Y-46.7684
G01 X28.0249 Y-46.7516
G01 X27.9561 Y-46.7413
G01 X27.9495 Y-46.7407
G01 X27.8800 Y-46.7374
G01 X27.8056 Y-46.7411
G01 X27.7351 Y-46.7516
G01 X27.6676 Y-46.7684
G01 X27.6613 Y-46.7704
G01 X27.5958 Y-46.7939
G01 X27.5329 Y-46.8235
G01 X27.5270 Y-46.8267
G01 X27.4674 Y-46.8625
G01 X27.4102 Y-46.9049
G01 X27.3549 Y-46.9549
G01 X27.3059 Y-47.0089
G01 X27.2625 Y-47.0674
G01 X27.2267 Y-47.1270
G01 X27.0653 Y-47.3179
G01 X27.1126 Y-47.1621
G01 X27.1893 Y-47.0185
G01 X27.2926 Y-46.8926
G01 X27.4185 Y-46.7893
G01 X27.5621 Y-46.7126
G01 X27.7179 Y-46.6653
G01 X27.8800 Y-46.6493
G01 X28.0421 Y-46.6653
G01 X28.1979 Y-46.7126
G01 X28.3415 Y-46.7893
G01 X28.4674 Y-46.8926
G01 X28.5707 Y-47.0185
G01 X28.6474 Y-47.1621
G01 X28.6609 Y-47.2065
G01 X28.6642 Y-47.2156
G01 X28.6681 Y-47.2248
G01 X28.6728 Y-47.2341
G01 X28.7229 Y-47.3258
G01 X28.7444 Y-47.4247
G01 X28.7372 Y-47.5255
G01 X28.6990 Y-47.6280
G01 X28.6474 Y-47.7979
G01 X28.5707 Y-47.9415
G01 X28.4674 Y-48.0674
G01 X28.3415 Y-48.1707
G01 X28.1979 Y-48.2474
G01 X28.0421 Y-48.2947
G01 X27.8800 Y-48.3107
G01 X27.7179 Y-48.2947
G01 X27.5621 Y-48.2474
G01 X27.4185 Y-48.1707
G01 X27.2926 Y-48.0674
G01 X27.1893 Y-47.9415
G01 X27.1126 Y-47.7979
G01 X27.0653 Y-47.6421
G01 X27.0493 Y-47.4800
G01 X27.0653 Y-47.3179
G01 X26.9853 Y-47.3020
G01 X27.0372 Y-47.1309
G01 X27.1215 Y-46.9732
G01 X27.2349 Y-46.8349
G01 X27.3732 Y-46.7215
G01 X27.5309 Y-46.6372
G01 X27.7020 Y-46.5853
G01 X27.8800 Y-46.5678
G01 X28.0580 Y-46.5853
G01 X28.2291 Y-46.6372
G01 X28.3868 Y-46.7215
G01 X28.5251 Y-46.8349
G01 X28.6385 Y-46.9732
G01 X28.7228 Y-47.1309
G01 X28.7378 Y-47.1802
G01 X28.7417 Y-47.1905
G01 X28.7997 Y-47.2972
G01 X28.8262 Y-47.4188
G01 X28.8173 Y-47.5430
G01 X28.7760 Y-47.6540
G01 X28.7228 Y-47.8291
G01 X28.6385 Y-47.9868
G01 X28.5251 Y-48.1251
G01 X28.3868 Y-48.2385
G01 X28.2291 Y-48.3228
G01 X28.0580 Y-48.3747
G01 X27.8800 Y-48.3922
G01 X27.7020 Y-48.3747
G01 X27.5309 Y-48.3228
G01 X27.3732 Y-48.2385
G01 X27.2349 Y-48.1251
G01 X27.1215 Y-47.9868
G01 X27.0372 Y-47.8291
G01 X26.9853 Y-47.6580
G01 X26.9678 Y-47.4800
G01 X26.9853 Y-47.3020
G00 Z1.0000
G00 X27.1570 Y-49.0853
G01 F25.00
G01 Z-0.1001
G01 F45.00
G01 X27.1506 Y-49.0973
G01 X27.1193 Y-49.1638
G01 X27.0919 Y-49.2399
G01 X27.0722 Y-49.3183
G01 X27.0602 Y-49.3983
G01 X27.0562 Y-49.4790
G01 X27.0600 Y-49.5598
G01 X27.0718 Y-49.6397
G01 X27.0914 Y-49.7182
G01 X27.1185 Y-49.7943
G01 X27.1530 Y-49.8675
G01 X27.1945 Y-49.9369
G01 X27.2425 Y-50.0019
G01 X27.2968 Y-50.0618
G01 X27.3566 Y-50.1162
G01 X27.4215 Y-50.1644
G01 X27.4908 Y-50.2061
G01 X27.5638 Y-50.2407
G01 X27.6399 Y-50.2681
G01 X27.7183 Y-50.2878
G01 X27.7983 Y-50.2998
G01 X27.8790 Y-50.3038
G01 X27.9598 Y-50.3000
G01 X28.0397 Y-50.2882
G01 X28.1182 Y-50.2686
G01 X28.1943 Y-50.2415
G01 X28.2675 Y-50.2070
G01 X28.3369 Y-50.1655
G01 X28.4019 Y-50.1175
G01 X28.4618 Y-50.0632
G01 X28.5162 Y-50.0034
G01 X28.5644 Y-49.9385
G01 X28.6061 Y-49.8692
G01 X28.6407 Y-49.7962
G01 X28.6681 Y-49.7201
G01 X28.6878 Y-49.6417
G01 X28.6998 Y-49.5617
G01 X28.7038 Y-49.4810
G01 X28.7000 Y-49.4002
G01 X28.6882 Y-49.3203
G01 X28.6686 Y-49.2418
G01 X28.6415 Y-49.1657
G01 X28.6070 Y-49.0925
G01 X28.5655 Y-49.0231
G01 X28.5175 Y-48.9581
G01 X28.4632 Y-48.8982
G01 X28.4034 Y-48.8438
G01 X28.3385 Y-48.7956
G01 X28.2692 Y-48.7539
G01 X28.1962 Y-48.7193
G01 X28.1201 Y-48.6919
G01 X28.0417 Y-48.6722
G01 X27.9617 Y-48.6602
G01 X27.8810 Y-48.6562
G01 X27.8002 Y-48.6600
G01 X27.7203 Y-48.6718
G01 X27.6418 Y-48.6914
G01 X27.5657 Y-48.7185
G01 X27.4925 Y-48.7530
G01 X27.4231 Y-48.7945
G01 X27.3581 Y-48.8425
G01 X27.2982 Y-48.8968
G01 X27.2438 Y-48.9566
G01 X27.1956 Y-49.0215
G01 X27.1570 Y-49.0853
G01 X27.2267 Y-49.1270
G01 X27.2235 Y-49.1329
G01 X27.1952 Y-49.1928
G01 X27.1927 Y-49.1989
G01 X27.1693 Y-49.2644
G01 X27.1523 Y-49.3319
G01 X27.1511 Y-49.3384
G01 X27.1409 Y-49.4072
G01 X27.1374 Y-49.4800
G01 X27.1409 Y-49.5528
G01 X27.1520 Y-49.6265
G01 X27.1693 Y-49.6956
G01 X27.1927 Y-49.7611
G01 X27.1952 Y-49.7672
G01 X27.2250 Y-49.8301
G01 X27.2607 Y-49.8898
G01 X27.2644 Y-49.8953
G01 X27.3059 Y-49.9511
G01 X27.3526 Y-50.0027
G01 X27.3573 Y-50.0074
G01 X27.4064 Y-50.0519
G01 X27.4115 Y-50.0561
G01 X27.4674 Y-50.0975
G01 X27.5299 Y-50.1350
G01 X27.5928 Y-50.1648
G01 X27.5989 Y-50.1673
G01 X27.6644 Y-50.1907
G01 X27.7351 Y-50.2084
G01 X27.8072 Y-50.2191
G01 X27.8767 Y-50.2226
G01 X27.8833 Y-50.2226
G01 X27.9528 Y-50.2191
G01 X28.0216 Y-50.2089
G01 X28.0281 Y-50.2077
G01 X28.0956 Y-50.1907
G01 X28.1611 Y-50.1673
G01 X28.1672 Y-50.1648
G01 X28.2301 Y-50.1350
G01 X28.2898 Y-50.0993
G01 X28.2953 Y-50.0956
G01 X28.3511 Y-50.0541
G01 X28.4027 Y-50.0074
G01 X28.4074 Y-50.0027
G01 X28.4541 Y-49.9511
G01 X28.4975 Y-49.8926
G01 X28.5333 Y-49.8330
G01 X28.5365 Y-49.8271
G01 X28.5648 Y-49.7672
G01 X28.5673 Y-49.7611
G01 X28.5907 Y-49.6956
G01 X28.6077 Y-49.6281
G01 X28.6089 Y-49.6216
G01 X28.6191 Y-49.5528
G01 X28.6226 Y-49.4800
G01 X28.6191 Y-49.4072
G01 X28.6089 Y-49.3384
G01 X28.6077 Y-49.3319
G01 X28.5907 Y-49.2644
G01 X28.5673 Y-49.1989
G01 X28.5648 Y-49.1928
G01 X28.5365 Y-49.1329
G01 X28.5333 Y-49.1270
G01 X28.4975 Y-49.0674
G01 X28.4561 Y-49.0115
G01 X28.4519 Y-49.0064
G01 X28.4051 Y-48.9549
G01 X28.3536 Y-48.9081
G01 X28.3485 Y-48.9039
G01 X28.2953 Y-48.8644
G01 X28.2898 Y-48.8607
G01 X28.2301 Y-48.8250
G01 X28.1642 Y-48.7939
G01 X28.0956 Y-48.7693
G01 X28.0281 Y-48.7523
G01 X28.0216 Y-48.7511
G01 X27.9528 Y-48.7409
G01 X27.8833 Y-48.7374
G01 X27.8767 Y-48.7374
G01 X27.8072 Y-48.7409
G01 X27.7384 Y-48.7511
G01 X27.7319 Y-48.7523
G01 X27.6644 Y-48.7693
G01 X27.5989 Y-48.7927
G01 X27.5928 Y-48.7952
G01 X27.5299 Y-48.8250
G01 X27.4674 Y-48.8625
G01 X27.4089 Y-48.9059
G01 X27.3573 Y-48.9526
G01 X27.3526 Y-48.9573
G01 X27.3081 Y-49.0064
G01 X27.3039 Y-49.0115
G01 X27.2625 Y-49.0674
G01 X27.2267 Y-49.1270
G00 Z1.0000
G00 X27.7501 Y-50.5031
G01 F25.00
G01 Z-0.1001
G01 F45.00
G01 X27.7588 Y-50.4811
G01 X27.7657 Y-50.4592
G01 X27.7804 Y-50.4611
G01 X27.7939 Y-50.4623
G01 X27.8655 Y-50.4658
G01 X27.8790 Y-50.4662
G01 X27.8943 Y-50.4659
G01 X27.9644 Y-50.4624
G01 X27.9791 Y-50.4612
G01 X27.9942 Y-50.4592
G01 X28.0014 Y-50.4821
G01 X28.0098 Y-50.5031
G01 X27.9852 Y-50.4995
G01 X27.9681 Y-50.4978
G01 X27.8945 Y-50.4942
G01 X27.8790 Y-50.4938
G01 X27.8650 Y-50.4942
G01 X27.7919 Y-50.4978
G01 X27.7748 Y-50.4995
G01 X27.7501 Y-50.5031
G01 X27.0634 Y-51.0000
G01 X27.0731 Y-50.9804
G01 X27.1786 Y-50.8406
G01 X27.3081 Y-50.7227
G01 X27.4570 Y-50.6305
G01 X27.5470 Y-50.5955
G01 X27.5604 Y-50.5895
G01 X27.5732 Y-50.5828
G01 X27.5872 Y-50.5741
G01 X27.6000 Y-50.5649
G01 X27.6115 Y-50.5554
G01 X27.6277 Y-50.5405
G01 X27.6356 Y-50.5322
G01 X27.6431 Y-50.5235
G01 X27.6512 Y-50.5131
G01 X27.6577 Y-50.5037
G01 X27.6638 Y-50.4940
G01 X27.6693 Y-50.4839
G01 X27.6744 Y-50.4737
G01 X27.6793 Y-50.4622
G01 X27.6832 Y-50.4514
G01 X27.6866 Y-50.4405
G01 X27.6895 Y-50.4294
G01 X27.6918 Y-50.4181
G01 X27.6938 Y-50.4048
G01 X27.6955 Y-50.3877
G01 X27.6961 Y-50.3764
G01 X27.6963 Y-50.3661
G01 X27.7141 Y-50.3695
G01 X27.7903 Y-50.3805
G01 X27.8021 Y-50.3815
G01 X27.8687 Y-50.3847
G01 X27.8810 Y-50.3850
G01 X27.9574 Y-50.3815
G01 X27.9697 Y-50.3805
G01 X28.0459 Y-50.3695
G01 X28.0640 Y-50.3660
G01 X28.0647 Y-50.3924
G01 X28.0658 Y-50.4036
G01 X28.0674 Y-50.4148
G01 X28.0699 Y-50.4278
G01 X28.0727 Y-50.4387
G01 X28.0763 Y-50.4505
G01 X28.0802 Y-50.4611
G01 X28.0853 Y-50.4730
G01 X28.0903 Y-50.4831
G01 X28.0957 Y-50.4930
G01 X28.1022 Y-50.5034
G01 X28.1087 Y-50.5127
G01 X28.1168 Y-50.5232
G01 X28.1242 Y-50.5317
G01 X28.1321 Y-50.5399
G01 X28.1466 Y-50.5537
G01 X28.1580 Y-50.5634
G01 X28.1717 Y-50.5733
G01 X28.1861 Y-50.5823
G01 X28.1987 Y-50.5890
G01 X28.2132 Y-50.5956
G01 X28.3030 Y-50.6305
G01 X28.4519 Y-50.7227
G01 X28.5813 Y-50.8406
G01 X28.6869 Y-50.9804
G01 X28.6966 Y-51.0000
G01 X28.6465 Y-51.0000
G01 X28.6361 Y-50.9828
G01 X28.6287 Y-50.9717
G01 X28.5819 Y-50.9087
G01 X28.5725 Y-50.8977
G01 X28.5277 Y-50.8482
G01 X28.5144 Y-50.8348
G01 X28.4549 Y-50.7811
G01 X28.4456 Y-50.7738
G01 X28.3916 Y-50.7337
G01 X28.3737 Y-50.7217
G01 X28.3160 Y-50.6872
G01 X28.3034 Y-50.6802
G01 X28.2348 Y-50.6476
G01 X28.2158 Y-50.6398
G01 X28.1530 Y-50.6173
G01 X28.1418 Y-50.6137
G01 X28.0661 Y-50.5945
G01 X28.0469 Y-50.5907
G01 X27.9794 Y-50.5807
G01 X27.9677 Y-50.5793
G01 X27.8898 Y-50.5752
G01 X27.8692 Y-50.5752
G01 X27.7923 Y-50.5793
G01 X27.7806 Y-50.5807
G01 X27.7146 Y-50.5904
G01 X27.6960 Y-50.5940
G01 X27.6277 Y-50.6111
G01 X27.6080 Y-50.6170
G01 X27.6066 Y-50.6175
G01 X27.5442 Y-50.6398
G01 X27.5355 Y-50.6431
G01 X27.5233 Y-50.6485
G01 X27.4630 Y-50.6770
G01 X27.4525 Y-50.6823
G01 X27.3855 Y-50.7222
G01 X27.3684 Y-50.7337
G01 X27.3144 Y-50.7738
G01 X27.3051 Y-50.7811
G01 X27.2456 Y-50.8348
G01 X27.2323 Y-50.8482
G01 X27.1875 Y-50.8977
G01 X27.1781 Y-50.9087
G01 X27.1735 Y-50.9148
G01 X27.1340 Y-50.9680
G01 X27.1313 Y-50.9717
G01 X27.1239 Y-50.9828
G01 X27.1135 Y-51.0000
G01 X27.0634 Y-51.0000
G01 X26.9322 Y-51.0812
G01 X27.0038 Y-50.9375
G01 X27.1184 Y-50.7857
G01 X27.2589 Y-50.6576
G01 X27.4206 Y-50.5575
G01 X27.5192 Y-50.5191
G01 X27.5279 Y-50.5150
G01 X27.5377 Y-50.5094
G01 X27.5454 Y-50.5043
G01 X27.5531 Y-50.4985
G01 X27.5688 Y-50.4846
G01 X27.5789 Y-50.4738
G01 X27.5891 Y-50.4603
G01 X27.5967 Y-50.4476
G01 X27.6037 Y-50.4326
G01 X27.6090 Y-50.4167
G01 X27.6124 Y-50.4005
G01 X27.6144 Y-50.3834
G01 X27.6151 Y-50.3678
G01 X27.6141 Y-50.3516
G01 X27.6113 Y-50.3352
G01 X27.6073 Y-50.3212
G01 X27.6019 Y-50.3076
G01 X27.5944 Y-50.2931
G01 X27.5864 Y-50.2809
G01 X27.5740 Y-50.2655
G01 X27.5666 Y-50.2574
G01 X27.5571 Y-50.2486
G01 X27.5472 Y-50.2409
G01 X27.5380 Y-50.2348
G01 X27.4185 Y-50.1707
G01 X27.2926 Y-50.0674
G01 X27.1893 Y-49.9415
G01 X27.1126 Y-49.7979
G01 X27.0653 Y-49.6421
G01 X27.0493 Y-49.4800
G01 X27.0653 Y-49.3179
G01 X27.1126 Y-49.1621
G01 X27.1893 Y-49.0185
G01 X27.2926 Y-48.8926
G01 X27.4185 Y-48.7893
G01 X27.5621 Y-48.7126
G01 X27.7179 Y-48.6653
G01 X27.8800 Y-48.6493
G01 X28.0421 Y-48.6653
G01 X28.1979 Y-48.7126
G01 X28.3415 Y-48.7893
G01 X28.4674 Y-48.8926
G01 X28.5707 Y-49.0185
G01 X28.6474 Y-49.1621
G01 X28.6947 Y-49.3179
G01 X28.7107 Y-49.4800
G01 X28.6947 Y-49.6421
G01 X28.6474 Y-49.7979
G01 X28.5707 Y-49.9415
G01 X28.4674 Y-50.0674
G01 X28.3415 Y-50.1707
G01 X28.2292 Y-50.2307
G01 X28.2202 Y-50.2359
G01 X28.2092 Y-50.2435
G01 X28.2005 Y-50.2507
G01 X28.1923 Y-50.2585
G01 X28.1819 Y-50.2701
G01 X28.1761 Y-50.2771
G01 X28.1706 Y-50.2848
G01 X28.1647 Y-50.2942
G01 X28.1605 Y-50.3023
G01 X28.1566 Y-50.3109
G01 X28.1527 Y-50.3213
G01 X28.1501 Y-50.3300
G01 X28.1480 Y-50.3392
G01 X28.1465 Y-50.3482
G01 X28.1454 Y-50.3593
G01 X28.1452 Y-50.3687
G01 X28.1456 Y-50.3848
G01 X28.1464 Y-50.3938
G01 X28.1480 Y-50.4046
G01 X28.1500 Y-50.4137
G01 X28.1525 Y-50.4223
G01 X28.1570 Y-50.4344
G01 X28.1624 Y-50.4459
G01 X28.1689 Y-50.4570
G01 X28.1751 Y-50.4661
G01 X28.1820 Y-50.4746
G01 X28.1895 Y-50.4826
G01 X28.2025 Y-50.4947
G01 X28.2126 Y-50.5028
G01 X28.2262 Y-50.5117
G01 X28.2410 Y-50.5192
G01 X28.3394 Y-50.5575
G01 X28.5011 Y-50.6576
G01 X28.6416 Y-50.7857
G01 X28.7562 Y-50.9375
G01 X28.8278 Y-51.0812
G01 X28.6005 Y-51.0812
G01 X28.5644 Y-51.0215
G01 X28.5207 Y-50.9623
G01 X28.5121 Y-50.9518
G01 X28.4618 Y-50.8968
G01 X28.4074 Y-50.8473
G01 X28.3969 Y-50.8387
G01 X28.3369 Y-50.7945
G01 X28.2738 Y-50.7565
G01 X28.2627 Y-50.7506
G01 X28.2019 Y-50.7218
G01 X28.1894 Y-50.7166
G01 X28.1201 Y-50.6919
G01 X28.0478 Y-50.6736
G01 X28.0345 Y-50.6709
G01 X27.9617 Y-50.6602
G01 X27.8873 Y-50.6563
G01 X27.8737 Y-50.6563
G01 X27.8002 Y-50.6600
G01 X27.7265 Y-50.6708
G01 X27.7131 Y-50.6734
G01 X27.6469 Y-50.6899
G01 X27.6339 Y-50.6939
G01 X27.5638 Y-50.7193
G01 X27.4973 Y-50.7506
G01 X27.4853 Y-50.7570
G01 X27.4215 Y-50.7956
G01 X27.3631 Y-50.8387
G01 X27.3526 Y-50.8473
G01 X27.2982 Y-50.8968
G01 X27.2479 Y-50.9518
G01 X27.2393 Y-50.9623
G01 X27.1956 Y-51.0215
G01 X27.1595 Y-51.0812
G01 X26.9322 Y-51.0812
G01 X27.2096 Y-51.1623
G01 X26.8191 Y-51.1624
G01 X26.8430 Y-51.0783
G01 X26.9345 Y-50.8946
G01 X27.0582 Y-50.7308
G01 X27.2098 Y-50.5925
G01 X27.3843 Y-50.4845
G01 X27.4854 Y-50.4453
G01 X27.4916 Y-50.4423
G01 X27.4989 Y-50.4378
G01 X27.5043 Y-50.4335
G01 X27.5139 Y-50.4247
G01 X27.5184 Y-50.4196
G01 X27.5223 Y-50.4142
G01 X27.5257 Y-50.4083
G01 X27.5290 Y-50.4006
G01 X27.5314 Y-50.3925
G01 X27.5327 Y-50.3842
G01 X27.5338 Y-50.3721
G01 X27.5337 Y-50.3638
G01 X27.5323 Y-50.3540
G01 X27.5294 Y-50.3444
G01 X27.5259 Y-50.3369
G01 X27.5206 Y-50.3285
G01 X27.5108 Y-50.3165
G01 X27.5049 Y-50.3108
G01 X27.4996 Y-50.3067
G01 X27.4926 Y-50.3023
G01 X27.3732 Y-50.2385
G01 X27.2349 Y-50.1251
G01 X27.1215 Y-49.9868
G01 X27.0372 Y-49.8291
G01 X26.9853 Y-49.6580
G01 X26.9678 Y-49.4800
G01 X26.9853 Y-49.3020
G01 X27.0372 Y-49.1309
G01 X27.1215 Y-48.9732
G01 X27.2349 Y-48.8349
G01 X27.3732 Y-48.7215
G01 X27.5309 Y-48.6372
G01 X27.7020 Y-48.5853
G01 X27.8800 Y-48.5678
G01 X28.0580 Y-48.5853
G01 X28.2291 Y-48.6372
G01 X28.3868 Y-48.7215
G01 X28.5251 Y-48.8349
G01 X28.6385 Y-48.9732
G01 X28.7228 Y-49.1309
G01 X28.7747 Y-49.3020
G01 X28.7922 Y-49.4800
G01 X28.7747 Y-49.6580
G01 X28.7228 Y-49.8291
G01 X28.6385 Y-49.9868
G01 X28.5251 Y-50.1251
G01 X28.3868 Y-50.2385
G01 X28.2674 Y-50.3023
G01 X28.2601 Y-50.3068
G01 X28.2547 Y-50.3111
G01 X28.2487 Y-50.3171
G01 X28.2392 Y-50.3284
G01 X28.2347 Y-50.3355
G01 X28.2311 Y-50.3431
G01 X28.2281 Y-50.3528
G01 X28.2267 Y-50.3611
G01 X28.2264 Y-50.3678
G01 X28.2269 Y-50.3833
G01 X28.2282 Y-50.3915
G01 X28.2299 Y-50.3979
G01 X28.2330 Y-50.4056
G01 X28.2370 Y-50.4129
G01 X28.2408 Y-50.4183
G01 X28.2452 Y-50.4233
G01 X28.2551 Y-50.4329
G01 X28.2602 Y-50.4371
G01 X28.2672 Y-50.4417
G01 X28.2746 Y-50.4453
G01 X28.3757 Y-50.4845
G01 X28.5502 Y-50.5925
G01 X28.7018 Y-50.7308
G01 X28.8255 Y-50.8946
G01 X28.9170 Y-51.0783
G01 X28.9409 Y-51.1623
G01 X28.5504 Y-51.1623
G01 X28.5342 Y-51.1285
G01 X28.4984 Y-51.0688
G01 X28.4530 Y-51.0076
G01 X28.4051 Y-50.9549
G01 X28.3536 Y-50.9081
G01 X28.3485 Y-50.9039
G01 X28.2912 Y-50.8616
G01 X28.2301 Y-50.8250
G01 X28.1672 Y-50.7952
G01 X28.1611 Y-50.7927
G01 X28.0956 Y-50.7693
G01 X28.0281 Y-50.7523
G01 X28.0216 Y-50.7511
G01 X27.9528 Y-50.7409
G01 X27.8800 Y-50.7374
G01 X27.8072 Y-50.7409
G01 X27.7384 Y-50.7511
G01 X27.7319 Y-50.7523
G01 X27.6644 Y-50.7693
G01 X27.5989 Y-50.7927
G01 X27.5928 Y-50.7952
G01 X27.5299 Y-50.8250
G01 X27.4688 Y-50.8616
G01 X27.4115 Y-50.9039
G01 X27.4064 Y-50.9081
G01 X27.3549 Y-50.9549
G01 X27.3070 Y-51.0076
G01 X27.2616 Y-51.0688
G01 X27.2258 Y-51.1285
G01 X27.2096 Y-51.1623
G00 Z1.0000
G00 X27.2096 Y-51.7976
G01 F25.00
G01 Z-0.1001
G01 F45.00
G01 X26.8191 Y-51.7977
G01 X26.8430 Y-51.8817
G01 X26.9345 Y-52.0654
G01 X27.0582 Y-52.2292
G01 X27.2098 Y-52.3675
G01 X27.3843 Y-52.4755
G01 X27.5624 Y-52.5445
G01 X27.5623 Y-52.1504
G01 X27.5285 Y-52.1342
G01 X27.4660 Y-52.0966
G01 X27.4089 Y-52.0541
G01 X27.3549 Y-52.0051
G01 X27.3059 Y-51.9511
G01 X27.2634 Y-51.8940
G01 X27.2258 Y-51.8315
G01 X27.2096 Y-51.7976
G01 X27.0634 Y-51.9600
G01 X27.0731 Y-51.9796
G01 X27.1786 Y-52.1194
G01 X27.3081 Y-52.2373
G01 X27.4000 Y-52.2943
G01 X27.4000 Y-52.2465
G01 X27.3828 Y-52.2361
G01 X27.3717 Y-52.2287
G01 X27.3087 Y-52.1819
G01 X27.2973 Y-52.1722
G01 X27.2479 Y-52.1274
G01 X27.2394 Y-52.1192
G01 X27.1875 Y-52.0623
G01 X27.1775 Y-52.0505
G01 X27.1313 Y-51.9883
G01 X27.1239 Y-51.9772
G01 X27.1135 Y-51.9600
G01 X27.0634 Y-51.9600
G01 X26.9322 Y-51.8788
G01 X27.0038 Y-52.0225
G01 X27.1184 Y-52.1743
G01 X27.2589 Y-52.3024
G01 X27.4206 Y-52.4025
G01 X27.4812 Y-52.4260
G01 X27.4812 Y-52.2005
G01 X27.4215 Y-52.1644
G01 X27.3623 Y-52.1207
G01 X27.3518 Y-52.1121
G01 X27.2968 Y-52.0618
G01 X27.2473 Y-52.0074
G01 X27.2387 Y-51.9969
G01 X27.1956 Y-51.9385
G01 X27.1595 Y-51.8788
G01 X26.9322 Y-51.8788
G00 Z1.0000
G00 X28.1976 Y-52.1504
G01 F25.00
G01 Z-0.1001
G01 F45.00
G01 X28.2315 Y-52.1342
G01 X28.2940 Y-52.0966
G01 X28.3511 Y-52.0541
G01 X28.4051 Y-52.0051
G01 X28.4541 Y-51.9511
G01 X28.4966 Y-51.8940
G01 X28.5342 Y-51.8315
G01 X28.5504 Y-51.7977
G01 X28.9409 Y-51.7976
G01 X28.9170 Y-51.8817
G01 X28.8255 Y-52.0654
G01 X28.7018 Y-52.2292
G01 X28.5502 Y-52.3675
G01 X28.3757 Y-52.4755
G01 X28.1976 Y-52.5445
G01 X28.1976 Y-52.1504
G01 X28.2788 Y-52.2005
G01 X28.3385 Y-52.1644
G01 X28.4034 Y-52.1162
G01 X28.4580 Y-52.0669
G01 X28.4676 Y-52.0572
G01 X28.5127 Y-52.0074
G01 X28.5213 Y-51.9969
G01 X28.5644 Y-51.9385
G01 X28.6005 Y-51.8788
G01 X28.8278 Y-51.8788
G01 X28.7562 Y-52.0225
G01 X28.6416 Y-52.1743
G01 X28.5011 Y-52.3024
G01 X28.3394 Y-52.4025
G01 X28.2788 Y-52.4260
G01 X28.2788 Y-52.2005
G01 X28.3600 Y-52.2465
G01 X28.3772 Y-52.2361
G01 X28.3883 Y-52.2287
G01 X28.4505 Y-52.1825
G01 X28.4623 Y-52.1725
G01 X28.5192 Y-52.1206
G01 X28.5274 Y-52.1121
G01 X28.5722 Y-52.0627
G01 X28.5819 Y-52.0513
G01 X28.6287 Y-51.9883
G01 X28.6361 Y-51.9772
G01 X28.6465 Y-51.9600
G01 X28.6966 Y-51.9600
G01 X28.6869 Y-51.9796
G01 X28.5813 Y-52.1194
G01 X28.4519 Y-52.2373
G01 X28.3600 Y-52.2943
G01 X28.3600 Y-52.2465
G00 Z1.0000
G00 X30.4040 Y-52.6496
G01 F25.00
G01 Z-0.1001
G01 F45.00
G01 X30.4110 Y-52.6542
G01 X30.4185 Y-52.6579
G01 X30.4264 Y-52.6606
G01 X30.4347 Y-52.6624
G01 X30.5110 Y-52.6680
G01 X30.5178 Y-52.6680
G01 X30.5244 Y-52.6673
G01 X30.5294 Y-52.6663
G01 X30.5359 Y-52.6645
G01 X30.5451 Y-52.6606
G01 X30.6093 Y-52.6255
G01 X30.6186 Y-52.6191
G01 X30.6233 Y-52.6148
G01 X31.4784 Y-51.7597
G01 X31.4976 Y-51.7372
G01 X31.5014 Y-51.7317
G01 X31.5046 Y-51.7259
G01 X31.5078 Y-51.7182
G01 X31.5322 Y-51.6474
G01 X31.5336 Y-51.6408
G01 X31.5344 Y-51.6325
G01 X31.5341 Y-51.6241
G01 X31.5329 Y-51.6158
G01 X31.5160 Y-51.5462
G01 X31.5137 Y-51.5385
G01 X31.5097 Y-51.5298
G01 X31.4995 Y-51.5122
G01 X31.4074 Y-51.2774
G01 X31.3513 Y-51.0315
G01 X31.3324 Y-50.7800
G01 X31.3513 Y-50.5285
G01 X31.4074 Y-50.2826
G01 X31.4996 Y-50.0478
G01 X31.6257 Y-49.8294
G01 X31.7829 Y-49.6322
G01 X31.9381 Y-49.4881
G01 X31.9519 Y-49.4739
G01 X31.9562 Y-49.4688
G01 X31.9599 Y-49.4633
G01 X31.9630 Y-49.4575
G01 X31.9936 Y-49.3892
G01 X31.9958 Y-49.3828
G01 X31.9973 Y-49.3762
G01 X31.9979 Y-49.3712
G01 X31.9983 Y-49.3645
G01 X31.9975 Y-49.3545
G01 X31.9869 Y-49.2837
G01 X31.9849 Y-49.2756
G01 X31.9820 Y-49.2677
G01 X31.9772 Y-49.2589
G01 X31.9722 Y-49.2521
G01 X31.9250 Y-49.1983
G01 X31.9191 Y-49.1923
G01 X31.9125 Y-49.1872
G01 X31.9053 Y-49.1829
G01 X31.8976 Y-49.1795
G01 X31.8241 Y-49.1582
G01 X31.8178 Y-49.1569
G01 X31.8114 Y-49.1562
G01 X30.5346 Y-49.1641
G01 X30.5244 Y-49.1654
G01 X30.4740 Y-49.1762
G01 X30.4645 Y-49.1792
G01 X30.4556 Y-49.1835
G01 X30.4462 Y-49.1901
G01 X30.3901 Y-49.2372
G01 X30.3854 Y-49.2421
G01 X30.3822 Y-49.2459
G01 X30.3784 Y-49.2515
G01 X30.3759 Y-49.2559
G01 X30.3732 Y-49.2620
G01 X30.3715 Y-49.2667
G01 X30.3502 Y-49.3350
G01 X30.3483 Y-49.3444
G01 X30.3477 Y-49.3525
G01 X30.2962 Y-52.4761
G01 X30.2965 Y-52.4899
G01 X30.2976 Y-52.5002
G01 X30.3002 Y-52.5101
G01 X30.3258 Y-52.5788
G01 X30.3286 Y-52.5849
G01 X30.3320 Y-52.5907
G01 X30.3381 Y-52.5986
G01 X30.3454 Y-52.6056
G01 X30.4040 Y-52.6496
G01 X30.3553 Y-52.7146
G01 X30.3684 Y-52.7233
G01 X30.3815 Y-52.7303
G01 X30.3952 Y-52.7358
G01 X30.4110 Y-52.7404
G01 X30.4219 Y-52.7425
G01 X30.4312 Y-52.7437
G01 X30.5046 Y-52.7489
G01 X30.5210 Y-52.7491
G01 X30.5377 Y-52.7474
G01 X30.5466 Y-52.7457
G01 X30.5558 Y-52.7433
G01 X30.5713 Y-52.7378
G01 X30.5846 Y-52.7315
G01 X30.6508 Y-52.6953
G01 X30.6639 Y-52.6866
G01 X30.6763 Y-52.6764
G01 X31.5366 Y-51.8163
G01 X31.5442 Y-51.8080
G01 X31.5637 Y-51.7844
G01 X31.5718 Y-51.7722
G01 X31.5787 Y-51.7593
G01 X31.5842 Y-51.7457
G01 X31.6074 Y-51.6788
G01 X31.6099 Y-51.6707
G01 X31.6121 Y-51.6619
G01 X31.6148 Y-51.6454
G01 X31.6156 Y-51.6306
G01 X31.6149 Y-51.6158
G01 X31.6128 Y-51.6012
G01 X31.5947 Y-51.5261
G01 X31.5901 Y-51.5111
G01 X31.5867 Y-51.5027
G01 X31.5830 Y-51.4948
G01 X31.5729 Y-51.4769
G01 X31.4852 Y-51.2534
G01 X31.4318 Y-51.0194
G01 X31.4138 Y-50.7800
G01 X31.4318 Y-50.5406
G01 X31.4852 Y-50.3066
G01 X31.5729 Y-50.0831
G01 X31.6929 Y-49.8752
G01 X31.8426 Y-49.6875
G01 X31.9956 Y-49.5455
G01 X32.0136 Y-49.5267
G01 X32.0239 Y-49.5137
G01 X32.0306 Y-49.5031
G01 X32.0367 Y-49.4917
G01 X32.0664 Y-49.4255
G01 X32.0709 Y-49.4143
G01 X32.0746 Y-49.4021
G01 X32.0777 Y-49.3876
G01 X32.0792 Y-49.3729
G01 X32.0794 Y-49.3598
G01 X32.0779 Y-49.3434
G01 X32.0667 Y-49.2687
G01 X32.0628 Y-49.2527
G01 X32.0598 Y-49.2438
G01 X32.0564 Y-49.2354
G01 X32.0523 Y-49.2269
G01 X32.0479 Y-49.2190
G01 X32.0428 Y-49.2111
G01 X32.0375 Y-49.2037
G01 X31.9842 Y-49.1428
G01 X31.9722 Y-49.1310
G01 X31.9593 Y-49.1208
G01 X31.9450 Y-49.1120
G01 X31.9301 Y-49.1050
G01 X31.9162 Y-49.1001
G01 X31.8456 Y-49.0799
G01 X31.8333 Y-49.0772
G01 X31.8193 Y-49.0753
G01 X31.8061 Y-49.0748
G01 X30.5376 Y-49.0828
G01 X30.5252 Y-49.0834
G01 X30.5086 Y-49.0858
G01 X30.4587 Y-49.0964
G01 X30.4491 Y-49.0988
G01 X30.4403 Y-49.1016
G01 X30.4301 Y-49.1056
G01 X30.4221 Y-49.1094
G01 X30.4126 Y-49.1147
G01 X30.4034 Y-49.1207
G01 X30.3961 Y-49.1263
G01 X30.3342 Y-49.1784
G01 X30.3253 Y-49.1875
G01 X30.3182 Y-49.1960
G01 X30.3107 Y-49.2068
G01 X30.3050 Y-49.2163
G01 X30.3002 Y-49.2263
G01 X30.2955 Y-49.2381
G01 X30.2725 Y-49.3118
G01 X30.2702 Y-49.3205
G01 X30.2682 Y-49.3309
G01 X30.2671 Y-49.3396
G01 X30.2665 Y-49.3502
G01 X30.2150 Y-52.4748
G01 X30.2154 Y-52.4932
G01 X30.2162 Y-52.5045
G01 X30.2175 Y-52.5137
G01 X30.2199 Y-52.5247
G01 X30.2231 Y-52.5356
G01 X30.2508 Y-52.6099
G01 X30.2562 Y-52.6215
G01 X30.2627 Y-52.6329
G01 X30.2689 Y-52.6421
G01 X30.2758 Y-52.6507
G01 X30.2820 Y-52.6574
G01 X30.2900 Y-52.6651
G01 X30.2994 Y-52.6727
G01 X30.3553 Y-52.7146
G01 X30.3067 Y-52.7796
G01 X30.3199 Y-52.7888
G01 X30.3338 Y-52.7970
G01 X30.3475 Y-52.8040
G01 X30.3633 Y-52.8106
G01 X30.3796 Y-52.8161
G01 X30.3952 Y-52.8201
G01 X30.4121 Y-52.8231
G01 X30.4276 Y-52.8248
G01 X30.4998 Y-52.8300
G01 X30.5186 Y-52.8304
G01 X30.5330 Y-52.8296
G01 X30.5470 Y-52.8281
G01 X30.5613 Y-52.8255
G01 X30.5750 Y-52.8222
G01 X30.5869 Y-52.8186
G01 X30.5995 Y-52.8140
G01 X30.6109 Y-52.8091
G01 X30.6226 Y-52.8032
G01 X30.6936 Y-52.7643
G01 X30.7081 Y-52.7548
G01 X30.7234 Y-52.7430
G01 X30.7382 Y-52.7296
G01 X31.5944 Y-51.8733
G01 X31.6062 Y-51.8604
G01 X31.6219 Y-51.8418
G01 X31.6288 Y-51.8329
G01 X31.6400 Y-51.8164
G01 X31.6495 Y-51.7992
G01 X31.6559 Y-51.7853
G01 X31.6611 Y-51.7718
G01 X31.6853 Y-51.7018
G01 X31.6907 Y-51.6824
G01 X31.6944 Y-51.6629
G01 X31.6964 Y-51.6429
G01 X31.6967 Y-51.6247
G01 X31.6954 Y-51.6049
G01 X31.6934 Y-51.5906
G01 X31.6906 Y-51.5773
G01 X31.6729 Y-51.5045
G01 X31.6673 Y-51.4860
G01 X31.6631 Y-51.4749
G01 X31.6580 Y-51.4634
G01 X31.6526 Y-51.4528
G01 X31.6462 Y-51.4416
G01 X31.5630 Y-51.2294
G01 X31.5123 Y-51.0072
G01 X31.4952 Y-50.7800
G01 X31.5123 Y-50.5527
G01 X31.5630 Y-50.3306
G01 X31.6462 Y-50.1184
G01 X31.7602 Y-49.9211
G01 X31.9023 Y-49.7429
G01 X32.0525 Y-49.6034
G01 X32.0682 Y-49.5872
G01 X32.0761 Y-49.5785
G01 X32.0849 Y-49.5677
G01 X32.0932 Y-49.5561
G01 X32.1026 Y-49.5409
G01 X32.1103 Y-49.5258
G01 X32.1413 Y-49.4569
G01 X32.1484 Y-49.4384
G01 X32.1516 Y-49.4285
G01 X32.1545 Y-49.4175
G01 X32.1582 Y-49.3977
G01 X32.1603 Y-49.3769
G01 X32.1606 Y-49.3665
G01 X32.1604 Y-49.3551
G01 X32.1597 Y-49.3437
G01 X32.1584 Y-49.3324
G01 X32.1461 Y-49.2520
G01 X32.1434 Y-49.2399
G01 X32.1398 Y-49.2269
G01 X32.1358 Y-49.2152
G01 X32.1309 Y-49.2030
G01 X32.1256 Y-49.1918
G01 X32.1192 Y-49.1800
G01 X32.1117 Y-49.1680
G01 X32.1045 Y-49.1578
G01 X32.0941 Y-49.1449
G01 X32.0446 Y-49.0885
G01 X32.0367 Y-49.0802
G01 X32.0277 Y-49.0716
G01 X32.0190 Y-49.0642
G01 X32.0083 Y-49.0561
G01 X31.9980 Y-49.0491
G01 X31.9882 Y-49.0432
G01 X31.9782 Y-49.0378
G01 X31.9679 Y-49.0329
G01 X31.9548 Y-49.0275
G01 X31.9421 Y-49.0232
G01 X31.8700 Y-49.0024
G01 X31.8526 Y-48.9982
G01 X31.8348 Y-48.9953
G01 X31.8200 Y-48.9940
G01 X31.8056 Y-48.9937
G01 X30.5371 Y-49.0016
G01 X30.5185 Y-49.0025
G01 X30.5059 Y-49.0039
G01 X30.4944 Y-49.0059
G01 X30.4329 Y-49.0191
G01 X30.4211 Y-49.0224
G01 X30.4086 Y-49.0267
G01 X30.3973 Y-49.0313
G01 X30.3871 Y-49.0361
G01 X30.3772 Y-49.0413
G01 X30.3675 Y-49.0471
G01 X30.3568 Y-49.0542
G01 X30.3478 Y-49.0609
G01 X30.2868 Y-49.1119
G01 X30.2783 Y-49.1195
G01 X30.2709 Y-49.1268
G01 X30.2631 Y-49.1352
G01 X30.2558 Y-49.1440
G01 X30.2490 Y-49.1531
G01 X30.2425 Y-49.1626
G01 X30.2366 Y-49.1723
G01 X30.2312 Y-49.1824
G01 X30.2262 Y-49.1927
G01 X30.2218 Y-49.2032
G01 X30.2165 Y-49.2184
G01 X30.1956 Y-49.2856
G01 X30.1925 Y-49.2966
G01 X30.1898 Y-49.3082
G01 X30.1877 Y-49.3206
G01 X30.1864 Y-49.3315
G01 X30.1855 Y-49.3434
G01 X30.1339 Y-52.4794
G01 X30.1346 Y-52.5023
G01 X30.1362 Y-52.5187
G01 X30.1392 Y-52.5359
G01 X30.1434 Y-52.5528
G01 X30.1485 Y-52.5680
G01 X30.1748 Y-52.6383
G01 X30.1812 Y-52.6531
G01 X30.1892 Y-52.6683
G01 X30.1983 Y-52.6828
G01 X30.2084 Y-52.6966
G01 X30.2184 Y-52.7083
G01 X30.2304 Y-52.7206
G01 X30.2389 Y-52.7282
G01 X30.2478 Y-52.7354
G01 X30.3067 Y-52.7796
G01 X29.6687 Y-53.2867
G01 X29.8431 Y-53.2909
G01 X29.8602 Y-53.2901
G01 X29.8770 Y-53.2885
G01 X29.8927 Y-53.2861
G01 X29.9102 Y-53.2825
G01 X29.9320 Y-53.2765
G01 X29.9526 Y-53.2692
G01 X29.9773 Y-53.2589
G01 X29.9879 Y-53.2538
G01 X29.9996 Y-53.2475
G01 X30.0192 Y-53.2355
G01 X30.0378 Y-53.2221
G01 X30.0553 Y-53.2074
G01 X30.0717 Y-53.1914
G01 X30.0859 Y-53.1755
G01 X30.0990 Y-53.1586
G01 X30.1104 Y-53.1417
G01 X30.1216 Y-53.1222
G01 X30.1310 Y-53.1030
G01 X30.1418 Y-53.0771
G01 X30.1484 Y-53.0573
G01 X30.1540 Y-53.0356
G01 X30.1567 Y-53.0221
G01 X30.1588 Y-53.0086
G01 X30.1603 Y-52.9939
G01 X30.1612 Y-52.9802
G01 X30.1613 Y-52.9735
G01 X30.1647 Y-52.7697
G01 X30.1737 Y-52.7787
G01 X30.1829 Y-52.7871
G01 X30.2019 Y-52.8025
G01 X30.2021 Y-52.8027
G01 X30.2580 Y-52.8445
G01 X30.2582 Y-52.8447
G01 X30.2655 Y-52.8500
G01 X30.2815 Y-52.8605
G01 X30.2979 Y-52.8699
G01 X30.3122 Y-52.8771
G01 X30.3264 Y-52.8833
G01 X30.3408 Y-52.8888
G01 X30.3555 Y-52.8936
G01 X30.3714 Y-52.8979
G01 X30.3865 Y-52.9012
G01 X30.4018 Y-52.9037
G01 X30.4171 Y-52.9054
G01 X30.4950 Y-52.9110
G01 X30.5199 Y-52.9115
G01 X30.5373 Y-52.9107
G01 X30.5552 Y-52.9089
G01 X30.5719 Y-52.9062
G01 X30.5892 Y-52.9024
G01 X30.6050 Y-52.8980
G01 X30.6202 Y-52.8930
G01 X30.6364 Y-52.8866
G01 X30.6509 Y-52.8799
G01 X30.6627 Y-52.8739
G01 X30.7286 Y-52.8379
G01 X30.7417 Y-52.8300
G01 X30.7540 Y-52.8218
G01 X30.7656 Y-52.8133
G01 X30.7755 Y-52.8053
G01 X30.7855 Y-52.7965
G01 X30.7950 Y-52.7875
G01 X31.6514 Y-51.9311
G01 X31.6660 Y-51.9154
G01 X31.6896 Y-51.8871
G01 X31.7027 Y-51.8689
G01 X31.7139 Y-51.8508
G01 X31.7203 Y-51.8391
G01 X31.7255 Y-51.8285
G01 X31.7350 Y-51.8060
G01 X31.7617 Y-51.7292
G01 X31.7652 Y-51.7181
G01 X31.7688 Y-51.7051
G01 X31.7715 Y-51.6932
G01 X31.7738 Y-51.6804
G01 X31.7758 Y-51.6666
G01 X31.7771 Y-51.6534
G01 X31.7778 Y-51.6400
G01 X31.7779 Y-51.6271
G01 X31.7776 Y-51.6148
G01 X31.7766 Y-51.6009
G01 X31.7740 Y-51.5809
G01 X31.7702 Y-51.5613
G01 X31.7516 Y-51.4844
G01 X31.7447 Y-51.4613
G01 X31.7397 Y-51.4479
G01 X31.7337 Y-51.4338
G01 X31.7273 Y-51.4204
G01 X31.7196 Y-51.4062
G01 X31.6408 Y-51.2054
G01 X31.5928 Y-50.9951
G01 X31.5767 Y-50.7800
G01 X31.5928 Y-50.5649
G01 X31.6408 Y-50.3546
G01 X31.7196 Y-50.1538
G01 X31.8275 Y-49.9669
G01 X31.9620 Y-49.7983
G01 X32.1090 Y-49.6617
G01 X32.1348 Y-49.6348
G01 X32.1436 Y-49.6245
G01 X32.1529 Y-49.6124
G01 X32.1613 Y-49.6003
G01 X32.1687 Y-49.5887
G01 X32.1753 Y-49.5771
G01 X32.1816 Y-49.5649
G01 X32.2164 Y-49.4877
G01 X32.2216 Y-49.4750
G01 X32.2262 Y-49.4618
G01 X32.2300 Y-49.4494
G01 X32.2335 Y-49.4359
G01 X32.2363 Y-49.4230
G01 X32.2386 Y-49.4092
G01 X32.2402 Y-49.3964
G01 X32.2413 Y-49.3825
G01 X32.2418 Y-49.3692
G01 X32.2417 Y-49.3553
G01 X32.2408 Y-49.3398
G01 X32.2392 Y-49.3245
G01 X32.2279 Y-49.2485
G01 X32.2242 Y-49.2289
G01 X32.2191 Y-49.2086
G01 X32.2118 Y-49.1866
G01 X32.2028 Y-49.1652
G01 X32.1915 Y-49.1430
G01 X32.1794 Y-49.1232
G01 X32.1694 Y-49.1090
G01 X32.1582 Y-49.0949
G01 X32.1079 Y-49.0375
G01 X32.0987 Y-49.0275
G01 X33.9179 Y-49.0161
G01 X33.9025 Y-49.0327
G01 X33.8880 Y-49.0507
G01 X33.8421 Y-49.1167
G01 X33.8333 Y-49.1303
G01 X33.8228 Y-49.1487
G01 X33.8134 Y-49.1682
G01 X33.8056 Y-49.1877
G01 X33.7991 Y-49.2078
G01 X33.7956 Y-49.2208
G01 X33.7925 Y-49.2355
G01 X33.7901 Y-49.2497
G01 X33.7884 Y-49.2646
G01 X33.7872 Y-49.2820
G01 X33.7847 Y-49.3580
G01 X33.7850 Y-49.3790
G01 X33.7870 Y-49.4016
G01 X33.7904 Y-49.4230
G01 X33.7952 Y-49.4436
G01 X33.8001 Y-49.4604
G01 X33.8059 Y-49.4764
G01 X33.8127 Y-49.4926
G01 X33.8202 Y-49.5078
G01 X33.8280 Y-49.5218
G01 X33.8656 Y-49.5850
G01 X33.8734 Y-49.5972
G01 X33.8814 Y-49.6085
G01 X33.8890 Y-49.6184
G01 X33.8976 Y-49.6286
G01 X33.9062 Y-49.6380
G01 X33.9156 Y-49.6475
G01 X34.0780 Y-49.7983
G01 X34.2125 Y-49.9669
G01 X34.3204 Y-50.1538
G01 X34.3992 Y-50.3546
G01 X34.4472 Y-50.5649
G01 X34.4633 Y-50.7800
G01 X34.4472 Y-50.9951
G01 X34.3992 Y-51.2054
G01 X34.3204 Y-51.4062
G01 X34.2647 Y-51.5029
G01 X34.2566 Y-51.5186
G01 X34.2491 Y-51.5354
G01 X34.2434 Y-51.5506
G01 X34.2379 Y-51.5679
G01 X34.2194 Y-51.6366
G01 X34.2154 Y-51.6540
G01 X34.2129 Y-51.6681
G01 X34.2112 Y-51.6812
G01 X34.2099 Y-51.6955
G01 X34.2094 Y-51.7103
G01 X34.2093 Y-52.1453
G01 X34.2099 Y-52.1629
G01 X34.2124 Y-52.1951
G01 X34.2096 Y-52.2626
G01 X34.2093 Y-52.2937
G01 X34.2070 Y-52.3246
G01 X34.2042 Y-52.3921
G01 X34.1991 Y-52.4240
G01 X34.1971 Y-52.4408
G01 X34.1785 Y-52.5150
G01 X34.1638 Y-52.5851
G01 X34.1535 Y-52.6156
G01 X34.1488 Y-52.6319
G01 X34.1182 Y-52.7020
G01 X34.0921 Y-52.7687
G01 X34.0839 Y-52.7835
G01 X34.0696 Y-52.8124
G01 X34.0305 Y-52.8723
G01 X33.9912 Y-52.9380
G01 X33.9715 Y-52.9636
G01 X33.9618 Y-52.9774
G01 X33.9152 Y-53.0281
G01 X33.8958 Y-53.0507
G01 X33.8740 Y-53.0728
G01 X33.8282 Y-53.1225
G01 X33.8185 Y-53.1305
G01 X33.8035 Y-53.1437
G01 X33.7901 Y-53.1563
G01 X33.2647 Y-53.6817
G01 X33.2503 Y-53.6972
G01 X33.2359 Y-53.7150
G01 X33.2030 Y-53.7616
G01 X33.1955 Y-53.7734
G01 X33.1882 Y-53.7859
G01 X33.1804 Y-53.8010
G01 X33.1733 Y-53.8169
G01 X33.1669 Y-53.8338
G01 X33.1619 Y-53.8494
G01 X33.1576 Y-53.8663
G01 X33.1543 Y-53.8824
G01 X33.1425 Y-53.9572
G01 X33.1405 Y-53.9727
G01 X33.1391 Y-53.9902
G01 X33.1388 Y-54.0078
G01 X33.1394 Y-54.0247
G01 X33.1412 Y-54.0436
G01 X33.1439 Y-54.0611
G01 X33.1474 Y-54.0777
G01 X33.1521 Y-54.0950
G01 X33.1575 Y-54.1111
G01 X33.1644 Y-54.1284
G01 X33.1933 Y-54.1942
G01 X33.2030 Y-54.2142
G01 X33.2105 Y-54.2277
G01 X33.2199 Y-54.2424
G01 X33.2291 Y-54.2555
G01 X33.2384 Y-54.2672
G01 X33.2489 Y-54.2792
G01 X33.2596 Y-54.2904
G01 X33.2709 Y-54.3009
G01 X33.2826 Y-54.3109
G01 X33.3024 Y-54.3257
G01 X33.3670 Y-54.3685
G01 X33.3844 Y-54.3789
G01 X33.4020 Y-54.3881
G01 X33.4195 Y-54.3958
G01 X33.4385 Y-54.4028
G01 X33.5473 Y-54.4364
G01 X33.7417 Y-54.5300
G01 X33.9199 Y-54.6516
G01 X34.0780 Y-54.7983
G01 X34.2125 Y-54.9669
G01 X34.3204 Y-55.1538
G01 X34.3992 Y-55.3546
G01 X34.4081 Y-55.3936
G01 X34.4118 Y-55.4077
G01 X34.4178 Y-55.4264
G01 X34.4243 Y-55.4432
G01 X34.4302 Y-55.4562
G01 X34.4363 Y-55.4684
G01 X34.4742 Y-55.5369
G01 X34.4868 Y-55.5571
G01 X34.4999 Y-55.5749
G01 X34.5115 Y-55.5888
G01 X34.5240 Y-55.6020
G01 X35.2796 Y-56.3577
G01 X35.2932 Y-56.3705
G01 X35.3085 Y-56.3839
G01 X35.3182 Y-56.3919
G01 X35.3640 Y-56.4417
G01 X35.3858 Y-56.4638
G01 X35.4036 Y-56.4846
G01 X35.4193 Y-56.5017
G01 X35.4413 Y-56.5232
G01 X35.4550 Y-56.5354
G01 X35.4683 Y-56.5460
G01 X35.4829 Y-56.5563
G01 X35.4972 Y-56.5653
G01 X35.5122 Y-56.5736
G01 X35.5279 Y-56.5812
G01 X35.5934 Y-56.6103
G01 X35.6156 Y-56.6191
G01 X35.6313 Y-56.6242
G01 X35.6462 Y-56.6282
G01 X35.6613 Y-56.6314
G01 X35.6771 Y-56.6340
G01 X35.6941 Y-56.6358
G01 X35.7095 Y-56.6367
G01 X35.7255 Y-56.6367
G01 X35.7409 Y-56.6360
G01 X35.7657 Y-56.6333
G01 X35.8365 Y-56.6224
G01 X35.8537 Y-56.6192
G01 X35.8703 Y-56.6151
G01 X35.8866 Y-56.6102
G01 X35.9016 Y-56.6048
G01 X35.9177 Y-56.5979
G01 X35.9329 Y-56.5905
G01 X35.9483 Y-56.5818
G01 X35.9617 Y-56.5733
G01 X35.9756 Y-56.5634
G01 X35.9935 Y-56.5488
G01 X36.0472 Y-56.5013
G01 X36.0567 Y-56.4925
G01 X36.0889 Y-59.7045
G01 X36.0905 Y-59.7281
G01 X36.0939 Y-59.7514
G01 X36.0990 Y-59.7744
G01 X36.1058 Y-59.7969
G01 X36.1137 Y-59.8174
G01 X36.1207 Y-59.8334
G01 X36.1265 Y-59.8453
G01 X36.1387 Y-59.8670
G01 X36.1523 Y-59.8871
G01 X36.1334 Y-59.8876
G01 X36.1145 Y-59.8894
G01 X36.0281 Y-59.9019
G01 X36.0113 Y-59.9054
G01 X35.9949 Y-59.9097
G01 X35.9778 Y-59.9153
G01 X35.9630 Y-59.9211
G01 X35.9460 Y-59.9288
G01 X35.9305 Y-59.9369
G01 X35.9151 Y-59.9462
G01 X35.8997 Y-59.9567
G01 X35.8809 Y-59.9715
G01 X35.8172 Y-60.0271
G01 X35.8058 Y-60.0383
G01 X35.7944 Y-60.0509
G01 X35.7834 Y-60.0644
G01 X35.7740 Y-60.0773
G01 X35.7650 Y-60.0911
G01 X35.7570 Y-60.1049
G01 X35.7492 Y-60.1202
G01 X35.7427 Y-60.1348
G01 X35.7373 Y-60.1487
G01 X35.7330 Y-60.1618
G01 X35.7117 Y-60.2340
G01 X35.7083 Y-60.2467
G01 X35.7048 Y-60.2631
G01 X35.7021 Y-60.2791
G01 X35.7003 Y-60.2959
G01 X35.6994 Y-60.3121
G01 X35.6995 Y-64.0779
G01 X35.7006 Y-64.0996
G01 X35.7026 Y-64.1189
G01 X35.7061 Y-64.1386
G01 X35.7107 Y-64.1580
G01 X35.7147 Y-64.1713
G01 X35.7192 Y-64.1842
G01 X35.7446 Y-64.2524
G01 X35.7530 Y-64.2722
G01 X35.7608 Y-64.2878
G01 X35.7701 Y-64.3040
G01 X35.7799 Y-64.3190
G01 X35.7903 Y-64.3331
G01 X35.8022 Y-64.3474
G01 X35.8149 Y-64.3608
G01 X35.8284 Y-64.3736
G01 X35.8418 Y-64.3849
G01 X35.9101 Y-64.4361
G01 X35.9250 Y-64.4461
G01 X35.9396 Y-64.4548
G01 X35.9603 Y-64.4653
G01 X35.9816 Y-64.4742
G01 X36.0036 Y-64.4816
G01 X36.0261 Y-64.4873
G01 X36.0469 Y-64.4910
G01 X36.0670 Y-64.4932
G01 X36.1449 Y-64.4987
G01 X36.1593 Y-64.4991
G01 X36.1743 Y-64.4989
G01 X36.1865 Y-64.4981
G01 X36.1994 Y-64.4968
G01 X36.2132 Y-64.4947
G01 X36.2262 Y-64.4922
G01 X36.2393 Y-64.4891
G01 X36.2517 Y-64.4856
G01 X36.2649 Y-64.4812
G01 X36.2764 Y-64.4769
G01 X36.2906 Y-64.4708
G01 X36.3045 Y-64.4640
G01 X36.3753 Y-64.4254
G01 X36.3954 Y-64.4130
G01 X36.4153 Y-64.3985
G01 X36.4281 Y-64.3877
G01 X36.4403 Y-64.3764
G01 X36.5691 Y-64.2476
G01 X36.8149 Y-64.0533
G01 X37.0815 Y-63.8889
G01 X37.3654 Y-63.7565
G01 X37.6628 Y-63.6579
G01 X37.9696 Y-63.5946
G01 X38.2816 Y-63.5673
G01 X38.5948 Y-63.5764
G01 X38.9047 Y-63.6218
G01 X38.9889 Y-63.6443
G01 X39.0069 Y-63.6484
G01 X39.0198 Y-63.6507
G01 X39.0330 Y-63.6525
G01 X39.0840 Y-63.6572
G01 X39.0992 Y-63.6580
G01 X39.1142 Y-63.6582
G01 X39.1292 Y-63.6576
G01 X39.1446 Y-63.6563
G01 X39.1594 Y-63.6542
G01 X39.1758 Y-63.6511
G01 X39.1908 Y-63.6475
G01 X39.2052 Y-63.6432
G01 X39.2209 Y-63.6377
G01 X39.2968 Y-63.6083
G01 X39.3178 Y-63.5984
G01 X39.3394 Y-63.5861
G01 X39.3523 Y-63.5776
G01 X39.3634 Y-63.5695
G01 X39.3751 Y-63.5602
G01 X39.3867 Y-63.5500
G01 X39.3970 Y-63.5399
G01 X39.4073 Y-63.5290
G01 X39.4172 Y-63.5172
G01 X39.4256 Y-63.5063
G01 X39.4691 Y-63.4469
G01 X39.4816 Y-63.4280
G01 X39.4896 Y-63.4142
G01 X39.4974 Y-63.3989
G01 X39.5039 Y-63.3843
G01 X39.5099 Y-63.3685
G01 X39.5146 Y-63.3538
G01 X39.5191 Y-63.3369
G01 X39.5224 Y-63.3213
G01 X39.5249 Y-63.3050
G01 X39.5268 Y-63.2852
G01 X39.5311 Y-63.2139
G01 X39.5316 Y-63.2009
G01 X44.6991 Y-68.2592
G01 X44.7140 Y-68.2729
G01 X44.7297 Y-68.2855
G01 X44.7463 Y-68.2972
G01 X44.7630 Y-68.3074
G01 X44.7767 Y-68.3147
G01 X44.7912 Y-68.3216
G01 X44.8114 Y-68.3300
G01 X44.8279 Y-68.3359
G01 X44.8445 Y-68.3408
G01 X44.8601 Y-68.3446
G01 X44.8763 Y-68.3476
G01 X44.8923 Y-68.3496
G01 X44.9163 Y-68.3512
G01 X45.2864 Y-68.3607
G01 X49.5085 Y-68.3607
G01 X49.5290 Y-68.3600
G01 X49.5614 Y-68.3573
G01 X49.6771 Y-68.3606
G01 X49.7183 Y-68.3607
G01 X49.7596 Y-68.3630
G01 X49.8746 Y-68.3664
G01 X49.9141 Y-68.3718
G01 X49.9525 Y-68.3743
G01 X50.0684 Y-68.3947
G01 X50.1846 Y-68.4118
G01 X50.2222 Y-68.4215
G01 X50.2610 Y-68.4287
G01 X50.3735 Y-68.4623
G01 X50.4590 Y-68.4852
G01 X50.4805 Y-68.4900
G01 X50.5045 Y-68.4935
G01 X50.5182 Y-68.4948
G01 X50.5312 Y-68.4954
G01 X51.0274 Y-68.5081
G01 X54.7795 Y-71.8772
G01 X54.7644 Y-71.8772
G01 X54.7490 Y-71.8780
G01 X54.7336 Y-71.8795
G01 X54.7188 Y-71.8817
G01 X54.7037 Y-71.8847
G01 X54.6903 Y-71.8880
G01 X54.6755 Y-71.8924
G01 X54.6609 Y-71.8976
G01 X54.5831 Y-71.9306
G01 X54.5720 Y-71.9357
G01 X54.5601 Y-71.9419
G01 X54.5449 Y-71.9506
G01 X54.5290 Y-71.9610
G01 X54.5145 Y-71.9718
G01 X54.5000 Y-71.9841
G01 X54.4884 Y-71.9950
G01 X54.4777 Y-72.0062
G01 X54.4669 Y-72.0186
G01 X54.4574 Y-72.0308
G01 X54.4082 Y-72.1032
G01 X54.4000 Y-72.1163
G01 X54.3933 Y-72.1283
G01 X54.3858 Y-72.1437
G01 X54.3795 Y-72.1584
G01 X54.3738 Y-72.1738
G01 X54.3690 Y-72.1891
G01 X54.3648 Y-72.2060
G01 X54.3617 Y-72.2217
G01 X54.3594 Y-72.2379
G01 X54.3580 Y-72.2538
G01 X54.3574 Y-72.2663
G01 X54.3557 Y-72.3485
G01 X54.3570 Y-72.3721
G01 X54.3601 Y-72.3961
G01 X54.3648 Y-72.4183
G01 X54.3769 Y-72.4638
G01 X54.4113 Y-72.5788
G01 X54.4174 Y-72.6120
G01 X54.4216 Y-72.6304
G01 X54.4282 Y-72.6553
G01 X54.4456 Y-72.7733
G01 X54.4657 Y-72.8873
G01 X54.4672 Y-72.9129
G01 X54.4690 Y-72.9317
G01 X54.4736 Y-72.9652
G01 X54.4769 Y-73.0791
G01 X54.4793 Y-73.1218
G01 X54.4794 Y-73.1654
G01 X54.4827 Y-73.2783
G01 X54.4803 Y-73.3075
G01 X54.4793 Y-73.3364
G01 X54.4793 Y-76.5983
G01 X54.4657 Y-76.8327
G01 X54.4113 Y-77.1412
G01 X54.3214 Y-77.4414
G01 X54.1973 Y-77.7290
G01 X54.0407 Y-78.0003
G01 X53.8536 Y-78.2516
G01 X53.6386 Y-78.4794
G01 X53.3987 Y-78.6808
G01 X53.1369 Y-78.8530
G01 X52.8570 Y-78.9936
G01 X52.5626 Y-79.1007
G01 X52.2578 Y-79.1729
G01 X51.9466 Y-79.2093
G01 X51.6334 Y-79.2093
G01 X51.3222 Y-79.1729
G01 X51.0174 Y-79.1007
G01 X50.7230 Y-78.9936
G01 X50.4431 Y-78.8530
G01 X50.1813 Y-78.6808
G01 X49.9414 Y-78.4794
G01 X49.7264 Y-78.2516
G01 X49.5393 Y-78.0003
G01 X49.5287 Y-77.9833
G01 X49.5164 Y-77.9662
G01 X49.4852 Y-77.9279
G01 X49.4751 Y-77.9162
G01 X49.4607 Y-77.9014
G01 X49.4446 Y-77.8869
G01 X49.4321 Y-77.8770
G01 X49.4196 Y-77.8680
G01 X49.4057 Y-77.8591
G01 X49.3918 Y-77.8512
G01 X49.3781 Y-77.8443
G01 X49.3130 Y-77.8137
G01 X49.3011 Y-77.8085
G01 X49.2897 Y-77.8040
G01 X49.2751 Y-77.7990
G01 X49.2603 Y-77.7947
G01 X49.2452 Y-77.7912
G01 X49.2300 Y-77.7884
G01 X49.2147 Y-77.7864
G01 X49.1993 Y-77.7851
G01 X49.1838 Y-77.7846
G01 X49.1684 Y-77.7849
G01 X49.1550 Y-77.7858
G01 X49.1426 Y-77.7871
G01 X49.0704 Y-77.7967
G01 X49.0551 Y-77.7992
G01 X49.0395 Y-77.8025
G01 X49.0236 Y-77.8068
G01 X49.0089 Y-77.8116
G01 X48.9940 Y-77.8173
G01 X48.9779 Y-77.8244
G01 X48.9628 Y-77.8322
G01 X48.9473 Y-77.8413
G01 X48.9331 Y-77.8507
G01 X48.9147 Y-77.8647
G01 X48.8563 Y-77.9142
G01 X48.8431 Y-77.9262
G01 X48.8301 Y-77.9395
G01 X48.8181 Y-77.9534
G01 X48.8070 Y-77.9678
G01 X48.7992 Y-77.9790
G01 X48.7008 Y-78.1287
G01 X48.4994 Y-78.3686
G01 X48.2716 Y-78.5836
G01 X48.0203 Y-78.7707
G01 X47.7490 Y-78.9273
G01 X47.4614 Y-79.0514
G01 X47.1612 Y-79.1413
G01 X46.8527 Y-79.1957
G01 X46.6183 Y-79.2093
G01 X37.2064 Y-79.2093
G01 X37.1775 Y-79.2103
G01 X37.1483 Y-79.2127
G01 X37.0354 Y-79.2094
G01 X36.9918 Y-79.2093
G01 X36.9482 Y-79.2069
G01 X36.8352 Y-79.2036
G01 X36.8017 Y-79.1990
G01 X36.7829 Y-79.1972
G01 X36.7573 Y-79.1957
G01 X36.6398 Y-79.1750
G01 X36.5253 Y-79.1582
G01 X36.4925 Y-79.1497
G01 X36.4740 Y-79.1458
G01 X36.4487 Y-79.1413
G01 X36.3378 Y-79.1081
G01 X36.2227 Y-79.0771
G01 X36.1988 Y-79.0677
G01 X36.1810 Y-79.0614
G01 X36.1486 Y-79.0514
G01 X36.0423 Y-79.0056
G01 X35.9315 Y-78.9615
G01 X35.9016 Y-78.9457
G01 X35.8846 Y-78.9375
G01 X35.8610 Y-78.9273
G01 X35.7607 Y-78.8695
G01 X35.6558 Y-78.8128
G01 X35.6279 Y-78.7937
G01 X35.6119 Y-78.7836
G01 X35.5897 Y-78.7707
G01 X35.4968 Y-78.7016
G01 X35.3992 Y-78.6331
G01 X35.3737 Y-78.6109
G01 X35.3590 Y-78.5990
G01 X35.3384 Y-78.5836
G01 X35.2555 Y-78.5054
G01 X35.2237 Y-78.4770
G01 X35.1927 Y-78.4462
G01 X35.1106 Y-78.3686
G01 X35.0940 Y-78.3490
G01 X35.0808 Y-78.3345
G01 X35.0530 Y-78.3063
G01 X34.8969 Y-78.1308
G01 X34.7339 Y-77.8984
G01 X34.7193 Y-77.8806
G01 X34.6914 Y-77.8501
G01 X34.6788 Y-77.8373
G01 X34.6664 Y-77.8260
G01 X34.6525 Y-77.8148
G01 X34.6389 Y-77.8050
G01 X34.6242 Y-77.7956
G01 X34.6092 Y-77.7871
G01 X34.5883 Y-77.7770
G01 X34.5226 Y-77.7484
G01 X34.5078 Y-77.7425
G01 X34.4932 Y-77.7375
G01 X34.4788 Y-77.7333
G01 X34.4657 Y-77.7302
G01 X34.4506 Y-77.7273
G01 X34.4358 Y-77.7252
G01 X34.4204 Y-77.7238
G01 X34.4059 Y-77.7231
G01 X34.3905 Y-77.7232
G01 X34.3735 Y-77.7242
G01 X34.3562 Y-77.7261
G01 X34.2798 Y-77.7385
G01 X34.2588 Y-77.7427
G01 X34.2365 Y-77.7488
G01 X34.2224 Y-77.7537
G01 X34.2089 Y-77.7590
G01 X34.1949 Y-77.7654
G01 X34.1816 Y-77.7723
G01 X34.1682 Y-77.7800
G01 X34.1566 Y-77.7875
G01 X34.1444 Y-77.7961
G01 X34.1330 Y-77.8050
G01 X34.1226 Y-77.8139
G01 X34.0640 Y-77.8668
G01 X34.0501 Y-77.8810
G01 X34.0365 Y-77.8967
G01 X34.0266 Y-77.9096
G01 X34.0169 Y-77.9238
G01 X33.9667 Y-78.0051
G01 X33.7724 Y-78.2509
G01 X33.5509 Y-78.4724
G01 X33.3051 Y-78.6667
G01 X33.0385 Y-78.8311
G01 X32.7546 Y-78.9635
G01 X32.4572 Y-79.0621
G01 X32.1504 Y-79.1254
G01 X31.8383 Y-79.1527
G01 X31.5252 Y-79.1436
G01 X31.2153 Y-79.0982
G01 X30.9127 Y-79.0171
G01 X30.6215 Y-78.9015
G01 X30.3458 Y-78.7528
G01 X30.0892 Y-78.5731
G01 X29.9137 Y-78.4170
G01 X28.9347 Y-77.4379
G01 X28.9137 Y-77.4183
G01 X28.8914 Y-77.3994
G01 X28.8138 Y-77.3173
G01 X28.7830 Y-77.2863
G01 X28.7546 Y-77.2545
G01 X28.6764 Y-77.1716
G01 X28.6560 Y-77.1446
G01 X28.6439 Y-77.1300
G01 X28.6269 Y-77.1108
G01 X28.5584 Y-77.0132
G01 X28.4893 Y-76.9203
G01 X28.4764 Y-76.8981
G01 X28.4663 Y-76.8821
G01 X28.4472 Y-76.8542
G01 X28.3923 Y-76.7524
G01 X28.3327 Y-76.6490
G01 X28.3225 Y-76.6254
G01 X28.3143 Y-76.6084
G01 X28.2985 Y-76.5785
G01 X28.2558 Y-76.4709
G01 X28.2086 Y-76.3614
G01 X28.1986 Y-76.3291
G01 X28.1923 Y-76.3112
G01 X28.1829 Y-76.2873
G01 X28.1519 Y-76.1721
G01 X28.1187 Y-76.0612
G01 X28.1142 Y-76.0360
G01 X28.1102 Y-76.0175
G01 X28.1018 Y-75.9847
G01 X28.0850 Y-75.8702
G01 X28.0643 Y-75.7527
G01 X28.0628 Y-75.7271
G01 X28.0610 Y-75.7083
G01 X28.0564 Y-75.6748
G01 X28.0531 Y-75.5618
G01 X28.0507 Y-75.5183
G01 X28.0506 Y-75.4746
G01 X28.0473 Y-75.3617
G01 X28.0497 Y-75.3325
G01 X28.0507 Y-75.3036
G01 X28.0507 Y-66.1817
G01 X28.0643 Y-65.9473
G01 X28.1187 Y-65.6388
G01 X28.2086 Y-65.3386
G01 X28.3327 Y-65.0510
G01 X28.4893 Y-64.7797
G01 X28.6764 Y-64.5284
G01 X28.8914 Y-64.3006
G01 X29.1313 Y-64.0992
G01 X29.1504 Y-64.0859
G01 X29.1680 Y-64.0717
G01 X29.1829 Y-64.0579
G01 X29.2231 Y-64.0172
G01 X29.2347 Y-64.0046
G01 X29.2448 Y-63.9924
G01 X29.2583 Y-63.9737
G01 X29.2702 Y-63.9545
G01 X29.2809 Y-63.9340
G01 X29.2894 Y-63.9144
G01 X29.2975 Y-63.8910
G01 X29.3188 Y-63.8185
G01 X29.3233 Y-63.8010
G01 X29.3268 Y-63.7826
G01 X29.3297 Y-63.7580
G01 X29.3307 Y-63.7334
G01 X29.3307 Y-54.8453
G01 X29.3301 Y-54.8267
G01 X29.3288 Y-54.8064
G01 X29.3276 Y-54.7938
G01 X29.3304 Y-54.7263
G01 X29.3307 Y-54.6953
G01 X29.3330 Y-54.6643
G01 X29.3358 Y-54.5968
G01 X29.3387 Y-54.5801
G01 X29.3429 Y-54.5481
G01 X29.3604 Y-54.4788
G01 X29.3762 Y-54.4039
G01 X29.3865 Y-54.3733
G01 X29.3912 Y-54.3570
G01 X29.4199 Y-54.2916
G01 X29.4479 Y-54.2203
G01 X29.4561 Y-54.2054
G01 X29.4704 Y-54.1765
G01 X29.5121 Y-54.1124
G01 X29.5488 Y-54.0510
G01 X29.5593 Y-54.0377
G01 X29.5782 Y-54.0115
G01 X29.6249 Y-53.9608
G01 X29.6442 Y-53.9383
G01 X29.6646 Y-53.9176
G01 X29.6923 Y-53.8875
G01 X29.7066 Y-53.8702
G01 X29.7195 Y-53.8519
G01 X29.7281 Y-53.8380
G01 X29.7363 Y-53.8232
G01 X29.7727 Y-53.7486
G01 X29.7782 Y-53.7358
G01 X29.7835 Y-53.7218
G01 X29.7878 Y-53.7087
G01 X29.7916 Y-53.6953
G01 X29.7966 Y-53.6716
G01 X29.7998 Y-53.6487
G01 X29.8012 Y-53.6255
G01 X29.8008 Y-53.6023
G01 X29.7992 Y-53.5828
G01 X29.7897 Y-53.5032
G01 X29.7854 Y-53.4804
G01 X29.7797 Y-53.4585
G01 X29.7728 Y-53.4385
G01 X29.7644 Y-53.4185
G01 X29.7550 Y-53.3997
G01 X29.7496 Y-53.3902
G01 X29.7464 Y-53.3849
G01 X29.7453 Y-53.3832
G01 X29.7442 Y-53.3815
G01 X29.7434 Y-53.3802
G01 X29.7347 Y-53.3675
G01 X29.7251 Y-53.3547
G01 X29.6776 Y-53.2970
G01 X29.6687 Y-53.2867
G01 X30.0309 Y-53.7416
G01 X30.0366 Y-53.7134
G01 X30.0408 Y-53.6849
G01 X30.0436 Y-53.6553
G01 X30.0447 Y-53.6265
G01 X30.0445 Y-53.6002
G01 X30.0431 Y-53.5747
G01 X30.0412 Y-53.5555
G01 X30.0345 Y-53.4986
G01 X30.0658 Y-53.4861
G01 X30.0932 Y-53.4734
G01 X30.1214 Y-53.4584
G01 X30.1485 Y-53.4419
G01 X30.1741 Y-53.4242
G01 X30.1989 Y-53.4050
G01 X30.2233 Y-53.3838
G01 X30.2454 Y-53.3622
G01 X30.2666 Y-53.3390
G01 X30.2861 Y-53.3150
G01 X30.3051 Y-53.2889
G01 X30.3220 Y-53.2625
G01 X30.3370 Y-53.2360
G01 X30.3507 Y-53.2082
G01 X30.3650 Y-53.1749
G01 X30.3758 Y-53.1459
G01 X30.4010 Y-53.1484
G01 X30.4788 Y-53.1540
G01 X30.4996 Y-53.1549
G01 X30.5205 Y-53.1551
G01 X30.5480 Y-53.1541
G01 X30.5754 Y-53.1517
G01 X30.6027 Y-53.1480
G01 X30.6295 Y-53.1430
G01 X30.0309 Y-53.7416
G00 Z1.0000
G00 X32.2286 Y-54.6426
G01 F25.00
G01 Z-0.1001
G01 F45.00
G01 X32.8161 Y-54.0552
G01 X32.8180 Y-54.0757
G01 X32.8206 Y-54.0959
G01 X32.8237 Y-54.1153
G01 X32.8275 Y-54.1350
G01 X32.8318 Y-54.1541
G01 X32.8369 Y-54.1737
G01 X32.8425 Y-54.1929
G01 X32.8487 Y-54.2119
G01 X32.8556 Y-54.2309
G01 X32.8639 Y-54.2516
G01 X32.9001 Y-54.3339
G01 X32.9075 Y-54.3495
G01 X32.9159 Y-54.3659
G01 X32.9249 Y-54.3824
G01 X32.9338 Y-54.3976
G01 X32.8979 Y-54.3996
G01 X32.8677 Y-54.4026
G01 X32.7794 Y-54.4155
G01 X32.7556 Y-54.4196
G01 X32.7243 Y-54.4263
G01 X32.6429 Y-54.4467
G01 X32.6188 Y-54.4534
G01 X32.5930 Y-54.4618
G01 X32.5147 Y-54.4898
G01 X32.4881 Y-54.5002
G01 X32.4635 Y-54.5111
G01 X32.3837 Y-54.5490
G01 X32.3653 Y-54.5585
G01 X32.3484 Y-54.5679
G01 X32.2749 Y-54.6119
G01 X32.2517 Y-54.6266
G01 X32.2286 Y-54.6426
G01 X32.6163 Y-54.3697
G01 X32.7659 Y-54.2201
G01 X32.7746 Y-54.2459
G01 X32.7837 Y-54.2700
G01 X32.7916 Y-54.2891
G01 X32.8092 Y-54.3290
G01 X32.7572 Y-54.3368
G01 X32.7262 Y-54.3427
G01 X32.7017 Y-54.3483
G01 X32.6163 Y-54.3697
G01 X32.9141 Y-53.8424
G01 X32.9017 Y-53.9206
G01 X32.8987 Y-53.9435
G01 X32.8970 Y-53.9610
G01 X32.8959 Y-53.9778
G01 X32.8953 Y-53.9952
G01 X32.8953 Y-54.0120
G01 X32.8959 Y-54.0311
G01 X32.8971 Y-54.0503
G01 X32.8989 Y-54.0685
G01 X32.9015 Y-54.0879
G01 X32.9048 Y-54.1074
G01 X32.9086 Y-54.1261
G01 X32.9132 Y-54.1449
G01 X32.9182 Y-54.1628
G01 X32.9234 Y-54.1793
G01 X32.9289 Y-54.1952
G01 X32.9352 Y-54.2115
G01 X32.9419 Y-54.2275
G01 X32.9769 Y-54.3065
G01 X32.9878 Y-54.3282
G01 X33.0000 Y-54.3500
G01 X33.0108 Y-54.3676
G01 X33.0221 Y-54.3847
G01 X33.0343 Y-54.4016
G01 X33.0470 Y-54.4179
G01 X33.0603 Y-54.4337
G01 X33.0742 Y-54.4490
G01 X33.0887 Y-54.4639
G01 X33.1044 Y-54.4787
G01 X33.0396 Y-54.4756
G01 X33.0117 Y-54.4753
G01 X32.9944 Y-54.4759
G01 X32.9172 Y-54.4797
G01 X32.8880 Y-54.4820
G01 X32.8673 Y-54.4846
G01 X32.7923 Y-54.4957
G01 X32.7684 Y-54.4998
G01 X32.7426 Y-54.5054
G01 X32.6633 Y-54.5253
G01 X32.6391 Y-54.5321
G01 X32.6161 Y-54.5397
G01 X32.5378 Y-54.5679
G01 X32.5217 Y-54.5742
G01 X32.5039 Y-54.5819
G01 X32.4274 Y-54.6180
G01 X32.4059 Y-54.6288
G01 X32.3834 Y-54.6415
G01 X32.3106 Y-54.6852
G01 X32.2960 Y-54.6946
G01 X32.2801 Y-54.7056
G01 X32.2131 Y-54.7552
G01 X32.1941 Y-54.7700
G01 X32.1750 Y-54.7862
G01 X32.1144 Y-54.8412
G01 X32.0954 Y-54.8595
G01 X32.0787 Y-54.8770
G01 X32.0278 Y-54.9332
G01 X32.0141 Y-54.9490
G01 X31.9970 Y-54.9707
G01 X31.9475 Y-55.0374
G01 X31.9338 Y-55.0572
G01 X31.9210 Y-55.0775
G01 X31.8805 Y-55.1450
G01 X31.8672 Y-55.1689
G01 X31.8581 Y-55.1872
G01 X31.8255 Y-55.2560
G01 X31.8150 Y-55.2797
G01 X31.8050 Y-55.3054
G01 X31.7793 Y-55.3774
G01 X31.7728 Y-55.3967
G01 X31.7653 Y-55.4232
G01 X31.7462 Y-55.4991
G01 X31.7409 Y-55.5227
G01 X31.7366 Y-55.5466
G01 X31.7243 Y-55.6292
G01 X31.7212 Y-55.6563
G01 X31.7197 Y-55.6770
G01 X31.7159 Y-55.7528
G01 X31.7153 Y-55.7770
G01 X31.7158 Y-55.8034
G01 X31.7198 Y-55.8851
G01 X31.7218 Y-55.9101
G01 X31.7248 Y-55.9342
G01 X31.7371 Y-56.0165
G01 X31.7401 Y-56.0335
G01 X31.7442 Y-56.0524
G01 X31.7648 Y-56.1348
G01 X31.7717 Y-56.1597
G01 X31.7792 Y-56.1825
G01 X31.8079 Y-56.2624
G01 X31.8150 Y-56.2802
G01 X31.8219 Y-56.2961
G01 X31.8575 Y-56.3715
G01 X31.8685 Y-56.3935
G01 X31.8806 Y-56.4151
G01 X31.9227 Y-56.4854
G01 X31.9374 Y-56.5082
G01 X31.9495 Y-56.5253
G01 X31.9947 Y-56.5862
G01 X32.0095 Y-56.6054
G01 X32.0281 Y-56.6271
G01 X32.0796 Y-56.6840
G01 X32.0919 Y-56.6970
G01 X32.1127 Y-56.7173
G01 X32.1614 Y-56.7615
G01 X32.1448 Y-56.7617
G01 X32.1277 Y-56.7625
G01 X32.1113 Y-56.7638
G01 X32.0939 Y-56.7657
G01 X32.0064 Y-56.7782
G01 X31.9892 Y-56.7812
G01 X31.9710 Y-56.7850
G01 X31.9542 Y-56.7890
G01 X31.9361 Y-56.7940
G01 X31.9186 Y-56.7995
G01 X31.9018 Y-56.8054
G01 X31.8843 Y-56.8122
G01 X31.8674 Y-56.8193
G01 X31.8514 Y-56.8268
G01 X31.8353 Y-56.8349
G01 X31.8159 Y-56.8455
G01 X31.7970 Y-56.8569
G01 X31.7779 Y-56.8696
G01 X31.7600 Y-56.8825
G01 X31.7468 Y-56.8927
G01 X31.7338 Y-56.9034
G01 X31.6687 Y-56.9599
G01 X31.6553 Y-56.9724
G01 X31.6427 Y-56.9850
G01 X31.6298 Y-56.9986
G01 X31.6179 Y-57.0121
G01 X31.6066 Y-57.0259
G01 X31.5956 Y-57.0401
G01 X31.5856 Y-57.0539
G01 X31.5750 Y-57.0697
G01 X31.5750 Y-55.1815
G01 X32.9141 Y-53.8424
G01 X33.2676 Y-54.1615
G01 X33.2742 Y-54.1752
G01 X33.2818 Y-54.1886
G01 X33.2895 Y-54.2004
G01 X33.2992 Y-54.2133
G01 X33.3086 Y-54.2243
G01 X33.3192 Y-54.2351
G01 X33.3299 Y-54.2447
G01 X33.3426 Y-54.2547
G01 X33.4132 Y-54.3016
G01 X33.4265 Y-54.3095
G01 X33.4398 Y-54.3161
G01 X33.4522 Y-54.3214
G01 X33.4652 Y-54.3261
G01 X33.5771 Y-54.3606
G01 X33.7824 Y-54.4595
G01 X33.9707 Y-54.5879
G01 X34.1377 Y-54.7429
G01 X34.2798 Y-54.9211
G01 X34.3938 Y-55.1184
G01 X34.4770 Y-55.3306
G01 X34.4891 Y-55.3826
G01 X34.4935 Y-55.3968
G01 X34.4986 Y-55.4104
G01 X34.5026 Y-55.4195
G01 X34.5079 Y-55.4300
G01 X34.5439 Y-55.4952
G01 X34.5531 Y-55.5102
G01 X34.5635 Y-55.5245
G01 X34.5721 Y-55.5348
G01 X34.5816 Y-55.5448
G01 X35.3371 Y-56.3003
G01 X35.3451 Y-56.3080
G01 X35.3599 Y-56.3211
G01 X35.3734 Y-56.3321
G01 X35.4231 Y-56.3861
G01 X35.4455 Y-56.4088
G01 X35.4609 Y-56.4269
G01 X35.4782 Y-56.4458
G01 X35.4974 Y-56.4645
G01 X35.5094 Y-56.4751
G01 X35.5214 Y-56.4843
G01 X35.5334 Y-56.4923
G01 X35.5456 Y-56.4994
G01 X35.5585 Y-56.5059
G01 X35.6343 Y-56.5394
G01 X35.6534 Y-56.5460
G01 X35.6709 Y-56.5505
G01 X35.6868 Y-56.5534
G01 X35.7018 Y-56.5550
G01 X35.7163 Y-56.5556
G01 X35.7324 Y-56.5552
G01 X35.7521 Y-56.5532
G01 X35.8232 Y-56.5423
G01 X35.8364 Y-56.5399
G01 X35.8491 Y-56.5368
G01 X35.8610 Y-56.5332
G01 X35.8746 Y-56.5282
G01 X35.8866 Y-56.5229
G01 X35.8976 Y-56.5173
G01 X35.9093 Y-56.5105
G01 X35.9210 Y-56.5027
G01 X35.9302 Y-56.4959
G01 X35.9390 Y-56.4886
G01 X36.0005 Y-56.4340
G01 X36.0099 Y-56.4243
G01 X36.0191 Y-56.4136
G01 X36.0267 Y-56.4038
G01 X36.0342 Y-56.3927
G01 X36.0429 Y-56.3779
G01 X36.0505 Y-56.3625
G01 X36.0569 Y-56.3467
G01 X36.0617 Y-56.3318
G01 X36.0812 Y-56.2627
G01 X36.0846 Y-56.2491
G01 X36.0869 Y-56.2364
G01 X36.0884 Y-56.2246
G01 X36.0893 Y-56.2121
G01 X36.0895 Y-56.2006
G01 X36.0207 Y-49.3164
G01 X36.0194 Y-49.2973
G01 X36.0169 Y-49.2802
G01 X36.0011 Y-49.2104
G01 X35.9963 Y-49.1949
G01 X35.9900 Y-49.1789
G01 X35.9825 Y-49.1635
G01 X35.9748 Y-49.1500
G01 X35.9652 Y-49.1358
G01 X35.9552 Y-49.1231
G01 X35.9051 Y-49.0658
G01 X35.8936 Y-49.0538
G01 X35.8788 Y-49.0406
G01 X35.8643 Y-49.0297
G01 X35.8481 Y-49.0195
G01 X35.8321 Y-49.0110
G01 X35.8173 Y-49.0046
G01 X35.8030 Y-48.9995
G01 X35.7232 Y-48.9766
G01 X35.7100 Y-48.9737
G01 X35.6964 Y-48.9714
G01 X35.6845 Y-48.9702
G01 X35.6710 Y-48.9695
G01 X34.2137 Y-48.9785
G01 X34.1817 Y-48.9802
G01 X34.1653 Y-48.9823
G01 X34.1500 Y-48.9853
G01 X34.1358 Y-48.9891
G01 X34.1201 Y-48.9945
G01 X34.0400 Y-49.0280
G01 X34.0222 Y-49.0374
G01 X34.0125 Y-49.0433
G01 X34.0039 Y-49.0492
G01 X33.9903 Y-49.0597
G01 X33.9791 Y-49.0698
G01 X33.9678 Y-49.0813
G01 X33.9578 Y-49.0931
G01 X33.9491 Y-49.1048
G01 X33.9079 Y-49.1644
G01 X33.9009 Y-49.1754
G01 X33.8948 Y-49.1863
G01 X33.8865 Y-49.2036
G01 X33.8804 Y-49.2196
G01 X33.8753 Y-49.2370
G01 X33.8714 Y-49.2554
G01 X33.8697 Y-49.2677
G01 X33.8685 Y-49.2811
G01 X33.8658 Y-49.3603
G01 X33.8661 Y-49.3737
G01 X33.8671 Y-49.3878
G01 X33.8691 Y-49.4021
G01 X33.8719 Y-49.4159
G01 X33.8756 Y-49.4299
G01 X33.8801 Y-49.4433
G01 X33.8848 Y-49.4548
G01 X33.8909 Y-49.4679
G01 X33.8980 Y-49.4807
G01 X33.9363 Y-49.5450
G01 X33.9455 Y-49.5586
G01 X33.9569 Y-49.5730
G01 X33.9648 Y-49.5819
G01 X33.9741 Y-49.5911
G01 X34.1377 Y-49.7429
G01 X34.2798 Y-49.9211
G01 X34.3938 Y-50.1184
G01 X34.4770 Y-50.3306
G01 X34.5277 Y-50.5527
G01 X34.5448 Y-50.7800
G01 X34.5277 Y-51.0073
G01 X34.4770 Y-51.2294
G01 X34.3938 Y-51.4416
G01 X34.3362 Y-51.5414
G01 X34.3298 Y-51.5537
G01 X34.3243 Y-51.5660
G01 X34.3201 Y-51.5771
G01 X34.3159 Y-51.5903
G01 X34.2982 Y-51.6562
G01 X34.2950 Y-51.6699
G01 X34.2931 Y-51.6806
G01 X34.2916 Y-51.6925
G01 X34.2908 Y-51.7034
G01 X34.2905 Y-51.7153
G01 X34.2905 Y-52.1449
G01 X34.2920 Y-52.1744
G01 X34.2938 Y-52.1918
G01 X34.2907 Y-52.2651
G01 X34.2905 Y-52.2970
G01 X34.2881 Y-52.3288
G01 X34.2851 Y-52.4022
G01 X34.2825 Y-52.4150
G01 X34.2794 Y-52.4357
G01 X34.2775 Y-52.4543
G01 X34.2576 Y-52.5333
G01 X34.2418 Y-52.6082
G01 X34.2372 Y-52.6205
G01 X34.2308 Y-52.6404
G01 X34.2258 Y-52.6584
G01 X34.1932 Y-52.7331
G01 X34.1653 Y-52.8044
G01 X34.1561 Y-52.8207
G01 X34.1466 Y-52.8393
G01 X34.1412 Y-52.8512
G01 X34.0994 Y-52.9153
G01 X34.0575 Y-52.9852
G01 X34.0492 Y-52.9953
G01 X34.0366 Y-53.0121
G01 X34.0260 Y-53.0275
G01 X33.9754 Y-53.0825
G01 X33.9555 Y-53.1057
G01 X33.9332 Y-53.1284
G01 X33.8834 Y-53.1824
G01 X33.8699 Y-53.1934
G01 X33.8552 Y-53.2064
G01 X33.8471 Y-53.2141
G01 X33.3226 Y-53.7386
G01 X33.3135 Y-53.7482
G01 X33.3046 Y-53.7589
G01 X33.2975 Y-53.7684
G01 X33.2725 Y-53.8038
G01 X33.2633 Y-53.8182
G01 X33.2574 Y-53.8287
G01 X33.2524 Y-53.8386
G01 X33.2474 Y-53.8502
G01 X33.2432 Y-53.8615
G01 X33.2377 Y-53.8803
G01 X33.2337 Y-53.9000
G01 X33.2218 Y-53.9757
G01 X33.2204 Y-53.9908
G01 X33.2200 Y-54.0079
G01 X33.2208 Y-54.0240
G01 X33.2228 Y-54.0410
G01 X33.2258 Y-54.0562
G01 X33.2302 Y-54.0727
G01 X33.2338 Y-54.0836
G01 X33.2380 Y-54.0942
G01 X33.2676 Y-54.1615
G01 X33.3419 Y-54.1288
G01 X33.3490 Y-54.1429
G01 X33.3580 Y-54.1567
G01 X33.3673 Y-54.1682
G01 X33.3792 Y-54.1800
G01 X33.3878 Y-54.1871
G01 X33.3951 Y-54.1924
G01 X33.4550 Y-54.2320
G01 X33.4656 Y-54.2383
G01 X33.4783 Y-54.2444
G01 X33.4901 Y-54.2488
G01 X33.6068 Y-54.2849
G01 X33.8231 Y-54.3890
G01 X34.0214 Y-54.5243
G01 X34.1974 Y-54.6875
G01 X34.3471 Y-54.8752
G01 X34.4671 Y-55.0831
G01 X34.5548 Y-55.3066
G01 X34.5671 Y-55.3599
G01 X34.5697 Y-55.3688
G01 X34.5730 Y-55.3779
G01 X34.5802 Y-55.3932
G01 X34.6145 Y-55.4551
G01 X34.6204 Y-55.4648
G01 X34.6271 Y-55.4740
G01 X34.6331 Y-55.4811
G01 X34.6390 Y-55.4874
G01 X35.3945 Y-56.2429
G01 X35.4144 Y-56.2609
G01 X35.4286 Y-56.2721
G01 X35.4823 Y-56.3305
G01 X35.5053 Y-56.3538
G01 X35.5217 Y-56.3731
G01 X35.5357 Y-56.3884
G01 X35.5584 Y-56.4102
G01 X35.5654 Y-56.4159
G01 X35.5731 Y-56.4213
G01 X35.5808 Y-56.4261
G01 X35.5890 Y-56.4305
G01 X35.6586 Y-56.4616
G01 X35.6699 Y-56.4661
G01 X35.6857 Y-56.4707
G01 X35.7022 Y-56.4735
G01 X35.7187 Y-56.4745
G01 X35.7354 Y-56.4736
G01 X35.8191 Y-56.4606
G01 X35.8279 Y-56.4584
G01 X35.8369 Y-56.4556
G01 X35.8453 Y-56.4524
G01 X35.8539 Y-56.4485
G01 X35.8619 Y-56.4443
G01 X35.8699 Y-56.4393
G01 X35.8832 Y-56.4295
G01 X35.9398 Y-56.3795
G01 X35.9515 Y-56.3679
G01 X35.9608 Y-56.3564
G01 X35.9689 Y-56.3440
G01 X35.9757 Y-56.3309
G01 X35.9812 Y-56.3172
G01 X36.0043 Y-56.2361
G01 X36.0061 Y-56.2272
G01 X36.0074 Y-56.2186
G01 X36.0081 Y-56.2096
G01 X36.0083 Y-56.2010
G01 X35.9396 Y-49.3197
G01 X35.9387 Y-49.3057
G01 X35.9369 Y-49.2937
G01 X35.9233 Y-49.2338
G01 X35.9201 Y-49.2232
G01 X35.9161 Y-49.2128
G01 X35.9114 Y-49.2027
G01 X35.9070 Y-49.1948
G01 X35.9009 Y-49.1855
G01 X35.8929 Y-49.1751
G01 X35.8393 Y-49.1144
G01 X35.8300 Y-49.1057
G01 X35.8197 Y-49.0976
G01 X35.8090 Y-49.0906
G01 X35.7974 Y-49.0844
G01 X35.7873 Y-49.0800
G01 X35.7768 Y-49.0764
G01 X35.7027 Y-49.0552
G01 X35.6942 Y-49.0533
G01 X35.6853 Y-49.0519
G01 X35.6767 Y-49.0510
G01 X35.6677 Y-49.0506
G01 X34.2142 Y-49.0597
G01 X34.1913 Y-49.0609
G01 X34.1806 Y-49.0621
G01 X34.1682 Y-49.0644
G01 X34.1578 Y-49.0673
G01 X34.1477 Y-49.0709
G01 X34.0749 Y-49.1013
G01 X34.0619 Y-49.1082
G01 X34.0496 Y-49.1164
G01 X34.0409 Y-49.1233
G01 X34.0340 Y-49.1297
G01 X34.0263 Y-49.1377
G01 X34.0193 Y-49.1463
G01 X33.9752 Y-49.2097
G01 X33.9704 Y-49.2174
G01 X33.9658 Y-49.2256
G01 X33.9605 Y-49.2372
G01 X33.9560 Y-49.2495
G01 X33.9528 Y-49.2619
G01 X33.9508 Y-49.2728
G01 X33.9495 Y-49.2875
G01 X33.9470 Y-49.3630
G01 X33.9473 Y-49.3721
G01 X33.9481 Y-49.3815
G01 X33.9495 Y-49.3905
G01 X33.9515 Y-49.3996
G01 X33.9540 Y-49.4084
G01 X33.9571 Y-49.4172
G01 X33.9606 Y-49.4256
G01 X33.9648 Y-49.4340
G01 X34.0051 Y-49.5018
G01 X34.0110 Y-49.5106
G01 X34.0187 Y-49.5205
G01 X34.0303 Y-49.5325
G01 X34.1974 Y-49.6875
G01 X34.3471 Y-49.8752
G01 X34.4671 Y-50.0831
G01 X34.5548 Y-50.3066
G01 X34.6082 Y-50.5406
G01 X34.6262 Y-50.7800
G01 X34.6082 Y-51.0194
G01 X34.5548 Y-51.2534
G01 X34.4671 Y-51.4769
G01 X34.4077 Y-51.5797
G01 X34.4037 Y-51.5874
G01 X34.3999 Y-51.5956
G01 X34.3968 Y-51.6037
G01 X34.3936 Y-51.6138
G01 X34.3767 Y-51.6768
G01 X34.3745 Y-51.6862
G01 X34.3724 Y-51.7002
G01 X34.3717 Y-51.7143
G01 X34.3717 Y-52.1436
G01 X34.3731 Y-52.1704
G01 X34.3751 Y-52.1884
G01 X34.3719 Y-52.2676
G01 X34.3717 Y-52.3004
G01 X34.3692 Y-52.3330
G01 X34.3659 Y-52.4122
G01 X34.3626 Y-52.4283
